; HEADER_BLOCK_START
; generated by OrcaSlicer 1.6.3 on 2023-07-15 at 04:27:28
; total layer number: 192
; HEADER_BLOCK_END

; THUMBNAIL_BLOCK_START
; THUMBNAIL_BLOCK_END

; external perimeters extrusion width = 0.50mm
; perimeters extrusion width = 0.50mm
; infill extrusion width = 0.50mm
; solid infill extrusion width = 0.50mm
; top infill extrusion width = 0.50mm
; first layer extrusion width = 0.50mm

; EXECUTABLE_BLOCK_START
EXCLUDE_OBJECT_DEFINE NAME=3DBenchy.stl_id_0_copy_0 CENTER=150,150 POLYGON=[[120,140.816],[120.002,140.755],[120.007,140.699],[120.012,140.646],[120.014,140.63],[120.02,140.583],[120.028,140.525],[120.046,140.436],[120.058,140.379],[120.074,140.322],[120.081,140.296],[120.097,140.239],[120.126,140.155],[120.14,140.118],[120.162,140.064],[120.169,140.047],[120.186,140.01],[120.209,139.958],[120.23,139.916],[120.264,139.854],[120.278,139.827],[120.291,139.806],[120.34,139.727],[120.357,139.7],[120.371,139.679],[120.405,139.631],[120.44,139.584],[120.484,139.531],[120.508,139.501],[120.539,139.466],[120.578,139.423],[120.592,139.408],[120.6,139.4],[120.641,139.359],[120.661,139.34],[120.704,139.3],[120.737,139.271],[120.783,139.234],[120.793,139.225],[120.828,139.197],[120.887,139.154],[120.935,139.121],[120.979,139.092],[121.044,139.052],[121.071,139.036],[121.124,139.008],[121.148,138.995],[121.175,138.981],[121.197,138.97],[121.253,138.944],[121.312,138.919],[121.361,138.899],[121.417,138.879],[121.429,138.875],[121.472,138.861],[121.485,138.857],[121.541,138.84],[121.548,138.838],[121.584,138.828],[121.597,138.825],[121.625,138.818],[121.64,138.814],[121.71,138.799],[121.739,138.794],[121.769,138.789],[121.798,138.784],[149.812,134.886],[150.055,134.853],[150.299,134.821],[150.543,134.791],[150.882,134.752],[151.105,134.728],[151.35,134.702],[151.596,134.678],[151.842,134.656],[152.087,134.635],[152.253,134.622],[152.333,134.616],[152.523,134.602],[152.579,134.598],[152.826,134.581],[152.987,134.571],[153.071,134.566],[153.232,134.557],[153.489,134.544],[153.597,134.539],[153.619,134.538],[153.755,134.532],[153.906,134.526],[154.05,134.521],[154.167,134.517],[154.233,134.515],[154.342,134.512],[154.46,134.509],[154.548,134.507],[154.689,134.504],[154.881,134.501],[155.062,134.499],[155.18,134.498],[155.578,134.498],[155.934,134.5],[156.369,134.508],[156.45,134.51],[156.805,134.52],[156.912,134.524],[157.24,134.537],[157.677,134.558],[158.009,134.578],[158.092,134.583],[158.202,134.59],[158.375,134.602],[158.495,134.611],[158.641,134.622],[158.728,134.629],[158.909,134.644],[159.04,134.655],[159.832,134.78],[159.841,134.782],[160.269,134.888],[160.377,134.915],[160.595,134.97],[160.737,135.007],[160.813,135.027],[160.967,135.068],[161.248,135.145],[161.424,135.195],[161.68,135.27],[161.896,135.334],[162.111,135.4],[162.332,135.47],[162.558,135.543],[162.752,135.607],[163.008,135.694],[163.178,135.753],[163.232,135.772],[163.4,135.832],[163.601,135.905],[163.822,135.987],[164.033,136.067],[164.233,136.145],[164.344,136.188],[164.443,136.228],[164.453,136.232],[164.662,136.316],[164.871,136.402],[164.927,136.425],[165.134,136.513],[165.341,136.603],[165.547,136.693],[165.957,136.879],[166.16,136.974],[166.363,137.07],[166.565,137.168],[166.766,137.267],[166.967,137.367],[167.166,137.469],[167.366,137.572],[167.563,137.677],[167.762,137.783],[167.957,137.89],[168.153,137.999],[168.348,138.11],[168.543,138.221],[168.737,138.334],[168.93,138.449],[169.123,138.565],[169.314,138.683],[169.505,138.801],[169.696,138.922],[169.885,139.043],[170.075,139.167],[170.262,139.291],[170.451,139.417],[170.637,139.544],[170.824,139.673],[171.008,139.803],[171.193,139.934],[171.376,140.067],[171.56,140.201],[171.742,140.337],[171.923,140.474],[172.104,140.612],[172.284,140.752],[172.463,140.893],[172.642,141.036],[172.82,141.18],[172.998,141.325],[173.173,141.472],[173.523,141.77],[173.697,141.921],[173.87,142.074],[174.042,142.228],[174.214,142.384],[174.328,142.489],[174.498,142.645],[174.665,142.803],[174.832,142.962],[174.996,143.122],[175.161,143.283],[175.325,143.445],[175.486,143.609],[175.647,143.773],[175.807,143.939],[175.966,144.106],[176.124,144.274],[176.282,144.443],[176.438,144.614],[176.592,144.785],[176.745,144.958],[176.898,145.132],[177.05,145.306],[177.201,145.483],[177.349,145.66],[177.498,145.838],[177.645,146.017],[177.791,146.198],[177.936,146.38],[178.081,146.563],[178.223,146.747],[178.364,146.932],[178.505,147.118],[178.645,147.305],[178.784,147.493],[178.921,147.683],[179.056,147.874],[179.192,148.065],[179.326,148.258],[179.458,148.452],[179.589,148.647],[179.618,148.692],[179.651,148.745],[179.682,148.798],[179.713,148.852],[179.742,148.907],[179.769,148.962],[179.819,149.076],[179.834,149.117],[179.856,149.175],[179.876,149.233],[179.895,149.292],[179.912,149.351],[179.929,149.413],[179.943,149.47],[179.954,149.53],[179.966,149.593],[179.975,149.652],[179.984,149.713],[179.991,149.774],[179.995,149.836],[179.998,149.905],[180,149.966],[180,150.027],[179.999,150.088],[179.996,150.149],[179.992,150.209],[179.986,150.27],[179.977,150.331],[179.968,150.391],[179.958,150.449],[179.945,150.512],[179.932,150.569],[179.916,150.632],[179.901,150.686],[179.883,150.745],[179.863,150.803],[179.842,150.861],[179.82,150.918],[179.797,150.974],[179.771,151.03],[179.744,151.086],[179.716,151.14],[179.686,151.194],[179.655,151.248],[179.623,151.301],[179.589,151.353],[179.472,151.527],[179.339,151.721],[179.206,151.914],[179.071,152.106],[178.936,152.297],[178.797,152.487],[178.659,152.676],[178.52,152.864],[178.38,153.05],[178.237,153.236],[178.095,153.42],[177.951,153.604],[177.659,153.968],[177.51,154.148],[177.361,154.328],[177.21,154.506],[177.06,154.683],[176.907,154.86],[176.752,155.035],[176.597,155.209],[176.482,155.337],[176.326,155.509],[176.167,155.68],[176.008,155.85],[175.848,156.018],[175.688,156.186],[175.526,156.352],[175.2,156.68],[175.034,156.841],[174.869,157.002],[174.703,157.161],[174.535,157.319],[174.367,157.475],[174.199,157.63],[174.028,157.784],[173.857,157.937],[173.686,158.089],[173.512,158.239],[173.338,158.388],[173.164,158.536],[172.987,158.682],[172.811,158.827],[172.632,158.971],[172.454,159.114],[172.275,159.256],[172.093,159.396],[171.911,159.535],[171.728,159.673],[171.544,159.81],[171.359,159.945],[171.173,160.08],[170.799,160.344],[170.611,160.474],[170.421,160.603],[170.23,160.731],[170.039,160.857],[169.846,160.982],[169.653,161.106],[169.458,161.228],[169.263,161.349],[169.067,161.469],[168.869,161.587],[168.672,161.704],[168.472,161.819],[168.272,161.934],[168.072,162.046],[167.87,162.158],[167.595,162.307],[167.395,162.412],[167.196,162.516],[166.996,162.618],[166.796,162.719],[166.595,162.818],[166.392,162.916],[166.19,163.012],[165.987,163.107],[165.783,163.2],[165.579,163.292],[165.374,163.383],[165.169,163.472],[164.963,163.559],[164.756,163.645],[164.666,163.682],[164.549,163.73],[164.341,163.813],[164.122,163.898],[164.003,163.944],[163.704,164.057],[163.493,164.134],[163.293,164.206],[163.071,164.284],[162.884,164.348],[162.869,164.353],[162.656,164.424],[162.443,164.494],[162.207,164.57],[162.005,164.632],[161.979,164.64],[161.751,164.709],[161.523,164.776],[161.295,164.841],[161.142,164.884],[161.065,164.905],[160.924,164.943],[160.707,165.001],[160.606,165.027],[160.488,165.057],[160.269,165.112],[159.844,165.218],[159.316,165.319],[159.306,165.32],[159.05,165.344],[159.003,165.348],[158.81,165.364],[158.725,165.371],[158.561,165.384],[158.481,165.39],[158.134,165.414],[157.688,165.441],[157.649,165.443],[157.264,165.462],[157.126,165.468],[156.778,165.481],[156.564,165.487],[156.344,165.493],[155.907,165.5],[155.522,165.502],[155.177,165.502],[154.877,165.499],[154.821,165.498],[154.599,165.494],[154.457,165.491],[154.338,165.488],[154.166,165.483],[154.076,165.48],[153.93,165.475],[153.752,165.468],[153.728,165.467],[153.57,165.46],[153.463,165.455],[153.332,165.448],[153.133,165.437],[152.889,165.423],[152.644,165.407],[152.629,165.406],[152.342,165.385],[152.096,165.366],[151.849,165.345],[151.667,165.328],[151.603,165.322],[151.423,165.305],[151.179,165.28],[151.111,165.273],[150.935,165.254],[150.619,165.218],[150.373,165.188],[150.204,165.166],[149.882,165.124],[121.828,161.22],[121.792,161.215],[121.743,161.207],[121.686,161.196],[121.653,161.189],[121.597,161.175],[121.584,161.172],[121.548,161.162],[121.536,161.159],[121.48,161.142],[121.429,161.125],[121.417,161.121],[121.361,161.101],[121.312,161.081],[121.253,161.056],[121.197,161.03],[121.155,161.009],[121.105,160.982],[121.086,160.972],[121.044,160.948],[120.993,160.917],[120.979,160.908],[120.944,160.885],[120.935,160.879],[120.887,160.846],[120.847,160.817],[120.84,160.811],[120.793,160.775],[120.756,160.744],[120.749,160.738],[120.704,160.7],[120.661,160.66],[120.64,160.64],[120.592,160.592],[120.557,160.555],[120.539,160.534],[120.519,160.511],[120.48,160.466],[120.444,160.42],[120.431,160.402],[120.41,160.374],[120.407,160.37],[120.373,160.322],[120.357,160.3],[120.342,160.278],[120.308,160.224],[120.278,160.173],[120.25,160.122],[120.23,160.084],[120.218,160.06],[120.195,160.012],[120.169,159.954],[120.148,159.903],[120.127,159.849],[120.109,159.793],[120.107,159.79],[120.09,159.738],[120.075,159.682],[120.06,159.625],[120.046,159.564],[120.035,159.507],[120.026,159.454],[120.025,159.448],[120.016,159.396],[120.012,159.353],[120.008,159.325],[120.002,159.245],[120,159.208],[120,159.179],[120,140.816]]
M73 P0 R22
;TYPE:Custom
M104 S0 ; Stops OrcaSlicer from sending temp waits separately
M140 S0
print_start EXTRUDER=215 BED=60 


;CHAMBER=0
G90
G21
M83 ; use relative distances for extrusion
; filament start gcode
SET_PRESSURE_ADVANCE ADVANCE=0.025; Override pressure advance value
M106 S0
;LAYER_CHANGE
;Z:0.25
;HEIGHT:0.25
;BEFORE_LAYER_CHANGE
;0.25
G92 E0

G1 E-.8 F1800
G1 Z.4 F21000
;AFTER_LAYER_CHANGE
;0.25
M204 S1000
SET_VELOCITY_LIMIT SQUARE_CORNER_VELOCITY=20
; printing object 3DBenchy.stl id:0 copy 0
EXCLUDE_OBJECT_START NAME=3DBenchy.stl_id_0_copy_0
G1 X150.189 Y149.34
G1 Z.25
G1 E.8 F1800
;TYPE:Outer wall
;WIDTH:0.5
G1 F3600
G3 X150.38 Y148.91 I12.538 J5.326 E.02137
G3 X151.127 Y148.238 I1.115 J.487 E.04709
G3 X151.811 Y149.254 I.061 J.697 E.06777
G3 X151.217 Y150.258 I-14.294 J-7.768 E.05306
G2 X151.041 Y150.808 I.597 J.494 E.02689
G1 X151.049 Y150.838 E.00141
G2 X151.556 Y151.725 I33.605 J-18.62 E.04646
G3 X151.928 Y152.461 I-1.763 J1.353 E.03772
G3 X150.629 Y153.032 I-.698 J.174 E.09175
G3 X150.108 Y152.115 I10.921 J-6.815 E.04797
G3 X149.568 Y153.045 I-3.443 J-1.377 E.04905
G3 X148.469 Y153.04 I-.548 J-.394 E.05839
G3 X148.457 Y152.24 I.64 J-.41 E.03834
G3 X148.985 Y151.313 I33.02 J18.185 E.0485
G2 X149.345 Y150.784 I-10.233 J-7.356 E.02908
G2 X149.242 Y150.569 I-.424 J.071 E.01098
G3 X148.619 Y149.521 I13.943 J-8.996 E.05547
G3 X148.418 Y148.924 I1.526 J-.848 E.0288
G3 X149.551 Y148.378 I.695 J-.006 E.07144
G3 X150.167 Y149.284 I-1.897 J1.953 E.05014
G1 X150.198 Y149.26
G1 E-.56 F1800
;WIPE_START
G1 F3600
G1 X150.38 Y148.91 E-.0491
G1 X150.544 Y148.652 E-.03483
G1 X150.734 Y148.448 E-.03179
G1 X150.861 Y148.351 E-.01825
G1 X150.991 Y148.281 E-.01682
G1 X151.127 Y148.238 E-.01628
G1 X151.274 Y148.231 E-.01671
G1 X151.412 Y148.261 E-.01619
G1 X151.544 Y148.325 E-.01665
G1 X151.617 Y148.393 E-.01139
;WIPE_END
G1 E-.012 F1800
G1 Z.65 F21000
G1 X154.566 Y150.608
G1 Z.25
G1 E.8 F1800
G1 F3600
G3 X154.899 Y149.602 I7.934 J2.068 E.04825
G3 X155.228 Y148.731 I4.169 J1.078 E.0424
G3 X155.745 Y148.248 I.923 J.47 E.0328
G1 X155.872 Y148.232 E.00585
G3 X156.536 Y149.301 I-.098 J.802 E.06562
G2 X156.227 Y150.022 I68.057 J29.673 E.03566
G3 X154.527 Y154.67 I-63.284 J-20.508 E.2251
G3 X153.323 Y155.791 I-1.68 J-.598 E.0777
G3 X152.541 Y155.824 I-.445 J-1.256 E.03614
G3 X152.055 Y154.854 I.362 J-.787 E.05327
G3 X152.562 Y154.434 I.576 J.178 E.03166
G2 X153.206 Y154.121 I-.111 J-1.05 E.0332
G2 X153.556 Y153.327 I-2.904 J-1.755 E.03959
G2 X153.8 Y152.727 I-1.673 J-1.03 E.02958
G1 X153.8 Y152.7 E.00123
G2 X153.538 Y152.029 I-2.731 J.68 E.03283
G2 X152.691 Y149.809 I-58.348 J20.995 E.10803
G3 X152.47 Y149.044 I2.719 J-1.199 E.0363
G3 X152.711 Y148.346 I.752 J-.131 E.03505
G3 X153.803 Y148.567 I.419 J.744 E.05524
G3 X154.059 Y149.288 I-1.863 J1.066 E.035
G2 X154.544 Y150.553 I61.604 J-22.876 E.06155
G1 X154.572 Y150.529
G1 E-.56 F1800
;WIPE_START
G1 F3600
G1 X154.718 Y150.093 E-.05606
G1 X154.899 Y149.602 E-.05969
G1 X155.048 Y149.138 E-.05552
G1 X155.228 Y148.731 E-.05074
G1 X155.259 Y148.688 E-.00599
;WIPE_END
G1 E-.012 F1800
G1 Z.65 F21000
G1 X158.969 Y151.88
G1 Z.25
G1 E.8 F1800
G1 F3600
G3 X160.193 Y151.885 I.594 J4.135 E.05583
G3 X160.781 Y152.467 I-.098 J.687 E.04029
G3 X160.234 Y153.299 I-.684 J.146 E.05037
G3 X158.904 Y153.333 I-.882 J-8.442 E.06057
G2 X157.821 Y153.35 I-.434 J6.954 E.04931
G3 X157.238 Y153.214 I-.11 J-.843 E.02779
G3 X157.09 Y151.98 I.707 J-.71 E.06091
G3 X157.661 Y151.153 I4.827 J2.722 E.04574
G3 X158.716 Y149.689 I34.301 J23.594 E.08205
G3 X157.747 Y149.705 I-.555 J-4.195 E.04415
G3 X157.225 Y149.53 I.111 J-1.192 E.02524
G3 X157.152 Y148.487 I.531 J-.561 E.05219
G3 X157.902 Y148.231 I.672 J.742 E.03706
G2 X160.048 Y148.236 I1.857 J-377.652 E.09755
G3 X160.6 Y148.557 I-.029 J.684 E.03021
G3 X160.427 Y149.803 I-1.085 J.484 E.06023
G2 X159.003 Y151.83 I64.538 J46.846 E.11265
G1 X159.044 Y151.851
G1 E-.56 F1800
;WIPE_START
G1 F3600
G1 X159.606 Y151.833 E-.06883
G1 X160.003 Y151.853 E-.04525
G1 X160.193 Y151.885 E-.02194
G1 X160.417 Y151.96 E-.02697
G1 X160.594 Y152.08 E-.02435
G1 X160.722 Y152.263 E-.02545
G1 X160.759 Y152.391 E-.01521
;WIPE_END
G1 E-.012 F1800
G1 Z.65 F21000
G1 X162.444 Y149.918
G1 Z.25
G1 E.8 F1800
;TYPE:Inner wall
G1 F3600
G3 X162.361 Y150.324 I-.626 J.083 E.01919
G3 X161.143 Y152.103 I-13.827 J-8.157 E.09813
G2 X160.18 Y151.427 I-1.077 J.51 E.05594
G1 X159.862 Y151.383 E.01461
G2 X160.938 Y149.826 I-20.375 J-15.232 E.08607
G2 X160.847 Y148.135 I-1.266 J-.78 E.08192
G2 X159.863 Y147.783 I-.899 J.962 E.04889
G2 X157.626 Y147.803 I-.744 J42.8 E.10169
G2 X156.754 Y148.246 I.128 J1.332 E.04554
G2 X155.629 Y147.813 I-.903 J.667 E.05785
G2 X154.727 Y148.735 I.55 J1.441 E.0605
G1 X154.632 Y148.976 E.01175
G1 X154.437 Y148.963 E.00887
G2 X154.013 Y148.134 I-1.628 J.309 E.04294
G2 X152.448 Y147.984 I-.882 J.966 E.07669
G2 X152.146 Y148.291 I.902 J1.189 E.01969
G2 X151.048 Y147.795 I-.955 J.65 E.0576
G2 X150.168 Y148.391 I.454 J1.618 E.0492
G2 X149.079 Y147.784 I-1.094 J.682 E.05918
G2 X147.98 Y148.71 I.041 J1.163 E.07041
G2 X148.226 Y149.732 I1.675 J.138 E.04861
G2 X148.83 Y150.757 I16.964 J-9.312 E.05408
G2 X148.309 Y151.602 I4.202 J3.17 E.04522
G2 X146.938 Y150.676 I-1.615 J.912 E.07799
G2 X146.268 Y150.737 I-.159 J1.958 E.03074
G2 X146.051 Y148.305 I-5.284 J-.754 E.11201
G2 X144.165 Y146.504 I-2.645 J.883 E.12337
G2 X142.165 Y146.352 I-1.592 J7.696 E.09144
G2 X141.09 Y146.454 I-.293 J2.616 E.04941
G2 X140.4 Y147.621 I.404 J1.027 E.06639
G3 X140.428 Y148.513 I-4.363 J.586 E.04064
G2 X140.428 Y150.143 I183.994 J.864 E.07408
G1 X140.21 Y150.184 E.0101
G2 X139.841 Y149.484 I-2.307 J.766 E.03613
G2 X140.165 Y148.179 I-1.981 J-1.184 E.06202
G2 X138.736 Y146.301 I-1.896 J-.04 E.11581
G2 X136.413 Y146.457 I-.94 J3.372 E.10791
G2 X135.754 Y146.963 I1.071 J2.075 E.03799
G2 X134.627 Y146.344 I-1.012 J.507 E.06221
G3 X132.227 Y146.349 I-1.335 J-75.401 E.10911
G3 X131.02 Y146.319 I-.459 J-5.92 E.05498
G2 X129.763 Y147.106 I-.133 J1.185 E.0728
G2 X127.608 Y146.176 I-2.04 J1.766 E.11038
G2 X124.999 Y147.505 I-.065 J3.096 E.13864
G1 X124.812 Y147.446 E.00892
G1 X124.812 Y145.134 E.10512
G3 X125.818 Y144.03 I1.034 J-.068 E.07585
G1 X149.198 Y142.605 E1.06493
G3 X150.547 Y142.588 I.903 J17.544 E.06133
G3 X162.415 Y149.795 I-.485 J14.175 E.6597
G3 X162.434 Y149.859 I-.597 J.206 E.003
G1 E-.56 F1800
;WIPE_START
G1 F3600
G1 X162.45 Y150.049 E-.02175
G1 X162.422 Y150.185 E-.01588
G1 X162.361 Y150.324 E-.01722
G1 X162.113 Y150.737 E-.05497
G1 X161.703 Y151.358 E-.0849
G1 X161.527 Y151.592 E-.03328
;WIPE_END
G1 E-.012 F1800
G1 Z.65 F21000
