; generated by PrusaSlicer 2.6.0+win64 on 2023-07-18 at 04:12:09 UTC


;
;

;
;
; TODO: check the size of the extruder and the y-bar clearance. Optimize & test supports.

; external perimeters extrusion width = 0.40mm
; perimeters extrusion width = 0.46mm
; infill extrusion width = 0.64mm
; solid infill extrusion width = 0.56mm
; top infill extrusion width = 0.40mm
; first layer extrusion width = 0.50mm

M73 P0 R48


; Pre-Processed for Cancel-Object support by preprocess_cancellation v0.2.0
; 1 known objects
EXCLUDE_OBJECT_DEFINE NAME=3DBenchy_stl_id_0_copy_0 CENTER=152.267,150.093 POLYGON=[[120.2,134.698],[120.2,165.302],[179.787,165.302],[179.787,134.698]]
;TYPE:Custom
M190 S0
M109 S0
print_start EXTRUDER=215 BED=60
G21 ; set units to millimeters
G90 ; use absolute coordinates
M83 ; use relative distances for extrusion
; Filament gcode
M107
;LAYER_CHANGE
;Z:0.2
;HEIGHT:0.2
;BEFORE_LAYER_CHANGE
;0.2
G92 E0

G1 E-.75 F1800
G1 Z.2 F30000
;AFTER_LAYER_CHANGE
;0.2
; printing object 3DBenchy.stl id:0 copy 0
EXCLUDE_OBJECT_START NAME=3DBenchy_stl_id_0_copy_0
G1 Z1
G1 X155.848 Y155.114
G1 Z.2
G1 E.75 F1800
M204 S500
;TYPE:Perimeter
;WIDTH:0.546732
G1 X156.243 Y154.14 E.04403
G1 X156.464 Y154.351 E.0128
G1 X156.861 Y154.568 E.01895
G1 X156.309 Y154.883 E.02662
G1 X155.902 Y155.087 E.01907
M204 S10000
G1 X154.538 Y156.174 F30000
M204 S500
;WIDTH:0.499999
G1 F1800
G1 X154.884 Y155.835 E.01841
G1 X155.143 Y155.46 E.01732
G1 X155.32 Y155.115 E.01474
G1 X155.668 Y154.294 E.03389
G1 X156.127 Y153.064 E.0499
G1 X156.354 Y153.589 E.02174
G1 X156.715 Y153.941 E.01916
G1 X157.025 Y154.127 E.01374
G1 X157.566 Y154.251 E.02109
G1 X158.22 Y154.238 E.02486
G1 X157.725 Y154.59 E.02308
G1 X157.055 Y155.013 E.03011
G1 X156.535 Y155.307 E.0227
G1 X155.856 Y155.647 E.02886
G1 X155.023 Y156.003 E.03443
G1 X154.594 Y156.154 E.01729
M204 S10000
G1 E-.75
G1 X160.675 Y151.068 F30000
G1 E.75 F1800
M204 S500
;WIDTH:0.535979
G1 X161.12 Y150.431 E.03186
;WIDTH:0.539809
G1 X161.442 Y149.88 E.02637
G1 X161.596 Y149.418 E.02012
G1 X161.926 Y150.005 E.02782
;WIDTH:0.539798
G1 X161.872 Y150.13 E.00563
G1 X161.462 Y150.799 E.03242
;WIDTH:0.535979
G1 X161.101 Y151.314 E.02578
G1 X160.931 Y151.179 E.0089
G1 X160.73 Y151.092 E.00898
M204 S10000
G1 E-.75
G1 X156.788 Y147.101 F30000
G1 E.75 F1800
M204 S500
;WIDTH:0.499999
G1 X156.708 Y147.054 E.00353
G1 X156.179 Y146.911 E.02083
G1 X155.587 Y146.886 E.02252
G1 X155.092 Y147.038 E.01968
G1 X154.568 Y147.398 E.02416
G1 X154.516 Y147.351 E.00266
G1 X153.953 Y147.041 E.02443
G1 X153.512 Y146.899 E.01761
G1 X153.204 Y146.867 E.01177
G1 X152.669 Y146.912 E.02041
G1 X152.136 Y147.098 E.02146
G1 X151.939 Y146.996 E.00843
G1 X151.588 Y146.898 E.01385
G1 X151.052 Y146.869 E.0204
G1 X150.696 Y146.936 E.01377
G1 X150.184 Y147.162 E.02127
G1 X149.733 Y146.958 E.01881
G1 X149.248 Y146.863 E.01878
G1 X148.857 Y146.896 E.01491
G1 X148.199 Y147.077 E.02594
G1 X147.792 Y147.346 E.01854
G1 X147.431 Y147.709 E.01946
G1 X147.181 Y148.184 E.0204
G1 X147.081 Y148.541 E.01409
G1 X146.912 Y148.011 E.02114
G1 X146.707 Y147.512 E.0205
G1 X146.309 Y146.884 E.02826
G1 X145.845 Y146.385 E.0259
G1 X145.237 Y145.949 E.02844
G1 X144.597 Y145.672 E.0265
G1 X143.96 Y145.519 E.0249
G1 X143.358 Y145.449 E.02303
G1 X141.639 Y145.416 E.06534
G1 X141.104 Y145.484 E.0205
G1 X140.492 Y145.719 E.02492
G1 X140.108 Y146.009 E.01829
G1 X139.629 Y145.692 E.02183
G1 X139.137 Y145.467 E.02056
G1 X138.319 Y145.285 E.03185
G1 X137.407 Y145.267 E.03467
G1 X136.868 Y145.341 E.02068
G1 X136.464 Y145.452 E.01592
G1 X135.832 Y145.727 E.0262
G1 X135.486 Y145.568 E.01447
G1 X134.773 Y145.424 E.02765
G1 X133.438 Y145.428 E.05074
;WIDTH:0.543973
G1 X133.358 Y145.406 E.00346
;WIDTH:0.587947
G1 X133.278 Y145.385 E.00375
;WIDTH:0.631921
G1 X133.198 Y145.363 E.00406
;WIDTH:0.675895
G1 X133.118 Y145.341 E.00437
;WIDTH:0.719869
G1 X133.038 Y145.32 E.00466
G1 X131.545 Y145.346 E.08405
;WIDTH:0.677043
G1 X130.981 Y145.325 E.02976
;WIDTH:0.648419
G1 X130.477 Y145.364 E.02545
G1 X130.388 Y145.411 E.00507
;WIDTH:0.604675
G1 X130.207 Y145.493 E.00928
;WIDTH:0.569783
G1 X130.025 Y145.576 E.00876
;WIDTH:0.534891
G1 X129.844 Y145.658 E.00813
;WIDTH:0.499999
G1 X129.631 Y145.81 E.00995
G1 X129.098 Y145.519 E.02308
G1 X128.464 Y145.34 E.02504
G1 X127.465 Y145.275 E.03805
;WIDTH:0.496058
G1 X126.601 Y145.369 E.03275
;WIDTH:0.525363
G1 X126.355 Y145.428 E.01015
;WIDTH:0.554667
G1 X126.109 Y145.486 E.01075
G1 X125.779 Y145.627 E.01527
G1 X125.779 Y145.247 E.01617
G1 X125.814 Y145.028 E.00944
G1 X126.02 Y144.986 E.00895
G1 X126.455 Y144.939 E.01862
;WIDTH:0.513399
G1 X126.89 Y144.891 E.01712
;WIDTH:0.478216
G1 X127.796 Y144.839 E.03285
;WIDTH:0.499999
G1 X129.968 Y144.718 E.08268
;WIDTH:0.549473
G1 X130.108 Y144.735 E.00594
;WIDTH:0.598946
G1 X130.248 Y144.751 E.00651
;WIDTH:0.648419
G1 X130.389 Y144.767 E.00714
G1 X130.984 Y144.728 E.03002
;WIDTH:0.677043
G1 X131.525 Y144.712 E.02854
;WIDTH:0.719869
G1 X133.017 Y144.643 E.08407
G1 X133.095 Y144.616 E.00465
;WIDTH:0.675895
G1 X133.174 Y144.59 E.00438
;WIDTH:0.631921
G1 X133.252 Y144.563 E.00404
;WIDTH:0.587947
G1 X133.331 Y144.536 E.00378
;WIDTH:0.543973
G1 X133.409 Y144.509 E.00344
;WIDTH:0.499999
G1 X149.237 Y143.548 E.60267
G1 X150.065 Y143.524 E.03148
G1 X151.029 Y143.558 E.03666
G1 X151.755 Y143.632 E.02774
G1 X152.487 Y143.748 E.02817
G1 X153.481 Y143.974 E.03874
G1 X154.189 Y144.184 E.02807
G1 X155.153 Y144.542 E.03908
G1 X155.913 Y144.888 E.03174
G1 X156.74 Y145.332 E.03567
G1 X157.381 Y145.731 E.0287
G1 X158.211 Y146.328 E.03886
G1 X158.846 Y146.861 E.03151
G1 X157.764 Y146.871 E.04112
G1 X157.157 Y146.957 E.0233
G1 X156.843 Y147.079 E.0128
M204 S10000
G1 X156.78 Y147.641 F30000
M204 S500
G1 F1800
G1 X156.518 Y147.47 E.01189
G1 X156.223 Y147.381 E.01171
G1 X155.649 Y147.339 E.02187
G1 X155.352 Y147.421 E.01171
G1 X155.165 Y147.523 E.0081
G1 X154.754 Y147.838 E.01968
G1 X154.561 Y148.087 E.01197
G1 X154.239 Y147.715 E.0187
G1 X153.751 Y147.451 E.02109
G1 X153.436 Y147.35 E.01257
G1 X153.083 Y147.319 E.01347
G1 X152.493 Y147.434 E.02285
G1 X152.163 Y147.619 E.01438
G1 X151.767 Y147.419 E.01686
G1 X151.516 Y147.35 E.00989
G1 X151.011 Y147.332 E.01921
G1 X150.534 Y147.493 E.01913
G1 X150.19 Y147.727 E.01581
G1 X150.005 Y147.583 E.00891
G1 X149.527 Y147.371 E.01987
G1 X149.118 Y147.321 E.01566
G1 X148.609 Y147.416 E.01968
G1 X148.216 Y147.594 E.0164
G1 X147.799 Y147.979 E.02157
G1 X147.601 Y148.364 E.01645
G1 X147.513 Y148.708 E.0135
G1 X147.521 Y149.088 E.01445
G1 X147.605 Y149.458 E.01442
G1 X147.827 Y149.977 E.02145
G1 X148.265 Y150.746 E.03364
G1 X148.222 Y150.762 E.00174
G1 X147.745 Y150.442 E.02183
G1 X147.349 Y150.29 E.01612
G1 X146.771 Y150.211 E.02217
G1 X146.752 Y149.314 E.0341
G1 X146.66 Y148.735 E.02228
G1 X146.537 Y148.325 E.01627
G1 X146.313 Y147.744 E.02367
G1 X145.962 Y147.181 E.02522
G1 X145.56 Y146.743 E.0226
G1 X145.036 Y146.36 E.02467
G1 X144.481 Y146.114 E.02307
G1 X143.901 Y145.972 E.02269
G1 X143.348 Y145.906 E.02117
G1 X141.762 Y145.87 E.06029
G1 X141.21 Y145.928 E.02109
G1 X140.71 Y146.121 E.02037
G1 X140.328 Y146.433 E.01875
G1 X140.135 Y146.725 E.0133
G1 X139.897 Y146.431 E.01438
G1 X139.387 Y146.08 E.02353
G1 X139.019 Y145.908 E.01544
G1 X138.296 Y145.742 E.02819
G1 X137.469 Y145.72 E.03144
G1 X136.93 Y145.794 E.02068
G1 X136.642 Y145.873 E.01135
G1 X136.11 Y146.098 E.02195
G1 X135.812 Y146.287 E.01341
G1 X135.655 Y146.153 E.00784
G1 X135.35 Y146.005 E.01288
G1 X134.774 Y145.881 E.02239
G1 X131.516 Y145.892 E.12383
G1 X130.945 Y145.852 E.02175
G1 X130.535 Y145.898 E.01568
G1 X130.054 Y146.064 E.01934
G1 X129.668 Y146.38 E.01896
G1 X128.948 Y145.951 E.03185
G1 X128.412 Y145.794 E.02123
G1 X127.504 Y145.713 E.03465
G1 X126.732 Y145.805 E.02955
G1 X126.001 Y146.056 E.02937
G1 X125.295 Y146.501 E.03172
G1 X125.295 Y145.124 E.05233
G1 X125.397 Y144.769 E.01404
G1 X125.604 Y144.577 E.01073
G1 X125.904 Y144.507 E.01171
G1 X149.217 Y143.091 E.88767
G1 X150.067 Y143.067 E.03232
G1 X151.061 Y143.102 E.0378
G1 X151.814 Y143.178 E.02876
G1 X152.574 Y143.299 E.02925
G1 X153.597 Y143.532 E.03988
G1 X154.334 Y143.751 E.02922
G1 X155.327 Y144.12 E.04026
G1 X156.116 Y144.478 E.03293
G1 X156.969 Y144.937 E.03681
G1 X157.437 Y145.227 E.02092
G1 X158.513 Y145.985 E.05002
G1 X159.246 Y146.601 E.03639
G1 X159.979 Y147.321 E.03905
G1 X157.822 Y147.325 E.08198
G1 X157.168 Y147.428 E.02516
G1 X156.832 Y147.612 E.01456
M204 S10000
G1 E-.75
G1 X159.865 Y151.387 F30000
G1 E.75 F1800
M204 S500
G1 X160.485 Y150.516 E.04063
G1 X160.833 Y149.982 E.02422
G1 X161.109 Y149.426 E.02359
G1 X161.163 Y149.032 E.01511
G1 X161.092 Y148.589 E.01705
;WIDTH:0.496611
G1 X160.973 Y148.387 E.00884
;WIDTH:0.466364
G1 X160.854 Y148.184 E.00829
;WIDTH:0.465273
G1 X160.678 Y148.035 E.0081
;WIDTH:0.494428
G1 X160.502 Y147.886 E.00866
;WIDTH:0.499999
G1 X160.028 Y147.778 E.01848
G1 X157.879 Y147.778 E.08168
G1 X157.365 Y147.847 E.01971
G1 X157.121 Y147.958 E.01019
G1 X156.755 Y148.259 E.01801
G1 X156.448 Y147.956 E.01639
G1 X156.151 Y147.832 E.01223
G1 X155.711 Y147.792 E.01679
G1 X155.533 Y147.841 E.00702
G1 X155.159 Y148.092 E.01712
G1 X154.963 Y148.312 E.0112
G1 X154.705 Y148.772 E.02004
G1 X154.531 Y149.241 E.01901
G1 X154.386 Y148.735 E.02001
G1 X154.167 Y148.324 E.0177
G1 X153.963 Y148.079 E.01212
G1 X153.486 Y147.834 E.02038
G1 X153.126 Y147.778 E.01385
G1 X152.709 Y147.845 E.01605
G1 X152.45 Y147.975 E.01101
G1 X152.154 Y148.314 E.0171
G1 X152.075 Y148.205 E.00512
G1 X151.872 Y148.006 E.0108
G1 X151.534 Y147.821 E.01464
G1 X151.074 Y147.785 E.01754
G1 X150.618 Y147.964 E.01862
G1 X150.166 Y148.408 E.02408
G1 X149.949 Y148.134 E.01328
G1 X149.768 Y147.974 E.00918
G1 X149.462 Y147.834 E.01279
G1 X149.145 Y147.777 E.01224
G1 X148.585 Y147.906 E.02184
G1 X148.207 Y148.2 E.0182
G1 X148.021 Y148.545 E.0149
G1 X147.966 Y148.854 E.01193
G1 X148.028 Y149.285 E.01655
G1 X148.225 Y149.751 E.01923
G1 X148.811 Y150.767 E.04458
G1 X148.587 Y151.089 E.01491
G1 X148.286 Y151.615 E.02303
G1 X147.965 Y151.151 E.02144
G1 X147.504 Y150.831 E.02133
G1 X147.267 Y150.739 E.00966
G1 X146.699 Y150.661 E.02179
G1 X146.259 Y150.75 E.01706
G1 X146.315 Y150.312 E.01678
G1 X146.31 Y149.629 E.02596
G1 X146.245 Y149.036 E.02267
G1 X146.105 Y148.475 E.02198
G1 X145.918 Y147.975 E.02029
G1 X145.615 Y147.478 E.02212
G1 X145.274 Y147.1 E.01935
G1 X144.836 Y146.771 E.02082
G1 X144.366 Y146.556 E.01964
G1 X143.842 Y146.425 E.02053
G1 X143.338 Y146.363 E.0193
G1 X141.751 Y146.327 E.06033
G1 X141.404 Y146.358 E.01324
G1 X140.927 Y146.523 E.01918
G1 X140.583 Y146.831 E.01755
G1 X140.411 Y147.261 E.0176
G1 X140.411 Y147.489 E.00867
;WIDTH:0.452571
G1 X140.474 Y148.072 E.01997
;WIDTH:0.428563
G1 X140.462 Y148.865 E.02543
;WIDTH:0.463329
G1 X140.444 Y149.063 E.00695
;WIDTH:0.498094
G1 X140.427 Y149.261 E.00752
;WIDTH:0.532859
G1 X140.409 Y149.459 E.0081
G1 X140.411 Y150.984 E.06213
G1 X140.215 Y150.15 E.0349
G1 X140.012 Y149.69 E.02048
G1 X139.883 Y149.495 E.00952
G1 X139.972 Y149.293 E.00899
;WIDTH:0.521663
G1 X140.014 Y149.082 E.00856
;WIDTH:0.485837
G1 X140.056 Y148.871 E.00792
;WIDTH:0.450011
G1 X140.098 Y148.661 E.00725
;WIDTH:0.414185
G1 X140.108 Y147.878 E.02417
;WIDTH:0.432901
G1 X140.069 Y147.688 E.00629
;WIDTH:0.46645
G1 X140.031 Y147.498 E.00682
;WIDTH:0.499999
G1 X139.993 Y147.307 E.0074
G1 X139.639 Y146.828 E.02264
G1 X139.456 Y146.661 E.00942
G1 X138.9 Y146.35 E.02421
G1 X138.273 Y146.198 E.02452
G1 X137.532 Y146.173 E.02818
G1 X136.82 Y146.295 E.02745
G1 X136.208 Y146.559 E.02533
G1 X135.749 Y146.979 E.02365
G1 X135.51 Y146.626 E.0162
G1 X135.266 Y146.459 E.01124
G1 X134.776 Y146.338 E.01918
G1 X131.549 Y146.349 E.12265
G1 X130.824 Y146.308 E.0276
G1 X130.381 Y146.422 E.01739
G1 X130.081 Y146.608 E.01342
G1 X129.871 Y146.862 E.01253
G1 X129.777 Y147.124 E.01058
G1 X129.435 Y146.774 E.0186
G1 X128.917 Y146.437 E.02349
G1 X128.36 Y146.248 E.02235
G1 X127.544 Y146.169 E.03116
G1 X126.863 Y146.243 E.02603
G1 X126.229 Y146.452 E.02537
G1 X125.613 Y146.83 E.02747
G1 X125.105 Y147.347 E.02755
G1 X124.837 Y147.772 E.0191
G1 X124.838 Y145.647 E.08076
G1 X124.858 Y144.958 E.0262
G1 X124.999 Y144.534 E.01698
G1 X125.166 Y144.326 E.01014
G1 X125.389 Y144.17 E.01034
G1 X125.854 Y144.053 E.01822
G1 X149.196 Y142.634 E.88878
G1 X150.069 Y142.609 E.03319
G1 X151.092 Y142.646 E.03891
G1 X151.872 Y142.725 E.0298
G1 X152.66 Y142.85 E.03032
G1 X153.713 Y143.09 E.04105
G1 X154.479 Y143.317 E.03036
G1 X155.502 Y143.697 E.04148
G1 X156.319 Y144.068 E.0341
G1 X157.198 Y144.541 E.03794
G1 X157.678 Y144.839 E.02147
G1 X158.807 Y145.635 E.0525
G1 X159.562 Y146.271 E.03752
G1 X160.349 Y147.048 E.04203
G1 X160.781 Y147.514 E.02415
;WIDTH:0.494428
G1 X160.97 Y147.725 E.01063
;WIDTH:0.465273
G1 X161.16 Y147.937 E.01
;WIDTH:0.466364
G1 X161.312 Y148.157 E.00942
;WIDTH:0.496611
G1 X161.465 Y148.378 E.01014
;WIDTH:0.499999
G1 X162.054 Y149.254 E.04012
G1 X162.363 Y149.785 E.02335
G1 X162.401 Y150.047 E.01006
G1 X162.395 Y150.111 E.00244
G1 X162.284 Y150.371 E.01074
G1 X161.93 Y150.948 E.02573
G1 X161.633 Y151.393 E.02033
G1 X161.112 Y152.08 E.03277
G1 X161.02 Y151.894 E.00789
G1 X160.697 Y151.593 E.01678
G1 X160.385 Y151.467 E.01279
G1 X159.925 Y151.396 E.01769
M204 S10000
G1 E-.75
G1 X147.236 Y149.793 F30000
G1 E.75 F1800
M204 S500
;WIDTH:0.522252
G1 X147.205 Y149.613 E.00728
;WIDTH:0.473318
G1 X147.173 Y149.432 E.00658
;WIDTH:0.424383
G1 X147.142 Y149.252 E.00579
;WIDTH:0.404776
G1 X147.101 Y148.901 E.01063
M204 S10000
G1 E-.75
G1 X134.869 Y151.077 F30000
G1 E.75 F1800
M204 S500
;WIDTH:0.522196
G1 X134.85 Y150.158 E.03663
;WIDTH:0.4924
G1 X134.842 Y149.576 E.02175
;WIDTH:0.479682
G1 X135.309 Y149.483 E.01729
G1 X135.296 Y149.585 E.00373
;WIDTH:0.4924
G1 X135.296 Y150.117 E.01988
;WIDTH:0.522196
G1 X135.389 Y150.488 E.01524
G1 X135.262 Y150.585 E.00637
G1 X134.907 Y151.03 E.02269
M204 S10000
G1 E-.75
G1 X129.574 Y149.976 F30000
G1 E.75 F1800
M204 S500
;WIDTH:0.657091
G1 X129.869 Y149.853 E.01632
G1 X130.145 Y149.667 E.017
G1 X130.586 Y149.719 E.02268
G1 X130.592 Y150.713 E.05076
G1 X130.545 Y150.632 E.00478
G1 X130.085 Y150.223 E.03143
G1 X129.628 Y150.002 E.02592
M204 S10000
G1 X127.695 Y150.272 F30000
M204 S500
;WIDTH:0.431148
G1 F1800
G1 X127.669 Y150.258 E.00095
G1 X127.677 Y149.639 E.01998
G1 X128.104 Y149.84 E.01523
;WIDTH:0.455716
G1 X128.624 Y149.966 E.01837
G1 X128.107 Y150.066 E.01807
;WIDTH:0.431148
G1 X127.748 Y150.245 E.01295
M204 S10000
G1 E-.75
G1 X127.044 Y154.629 F30000
G1 E.75 F1800
M204 S500
;WIDTH:0.526153
G1 X127.235 Y154.657 E.00776
;WIDTH:0.52581
G1 X128.005 Y154.666 E.03092
G1 X128.418 Y154.603 E.01677
;WIDTH:0.510677
G1 X129.013 Y154.436 E.02404
;WIDTH:0.499999
G1 X129.45 Y154.244 E.01814
G1 X130.032 Y153.853 E.02665
G1 X130.42 Y153.447 E.02134
G1 X130.702 Y153.011 E.01973
G1 X130.888 Y153.493 E.01964
G1 X131.085 Y153.793 E.01364
G1 X131.52 Y154.171 E.0219
G1 X132.113 Y154.439 E.02473
G1 X132.606 Y154.529 E.01905
G1 X133.139 Y154.487 E.02032
G1 X133.692 Y154.306 E.02211
G1 X134.171 Y153.977 E.02209
G1 X134.357 Y153.774 E.01046
G1 X134.608 Y153.391 E.0174
G1 X134.745 Y152.987 E.01621
G1 X134.804 Y153.145 E.00641
G1 X135.071 Y153.593 E.01982
G1 X135.289 Y153.824 E.01207
G1 X135.703 Y154.147 E.01996
G1 X136.223 Y154.413 E.0222
G1 X136.778 Y154.578 E.02201
G1 X137.15 Y154.642 E.01435
G1 X137.768 Y154.674 E.02352
G1 X138.38 Y154.632 E.02331
G1 X139.002 Y154.482 E.02432
G1 X139.679 Y154.167 E.02838
G1 X140.077 Y153.877 E.01872
G1 X140.486 Y154.246 E.02094
G1 X141.055 Y154.468 E.02321
G1 X141.49 Y154.535 E.01673
G1 X142.131 Y154.498 E.0244
G1 X142.928 Y154.503 E.03029
G1 X143.606 Y154.459 E.02582
G1 X144.375 Y154.313 E.02975
G1 X144.851 Y154.149 E.01913
G1 X145.156 Y154.419 E.01548
G1 X145.595 Y154.692 E.01965
G1 X146.19 Y154.911 E.0241
G1 X146.546 Y154.966 E.01369
G1 X146.971 Y154.975 E.01616
G1 X147.458 Y154.884 E.01883
G1 X147.905 Y154.722 E.01807
G1 X148.217 Y154.519 E.01415
G1 X148.382 Y154.593 E.00687
G1 X148.757 Y154.676 E.0146
G1 X149.21 Y154.698 E.01724
G1 X149.639 Y154.607 E.01667
G1 X150.098 Y154.389 E.01931
G1 X150.259 Y154.488 E.00718
