; HEADER_BLOCK_START
; generated by OrcaSlicer 1.6.3 on 2023-07-15 at 04:00:09
; total layer number: 192
; HEADER_BLOCK_END

; THUMBNAIL_BLOCK_START
; THUMBNAIL_BLOCK_END

; external perimeters extrusion width = 0.50mm
; perimeters extrusion width = 0.50mm
; infill extrusion width = 0.50mm
; solid infill extrusion width = 0.50mm
; top infill extrusion width = 0.50mm
; first layer extrusion width = 0.50mm

; EXECUTABLE_BLOCK_START
EXCLUDE_OBJECT_DEFINE NAME=3DBenchy.stl_id_0_copy_0 CENTER=150,150 POLYGON=[[120,140.816],[120.002,140.755],[120.007,140.699],[120.012,140.646],[120.014,140.63],[120.02,140.583],[120.028,140.525],[120.046,140.436],[120.058,140.379],[120.074,140.322],[120.081,140.296],[120.097,140.239],[120.126,140.155],[120.14,140.118],[120.162,140.064],[120.169,140.047],[120.186,140.01],[120.209,139.958],[120.23,139.916],[120.264,139.854],[120.278,139.827],[120.291,139.806],[120.34,139.727],[120.357,139.7],[120.371,139.679],[120.405,139.631],[120.44,139.584],[120.484,139.531],[120.508,139.501],[120.539,139.466],[120.578,139.423],[120.592,139.408],[120.6,139.4],[120.641,139.359],[120.661,139.34],[120.704,139.3],[120.737,139.271],[120.783,139.234],[120.793,139.225],[120.828,139.197],[120.887,139.154],[120.935,139.121],[120.979,139.092],[121.044,139.052],[121.071,139.036],[121.124,139.008],[121.148,138.995],[121.175,138.981],[121.197,138.97],[121.253,138.944],[121.312,138.919],[121.361,138.899],[121.417,138.879],[121.429,138.875],[121.472,138.861],[121.485,138.857],[121.541,138.84],[121.548,138.838],[121.584,138.828],[121.597,138.825],[121.625,138.818],[121.64,138.814],[121.71,138.799],[121.739,138.794],[121.769,138.789],[121.798,138.784],[149.812,134.886],[150.055,134.853],[150.299,134.821],[150.543,134.791],[150.882,134.752],[151.105,134.728],[151.35,134.702],[151.596,134.678],[151.842,134.656],[152.087,134.635],[152.253,134.622],[152.333,134.616],[152.523,134.602],[152.579,134.598],[152.826,134.581],[152.987,134.571],[153.071,134.566],[153.232,134.557],[153.489,134.544],[153.597,134.539],[153.619,134.538],[153.755,134.532],[153.906,134.526],[154.05,134.521],[154.167,134.517],[154.233,134.515],[154.342,134.512],[154.46,134.509],[154.548,134.507],[154.689,134.504],[154.881,134.501],[155.062,134.499],[155.18,134.498],[155.578,134.498],[155.934,134.5],[156.369,134.508],[156.45,134.51],[156.805,134.52],[156.912,134.524],[157.24,134.537],[157.677,134.558],[158.009,134.578],[158.092,134.583],[158.202,134.59],[158.375,134.602],[158.495,134.611],[158.641,134.622],[158.728,134.629],[158.909,134.644],[159.04,134.655],[159.832,134.78],[159.841,134.782],[160.269,134.888],[160.377,134.915],[160.595,134.97],[160.737,135.007],[160.813,135.027],[160.967,135.068],[161.248,135.145],[161.424,135.195],[161.68,135.27],[161.896,135.334],[162.111,135.4],[162.332,135.47],[162.558,135.543],[162.752,135.607],[163.008,135.694],[163.178,135.753],[163.232,135.772],[163.4,135.832],[163.601,135.905],[163.822,135.987],[164.033,136.067],[164.233,136.145],[164.344,136.188],[164.443,136.228],[164.453,136.232],[164.662,136.316],[164.871,136.402],[164.927,136.425],[165.134,136.513],[165.341,136.603],[165.547,136.693],[165.957,136.879],[166.16,136.974],[166.363,137.07],[166.565,137.168],[166.766,137.267],[166.967,137.367],[167.166,137.469],[167.366,137.572],[167.563,137.677],[167.762,137.783],[167.957,137.89],[168.153,137.999],[168.348,138.11],[168.543,138.221],[168.737,138.334],[168.93,138.449],[169.123,138.565],[169.314,138.683],[169.505,138.801],[169.696,138.922],[169.885,139.043],[170.075,139.167],[170.262,139.291],[170.451,139.417],[170.637,139.544],[170.824,139.673],[171.008,139.803],[171.193,139.934],[171.376,140.067],[171.56,140.201],[171.742,140.337],[171.923,140.474],[172.104,140.612],[172.284,140.752],[172.463,140.893],[172.642,141.036],[172.82,141.18],[172.998,141.325],[173.173,141.472],[173.523,141.77],[173.697,141.921],[173.87,142.074],[174.042,142.228],[174.214,142.384],[174.328,142.489],[174.498,142.645],[174.665,142.803],[174.832,142.962],[174.996,143.122],[175.161,143.283],[175.325,143.445],[175.486,143.609],[175.647,143.773],[175.807,143.939],[175.966,144.106],[176.124,144.274],[176.282,144.443],[176.438,144.614],[176.592,144.785],[176.745,144.958],[176.898,145.132],[177.05,145.306],[177.201,145.483],[177.349,145.66],[177.498,145.838],[177.645,146.017],[177.791,146.198],[177.936,146.38],[178.081,146.563],[178.223,146.747],[178.364,146.932],[178.505,147.118],[178.645,147.305],[178.784,147.493],[178.921,147.683],[179.056,147.874],[179.192,148.065],[179.326,148.258],[179.458,148.452],[179.589,148.647],[179.618,148.692],[179.651,148.745],[179.682,148.798],[179.713,148.852],[179.742,148.907],[179.769,148.962],[179.819,149.076],[179.834,149.117],[179.856,149.175],[179.876,149.233],[179.895,149.292],[179.912,149.351],[179.929,149.413],[179.943,149.47],[179.954,149.53],[179.966,149.593],[179.975,149.652],[179.984,149.713],[179.991,149.774],[179.995,149.836],[179.998,149.905],[180,149.966],[180,150.027],[179.999,150.088],[179.996,150.149],[179.992,150.209],[179.986,150.27],[179.977,150.331],[179.968,150.391],[179.958,150.449],[179.945,150.512],[179.932,150.569],[179.916,150.632],[179.901,150.686],[179.883,150.745],[179.863,150.803],[179.842,150.861],[179.82,150.918],[179.797,150.974],[179.771,151.03],[179.744,151.086],[179.716,151.14],[179.686,151.194],[179.655,151.248],[179.623,151.301],[179.589,151.353],[179.472,151.527],[179.339,151.721],[179.206,151.914],[179.071,152.106],[178.936,152.297],[178.797,152.487],[178.659,152.676],[178.52,152.864],[178.38,153.05],[178.237,153.236],[178.095,153.42],[177.951,153.604],[177.659,153.968],[177.51,154.148],[177.361,154.328],[177.21,154.506],[177.06,154.683],[176.907,154.86],[176.752,155.035],[176.597,155.209],[176.482,155.337],[176.326,155.509],[176.167,155.68],[176.008,155.85],[175.848,156.018],[175.688,156.186],[175.526,156.352],[175.2,156.68],[175.034,156.841],[174.869,157.002],[174.703,157.161],[174.535,157.319],[174.367,157.475],[174.199,157.63],[174.028,157.784],[173.857,157.937],[173.686,158.089],[173.512,158.239],[173.338,158.388],[173.164,158.536],[172.987,158.682],[172.811,158.827],[172.632,158.971],[172.454,159.114],[172.275,159.256],[172.093,159.396],[171.911,159.535],[171.728,159.673],[171.544,159.81],[171.359,159.945],[171.173,160.08],[170.799,160.344],[170.611,160.474],[170.421,160.603],[170.23,160.731],[170.039,160.857],[169.846,160.982],[169.653,161.106],[169.458,161.228],[169.263,161.349],[169.067,161.469],[168.869,161.587],[168.672,161.704],[168.472,161.819],[168.272,161.934],[168.072,162.046],[167.87,162.158],[167.595,162.307],[167.395,162.412],[167.196,162.516],[166.996,162.618],[166.796,162.719],[166.595,162.818],[166.392,162.916],[166.19,163.012],[165.987,163.107],[165.783,163.2],[165.579,163.292],[165.374,163.383],[165.169,163.472],[164.963,163.559],[164.756,163.645],[164.666,163.682],[164.549,163.73],[164.341,163.813],[164.122,163.898],[164.003,163.944],[163.704,164.057],[163.493,164.134],[163.293,164.206],[163.071,164.284],[162.884,164.348],[162.869,164.353],[162.656,164.424],[162.443,164.494],[162.207,164.57],[162.005,164.632],[161.979,164.64],[161.751,164.709],[161.523,164.776],[161.295,164.841],[161.142,164.884],[161.065,164.905],[160.924,164.943],[160.707,165.001],[160.606,165.027],[160.488,165.057],[160.269,165.112],[159.844,165.218],[159.316,165.319],[159.306,165.32],[159.05,165.344],[159.003,165.348],[158.81,165.364],[158.725,165.371],[158.561,165.384],[158.481,165.39],[158.134,165.414],[157.688,165.441],[157.649,165.443],[157.264,165.462],[157.126,165.468],[156.778,165.481],[156.564,165.487],[156.344,165.493],[155.907,165.5],[155.522,165.502],[155.177,165.502],[154.877,165.499],[154.821,165.498],[154.599,165.494],[154.457,165.491],[154.338,165.488],[154.166,165.483],[154.076,165.48],[153.93,165.475],[153.752,165.468],[153.728,165.467],[153.57,165.46],[153.463,165.455],[153.332,165.448],[153.133,165.437],[152.889,165.423],[152.644,165.407],[152.629,165.406],[152.342,165.385],[152.096,165.366],[151.849,165.345],[151.667,165.328],[151.603,165.322],[151.423,165.305],[151.179,165.28],[151.111,165.273],[150.935,165.254],[150.619,165.218],[150.373,165.188],[150.204,165.166],[149.882,165.124],[121.828,161.22],[121.792,161.215],[121.743,161.207],[121.686,161.196],[121.653,161.189],[121.597,161.175],[121.584,161.172],[121.548,161.162],[121.536,161.159],[121.48,161.142],[121.429,161.125],[121.417,161.121],[121.361,161.101],[121.312,161.081],[121.253,161.056],[121.197,161.03],[121.155,161.009],[121.105,160.982],[121.086,160.972],[121.044,160.948],[120.993,160.917],[120.979,160.908],[120.944,160.885],[120.935,160.879],[120.887,160.846],[120.847,160.817],[120.84,160.811],[120.793,160.775],[120.756,160.744],[120.749,160.738],[120.704,160.7],[120.661,160.66],[120.64,160.64],[120.592,160.592],[120.557,160.555],[120.539,160.534],[120.519,160.511],[120.48,160.466],[120.444,160.42],[120.431,160.402],[120.41,160.374],[120.407,160.37],[120.373,160.322],[120.357,160.3],[120.342,160.278],[120.308,160.224],[120.278,160.173],[120.25,160.122],[120.23,160.084],[120.218,160.06],[120.195,160.012],[120.169,159.954],[120.148,159.903],[120.127,159.849],[120.109,159.793],[120.107,159.79],[120.09,159.738],[120.075,159.682],[120.06,159.625],[120.046,159.564],[120.035,159.507],[120.026,159.454],[120.025,159.448],[120.016,159.396],[120.012,159.353],[120.008,159.325],[120.002,159.245],[120,159.208],[120,159.179],[120,140.816]]
M73 P0 R34
;TYPE:Custom
M104 S0 ; Stops OrcaSlicer from sending temp waits separately
M140 S0
print_start EXTRUDER=215 BED=60 


;CHAMBER=0
G90
G21
M83 ; use relative distances for extrusion
; filament start gcode
SET_PRESSURE_ADVANCE ADVANCE=0.025; Override pressure advance value
M106 S0
;LAYER_CHANGE
;Z:0.25
;HEIGHT:0.25
;BEFORE_LAYER_CHANGE
;0.25
G92 E0

G1 E-.8 F1800
G1 Z.4 F21000
;AFTER_LAYER_CHANGE
;0.25
M204 S500
; printing object 3DBenchy.stl id:0 copy 0
EXCLUDE_OBJECT_START NAME=3DBenchy.stl_id_0_copy_0
G1 X129.447 Y151.018
G1 Z.25
G1 E.8 F1800
;TYPE:Inner wall
;WIDTH:0.499999
G1 F3000
G1 X129.364 Y150.968 E.00441
G1 X128.83 Y150.855 E.0248
G1 X128.536 Y150.873 E.01339
G1 X128.093 Y151.071 E.02207
G1 X127.846 Y151.315 E.01576
G1 X127.541 Y151.344 E.01396
G1 X127.323 Y151.306 E.01007
G1 X127.066 Y151.174 E.01311
G1 X126.891 Y150.867 E.01608
G1 X126.788 Y150.46 E.01907
G1 X126.759 Y149.93 E.02413
G1 X126.809 Y149.343 E.02681
G1 X126.955 Y148.92 E.02031
G1 X127.14 Y148.692 E.01338
G1 X127.354 Y148.599 E.01059
G1 X127.633 Y148.596 E.01269
G1 X128.366 Y148.988 E.0378
G1 X128.944 Y149.093 E.02672
G1 X129.362 Y148.985 E.01962
G1 X129.752 Y148.673 E.02271
G1 X129.96 Y148.311 E.019
G1 X130.03 Y148.394 E.00494
G1 X130.252 Y148.574 E.01302
G1 X130.635 Y148.712 E.0185
G1 X131.096 Y148.715 E.02096
G1 X131.615 Y148.674 E.02366
G1 X131.586 Y149.154 E.02189
G1 X131.601 Y151.941 E.12668
G1 X131.569 Y152.634 E.03154
G1 X131.713 Y153.074 E.02107
G1 X131.917 Y153.316 E.01437
G1 X132.314 Y153.536 E.02065
G1 X132.662 Y153.606 E.01612
G1 X133.017 Y153.57 E.01624
G1 X133.378 Y153.424 E.01771
G1 X133.665 Y153.16 E.01771
G1 X133.807 Y152.902 E.01342
G1 X133.939 Y152.335 E.02645
G1 X133.923 Y151.519 E.03711
G1 X133.922 Y148.693 E.1285
G1 X134.595 Y148.691 E.03058
G1 X135.18 Y148.574 E.02717
G1 X135.426 Y148.42 E.01315
G1 X135.64 Y148.203 E.01388
G1 X135.815 Y148.478 E.01485
G1 X136.166 Y148.781 E.02106
G1 X136.492 Y148.899 E.01579
G1 X136.266 Y149.28 E.02014
G1 X136.192 Y149.836 E.02548
G1 X136.275 Y150.187 E.01641
G1 X136.447 Y150.452 E.01435
G1 X136.673 Y150.634 E.0132
;WIDTH:0.476166
G1 X136.801 Y150.667 E.00568
;WIDTH:0.443608
G1 X136.929 Y150.7 E.00525
;WIDTH:0.425244
G1 X137.591 Y150.883 E.02598
G1 X137.876 Y151.094 E.01344
;WIDTH:0.413401
G1 X137.963 Y151.274 E.00731
G1 X137.893 Y151.472 E.0077
G1 X137.806 Y151.477 E.00321
;WIDTH:0.419353
G1 X137.338 Y151.169 E.02084
G1 X136.818 Y151.041 E.01995
;WIDTH:0.455857
G1 X136.624 Y151.035 E.00794
;WIDTH:0.499999
G1 X136.43 Y151.028 E.00881
G1 X136.148 Y151.115 E.01342
G1 X135.862 Y151.331 E.01631
G1 X135.589 Y151.747 E.02265
G1 X135.509 Y152.262 E.02369
G1 X135.625 Y152.718 E.02136
G1 X135.86 Y153.094 E.02017
G1 X136.268 Y153.415 E.02361
G1 X136.486 Y153.526 E.01111
G1 X137.192 Y153.718 E.03327
G1 X137.817 Y153.75 E.02843
G1 X138.266 Y153.714 E.0205
G1 X138.759 Y153.589 E.02314
G1 X139.246 Y153.35 E.02463
G1 X139.632 Y153.04 E.02254
G1 X139.935 Y152.674 E.02156
G1 X140.212 Y152.18 E.02575
;WIDTH:0.526767
G1 X140.304 Y151.918 E.01339
;WIDTH:0.553535
G1 X140.396 Y151.656 E.01415
G1 X140.408 Y151.693 E.00199
;WIDTH:0.548326
G1 X140.426 Y152.379 E.03459
;WIDTH:0.499999
G1 X140.557 Y152.978 E.02786
G1 X140.907 Y153.411 E.02534
G1 X141.218 Y153.557 E.0156
G1 X141.546 Y153.612 E.01512
G1 X142.14 Y153.574 E.02708
G1 X142.881 Y153.579 E.03366
G1 X143.459 Y153.546 E.02634
G1 X144.079 Y153.436 E.02864
G1 X144.62 Y153.233 E.02627
G1 X145.164 Y152.87 E.02975
G1 X145.295 Y153.193 E.01589
G1 X145.571 Y153.566 E.0211
G1 X146.082 Y153.905 E.02788
G1 X146.331 Y153.997 E.01206
G1 X146.75 Y154.059 E.01927
G1 X147.277 Y153.976 E.02426
G1 X147.49 Y153.894 E.01039
G1 X147.917 Y153.604 E.02343
G1 X148.139 Y153.332 E.01597
G1 X148.318 Y153.519 E.01177
G1 X148.689 Y153.721 E.01923
G1 X149.033 Y153.774 E.01581
G1 X149.277 Y153.752 E.01115
G1 X149.547 Y153.638 E.01333
G1 X149.79 Y153.449 E.01398
G1 X150.113 Y153.049 E.02338
G1 X150.343 Y153.381 E.01839
G1 X150.602 Y153.614 E.01585
G1 X150.956 Y153.763 E.01745
G1 X151.262 Y153.783 E.01395
;WIDTH:0.532581
G1 X151.526 Y153.74 E.01306
;WIDTH:0.565162
G1 X151.791 Y153.698 E.01394
;WIDTH:0.603908
G1 X151.943 Y153.595 E.0103
;WIDTH:0.642654
G1 X152.096 Y153.493 E.01103
;WIDTH:0.6814
G1 X152.248 Y153.391 E.01175
;WIDTH:0.686362
G1 X152.382 Y153.151 E.01768
;WIDTH:0.712894
G1 X152.445 Y152.92 E.01607
;WIDTH:0.739425
G1 X152.509 Y152.689 E.01672
G1 X152.463 Y152.469 E.01571
;WIDTH:0.697589
G1 X152.416 Y152.249 E.01475
;WIDTH:0.671752
G1 X152.219 Y151.775 E.03237
G1 X152.07 Y151.569 E.01597
;WIDTH:0.628814
G1 X151.922 Y151.363 E.01486
;WIDTH:0.585876
G1 X151.773 Y151.158 E.01375
;WIDTH:0.542938
G1 X151.625 Y150.952 E.01264
;WIDTH:0.499999
G1 X151.515 Y150.769 E.00971
G1 X151.543 Y150.586 E.00839
G1 X152.132 Y149.59 E.05265
G1 X152.503 Y150.53 E.04597
;WIDTH:0.542938
G1 X152.571 Y150.775 E.01264
;WIDTH:0.585876
G1 X152.638 Y151.019 E.01375
;WIDTH:0.628814
G1 X152.706 Y151.264 E.01486
;WIDTH:0.671752
G1 X152.821 Y151.625 E.02389
;WIDTH:0.67214
G1 X153.016 Y152.153 E.03546
;WIDTH:0.705783
G1 X153.111 Y152.411 E.0182
;WIDTH:0.739425
G1 X153.205 Y152.668 E.01914
G1 X153.167 Y152.847 E.01281
G1 X153.075 Y153.099 E.01872
;WIDTH:0.712324
G1 X152.984 Y153.351 E.01798
;WIDTH:0.690354
G1 X152.795 Y153.728 E.02735
G1 X152.662 Y153.845 E.0115
;WIDTH:0.6814
G1 X152.504 Y153.915 E.01101
;WIDTH:0.64447
G1 X152.347 Y153.984 E.01037
;WIDTH:0.60754
G1 X152.189 Y154.054 E.00972
;WIDTH:0.57061
G1 X152.028 Y154.187 E.01099
;WIDTH:0.544722
G1 X151.866 Y154.319 E.01044
;WIDTH:0.518833
G1 X151.682 Y154.586 E.01538
;WIDTH:0.499999
G1 X151.594 Y154.928 E.01604
G1 X151.62 Y155.259 E.01512
G1 X151.755 Y155.654 E.01895
G1 X152.004 Y155.992 E.01911
G1 X152.224 Y156.153 E.01239
;WIDTH:0.543039
G1 X152.4 Y156.215 E.00931
;WIDTH:0.586079
G1 X152.576 Y156.277 E.01013
;WIDTH:0.629119
G1 X152.753 Y156.338 E.01095
;WIDTH:0.672159
G1 X152.929 Y156.4 E.01177
G1 X153.288 Y156.342 E.02289
;WIDTH:0.683403
G1 X153.854 Y156.158 E.03819
G1 X153.919 Y156.095 E.00579
;WIDTH:0.642696
G1 X153.983 Y156.032 E.00542
;WIDTH:0.601989
G1 X154.132 Y155.902 E.01106
;WIDTH:0.567993
G1 X154.281 Y155.771 E.01037
;WIDTH:0.533996
G1 X154.43 Y155.641 E.00969
;WIDTH:0.499999
G1 X154.748 Y155.209 E.02436
G1 X154.948 Y154.821 E.01987
G1 X155.615 Y153.114 E.08332
G1 X155.828 Y152.516 E.02886
;WIDTH:0.528111
G1 X155.978 Y152.14 E.01956
;WIDTH:0.556222
G1 X156.127 Y151.764 E.02072
;WIDTH:0.593183
G1 X156.323 Y151.268 E.0293
G1 X156.38 Y151.039 E.01296
;WIDTH:0.546591
G1 X156.437 Y150.81 E.01184
;WIDTH:0.499999
G1 X156.604 Y150.303 E.02429
G1 X156.832 Y149.767 E.02647
