; HEADER_BLOCK_START
; generated by OrcaSlicer 1.6.3 on 2023-07-12 at 00:05:23
; total layer number: 240
; HEADER_BLOCK_END

; THUMBNAIL_BLOCK_START
; THUMBNAIL_BLOCK_END

; external perimeters extrusion width = 0.40mm
; perimeters extrusion width = 0.45mm
; infill extrusion width = 0.45mm
; solid infill extrusion width = 0.40mm
; top infill extrusion width = 0.40mm
; first layer extrusion width = 0.50mm

; EXECUTABLE_BLOCK_START
EXCLUDE_OBJECT_DEFINE NAME=3DBenchy.stl_id_0_copy_0 CENTER=150,150 POLYGON=[[120,140.816],[120.002,140.755],[120.007,140.699],[120.012,140.646],[120.014,140.63],[120.02,140.583],[120.028,140.525],[120.046,140.436],[120.058,140.379],[120.074,140.322],[120.081,140.296],[120.097,140.239],[120.126,140.155],[120.14,140.118],[120.162,140.064],[120.169,140.047],[120.186,140.01],[120.209,139.958],[120.23,139.916],[120.264,139.854],[120.278,139.827],[120.291,139.806],[120.34,139.727],[120.357,139.7],[120.371,139.679],[120.405,139.631],[120.44,139.584],[120.484,139.531],[120.508,139.501],[120.539,139.466],[120.578,139.423],[120.592,139.408],[120.6,139.4],[120.641,139.359],[120.661,139.34],[120.704,139.3],[120.737,139.271],[120.783,139.234],[120.793,139.225],[120.828,139.197],[120.887,139.154],[120.935,139.121],[120.979,139.092],[121.044,139.052],[121.071,139.036],[121.124,139.008],[121.148,138.995],[121.175,138.981],[121.197,138.97],[121.253,138.944],[121.312,138.919],[121.361,138.899],[121.417,138.879],[121.429,138.875],[121.472,138.861],[121.485,138.857],[121.541,138.84],[121.548,138.838],[121.584,138.828],[121.597,138.825],[121.625,138.818],[121.64,138.814],[121.71,138.799],[121.739,138.794],[121.769,138.789],[121.798,138.784],[149.812,134.886],[150.055,134.853],[150.299,134.821],[150.543,134.791],[150.882,134.752],[151.105,134.728],[151.35,134.702],[151.596,134.678],[151.842,134.656],[152.087,134.635],[152.253,134.622],[152.333,134.616],[152.523,134.602],[152.579,134.598],[152.826,134.581],[152.987,134.571],[153.071,134.566],[153.232,134.557],[153.489,134.544],[153.597,134.539],[153.619,134.538],[153.755,134.532],[153.906,134.526],[154.05,134.521],[154.167,134.517],[154.233,134.515],[154.342,134.512],[154.46,134.509],[154.548,134.507],[154.689,134.504],[154.881,134.501],[155.062,134.499],[155.18,134.498],[155.578,134.498],[155.934,134.5],[156.369,134.508],[156.45,134.51],[156.805,134.52],[156.912,134.524],[157.24,134.537],[157.677,134.558],[158.009,134.578],[158.092,134.583],[158.202,134.59],[158.375,134.602],[158.495,134.611],[158.641,134.622],[158.728,134.629],[158.909,134.644],[159.04,134.655],[159.832,134.78],[159.841,134.782],[160.269,134.888],[160.377,134.915],[160.595,134.97],[160.737,135.007],[160.813,135.027],[160.967,135.068],[161.248,135.145],[161.424,135.195],[161.68,135.27],[161.896,135.334],[162.111,135.4],[162.332,135.47],[162.558,135.543],[162.752,135.607],[163.008,135.694],[163.178,135.753],[163.232,135.772],[163.4,135.832],[163.601,135.905],[163.822,135.987],[164.033,136.067],[164.233,136.145],[164.344,136.188],[164.443,136.228],[164.453,136.232],[164.662,136.316],[164.871,136.402],[164.927,136.425],[165.134,136.513],[165.341,136.603],[165.547,136.693],[165.957,136.879],[166.16,136.974],[166.363,137.07],[166.565,137.168],[166.766,137.267],[166.967,137.367],[167.166,137.469],[167.366,137.572],[167.563,137.677],[167.762,137.783],[167.957,137.89],[168.153,137.999],[168.348,138.11],[168.543,138.221],[168.737,138.334],[168.93,138.449],[169.123,138.565],[169.314,138.683],[169.505,138.801],[169.696,138.922],[169.885,139.043],[170.075,139.167],[170.262,139.291],[170.451,139.417],[170.637,139.544],[170.824,139.673],[171.008,139.803],[171.193,139.934],[171.376,140.067],[171.56,140.201],[171.742,140.337],[171.923,140.474],[172.104,140.612],[172.284,140.752],[172.463,140.893],[172.642,141.036],[172.82,141.18],[172.998,141.325],[173.173,141.472],[173.523,141.77],[173.697,141.921],[173.87,142.074],[174.042,142.228],[174.214,142.384],[174.328,142.489],[174.498,142.645],[174.665,142.803],[174.832,142.962],[174.996,143.122],[175.161,143.283],[175.325,143.445],[175.486,143.609],[175.647,143.773],[175.807,143.939],[175.966,144.106],[176.124,144.274],[176.282,144.443],[176.438,144.614],[176.592,144.785],[176.745,144.958],[176.898,145.132],[177.05,145.306],[177.201,145.483],[177.349,145.66],[177.498,145.838],[177.645,146.017],[177.791,146.198],[177.936,146.38],[178.081,146.563],[178.223,146.747],[178.364,146.932],[178.505,147.118],[178.645,147.305],[178.784,147.493],[178.921,147.683],[179.056,147.874],[179.192,148.065],[179.326,148.258],[179.458,148.452],[179.589,148.647],[179.618,148.692],[179.651,148.745],[179.682,148.798],[179.713,148.852],[179.742,148.907],[179.769,148.962],[179.819,149.076],[179.834,149.117],[179.856,149.175],[179.876,149.233],[179.895,149.292],[179.912,149.351],[179.929,149.413],[179.943,149.47],[179.954,149.53],[179.966,149.593],[179.975,149.652],[179.984,149.713],[179.991,149.774],[179.995,149.836],[179.998,149.905],[180,149.966],[180,150.027],[179.999,150.088],[179.996,150.149],[179.992,150.209],[179.986,150.27],[179.977,150.331],[179.968,150.391],[179.958,150.449],[179.945,150.512],[179.932,150.569],[179.916,150.632],[179.901,150.686],[179.883,150.745],[179.863,150.803],[179.842,150.861],[179.82,150.918],[179.797,150.974],[179.771,151.03],[179.744,151.086],[179.716,151.14],[179.686,151.194],[179.655,151.248],[179.623,151.301],[179.589,151.353],[179.472,151.527],[179.339,151.721],[179.206,151.914],[179.071,152.106],[178.936,152.297],[178.797,152.487],[178.659,152.676],[178.52,152.864],[178.38,153.05],[178.237,153.236],[178.095,153.42],[177.951,153.604],[177.659,153.968],[177.51,154.148],[177.361,154.328],[177.21,154.506],[177.06,154.683],[176.907,154.86],[176.752,155.035],[176.597,155.209],[176.482,155.337],[176.326,155.509],[176.167,155.68],[176.008,155.85],[175.848,156.018],[175.688,156.186],[175.526,156.352],[175.2,156.68],[175.034,156.841],[174.869,157.002],[174.703,157.161],[174.535,157.319],[174.367,157.475],[174.199,157.63],[174.028,157.784],[173.857,157.937],[173.686,158.089],[173.512,158.239],[173.338,158.388],[173.164,158.536],[172.987,158.682],[172.811,158.827],[172.632,158.971],[172.454,159.114],[172.275,159.256],[172.093,159.396],[171.911,159.535],[171.728,159.673],[171.544,159.81],[171.359,159.945],[171.173,160.08],[170.799,160.344],[170.611,160.474],[170.421,160.603],[170.23,160.731],[170.039,160.857],[169.846,160.982],[169.653,161.106],[169.458,161.228],[169.263,161.349],[169.067,161.469],[168.869,161.587],[168.672,161.704],[168.472,161.819],[168.272,161.934],[168.072,162.046],[167.87,162.158],[167.595,162.307],[167.395,162.412],[167.196,162.516],[166.996,162.618],[166.796,162.719],[166.595,162.818],[166.392,162.916],[166.19,163.012],[165.987,163.107],[165.783,163.2],[165.579,163.292],[165.374,163.383],[165.169,163.472],[164.963,163.559],[164.756,163.645],[164.666,163.682],[164.549,163.73],[164.341,163.813],[164.122,163.898],[164.003,163.944],[163.704,164.057],[163.493,164.134],[163.293,164.206],[163.071,164.284],[162.884,164.348],[162.869,164.353],[162.656,164.424],[162.443,164.494],[162.207,164.57],[162.005,164.632],[161.979,164.64],[161.751,164.709],[161.523,164.776],[161.295,164.841],[161.142,164.884],[161.065,164.905],[160.924,164.943],[160.707,165.001],[160.606,165.027],[160.488,165.057],[160.269,165.112],[159.844,165.218],[159.316,165.319],[159.306,165.32],[159.05,165.344],[159.003,165.348],[158.81,165.364],[158.725,165.371],[158.561,165.384],[158.481,165.39],[158.134,165.414],[157.688,165.441],[157.649,165.443],[157.264,165.462],[157.126,165.468],[156.778,165.481],[156.564,165.487],[156.344,165.493],[155.907,165.5],[155.522,165.502],[155.177,165.502],[154.877,165.499],[154.821,165.498],[154.599,165.494],[154.457,165.491],[154.338,165.488],[154.166,165.483],[154.076,165.48],[153.93,165.475],[153.752,165.468],[153.728,165.467],[153.57,165.46],[153.463,165.455],[153.332,165.448],[153.133,165.437],[152.889,165.423],[152.644,165.407],[152.629,165.406],[152.342,165.385],[152.096,165.366],[151.849,165.345],[151.667,165.328],[151.603,165.322],[151.423,165.305],[151.179,165.28],[151.111,165.273],[150.935,165.254],[150.619,165.218],[150.373,165.188],[150.204,165.166],[149.882,165.124],[121.828,161.22],[121.792,161.215],[121.743,161.207],[121.686,161.196],[121.653,161.189],[121.597,161.175],[121.584,161.172],[121.548,161.162],[121.536,161.159],[121.48,161.142],[121.429,161.125],[121.417,161.121],[121.361,161.101],[121.312,161.081],[121.253,161.056],[121.197,161.03],[121.155,161.009],[121.105,160.982],[121.086,160.972],[121.044,160.948],[120.993,160.917],[120.979,160.908],[120.944,160.885],[120.935,160.879],[120.887,160.846],[120.847,160.817],[120.84,160.811],[120.793,160.775],[120.756,160.744],[120.749,160.738],[120.704,160.7],[120.661,160.66],[120.64,160.64],[120.592,160.592],[120.557,160.555],[120.539,160.534],[120.519,160.511],[120.48,160.466],[120.444,160.42],[120.431,160.402],[120.41,160.374],[120.407,160.37],[120.373,160.322],[120.357,160.3],[120.342,160.278],[120.308,160.224],[120.278,160.173],[120.25,160.122],[120.23,160.084],[120.218,160.06],[120.195,160.012],[120.169,159.954],[120.148,159.903],[120.127,159.849],[120.109,159.793],[120.107,159.79],[120.09,159.738],[120.075,159.682],[120.06,159.625],[120.046,159.564],[120.035,159.507],[120.026,159.454],[120.025,159.448],[120.016,159.396],[120.012,159.353],[120.008,159.325],[120.002,159.245],[120,159.208],[120,159.179],[120,140.816]]
M73 P0 R55
;TYPE:Custom
M104 S0 ; Stops OrcaSlicer from sending temp waits separately
M140 S0
print_start EXTRUDER=215 BED=60 


;CHAMBER=0
G90
G21
M83 ; use relative distances for extrusion
; filament start gcode
SET_PRESSURE_ADVANCE ADVANCE=0.025; Override pressure advance value
M106 S0
;LAYER_CHANGE
;Z:0.2
;HEIGHT:0.2
;BEFORE_LAYER_CHANGE
;0.2
G92 E0

G1 E-.8 F1800
G1 Z.4 F27000
;AFTER_LAYER_CHANGE
;0.2
M204 S2000
; printing object 3DBenchy.stl id:0 copy 0
EXCLUDE_OBJECT_START NAME=3DBenchy.stl_id_0_copy_0
G1 X156.121 Y153.088
G1 Z.2
G1 E.8 F1800
;TYPE:Inner wall
;WIDTH:0.499999
G1 X156.188 Y153.271 E.00724
G1 X156.448 Y153.7 E.01869
G1 X156.752 Y153.989 E.01564
G1 X157.125 Y154.164 E.01532
G1 X157.631 Y154.266 E.01924
G1 X158.199 Y154.255 E.02118
G1 X157.725 Y154.59 E.02164
G1 X157.055 Y155.013 E.02953
G1 X156.535 Y155.307 E.02224
G1 X155.856 Y155.647 E.02828
G1 X155.023 Y156.003 E.03376
G1 X154.522 Y156.18 E.0198
G1 X154.808 Y155.917 E.01448
G1 X155.124 Y155.487 E.01989
G1 X155.383 Y154.991 E.02083
G1 X156.1 Y153.144 E.07379
G1 E-.56
;WIPE_START
G1 X156.188 Y153.271 E-.01763
G1 X156.448 Y153.7 E-.05719
G1 X156.752 Y153.989 E-.04788
G1 X157.125 Y154.164 E-.04688
G1 X157.627 Y154.265 E-.05842
;WIPE_END
G1 E-.012
G1 Z.6 F27000
G1 X161.926 Y150.005 Z.2
G1 E.8 F1800
;WIDTH:0.5398
G1 X161.872 Y150.13 E.0055
G1 X161.462 Y150.799 E.03178
;WIDTH:0.535979
G1 X161.101 Y151.314 E.02526
G1 X160.931 Y151.179 E.00871
G1 X160.675 Y151.068 E.01118
G1 X161.12 Y150.431 E.03122
;WIDTH:0.539811
G1 X161.442 Y149.88 E.02584
G1 X161.596 Y149.418 E.01972
G1 X161.896 Y149.953 E.02483
G1 E-.56
;WIPE_START
G1 X161.872 Y150.13 E-.02037
G1 X161.462 Y150.799 E-.08948
G1 X161.101 Y151.314 E-.07166
G1 X160.931 Y151.179 E-.02472
G1 X160.755 Y151.103 E-.02176
;WIPE_END
G1 E-.012
G1 Z.6 F27000
G1 X156.775 Y147.644 Z.2
G1 E.8 F1800
;WIDTH:0.499999
G1 X156.486 Y147.473 E.0125
G1 X156.107 Y147.337 E.01502
G1 X155.713 Y147.34 E.01465
G1 X155.28 Y147.46 E.01674
G1 X154.904 Y147.695 E.01653
G1 X154.569 Y148.077 E.01893
G1 X154.38 Y147.85 E.011
G1 X154.001 Y147.553 E.01792
G1 X153.547 Y147.383 E.01808
G1 X153.117 Y147.32 E.01618
G1 X152.661 Y147.393 E.01721
G1 X152.159 Y147.62 E.0205
G1 X151.856 Y147.46 E.01278
G1 X151.516 Y147.35 E.01332
G1 X151.02 Y147.331 E.01848
G1 X150.534 Y147.493 E.01909
G1 X150.19 Y147.727 E.01549
G1 X150.004 Y147.583 E.00875
G1 X149.644 Y147.414 E.01481
G1 X149.226 Y147.319 E.01595
G1 X148.978 Y147.327 E.00926
G1 X148.591 Y147.415 E.01478
G1 X148.174 Y147.618 E.01728
G1 X147.79 Y147.995 E.02004
G1 X147.617 Y148.312 E.01344
;WIDTH:0.545222
G1 X147.568 Y148.455 E.0062
;WIDTH:0.590445
G1 X147.518 Y148.598 E.00676
;WIDTH:0.635668
G1 X147.469 Y148.741 E.00732
;WIDTH:0.68089
G1 X147.42 Y148.884 E.00787
G1 X147.469 Y149.317 E.02263
;WIDTH:0.672121
G1 X147.503 Y149.368 E.00317
;WIDTH:0.638508
G1 X147.537 Y149.42 E.003
;WIDTH:0.604894
G1 X147.572 Y149.471 E.00283
;WIDTH:0.57128
G1 X147.7 Y149.724 E.01221
;WIDTH:0.53564
G1 X147.827 Y149.977 E.01138
;WIDTH:0.499999
G1 X148.265 Y150.746 E.03296
G1 X148.222 Y150.762 E.00169
G1 X147.745 Y150.442 E.02141
G1 X147.318 Y150.285 E.01693
G1 X146.771 Y150.21 E.02057
G1 X146.768 Y149.801 E.01523
;WIDTH:0.544437
G1 X146.789 Y149.695 E.00442
;WIDTH:0.588875
G1 X146.811 Y149.589 E.00481
;WIDTH:0.633312
G1 X146.832 Y149.483 E.0052
;WIDTH:0.68089
G1 X146.786 Y148.951 E.02774
G1 X146.722 Y148.791 E.009
;WIDTH:0.635668
G1 X146.659 Y148.63 E.00836
;WIDTH:0.590445
G1 X146.595 Y148.469 E.00772
;WIDTH:0.545222
G1 X146.531 Y148.308 E.00708
;WIDTH:0.499999
G1 X146.295 Y147.714 E.02382
G1 X145.962 Y147.181 E.0234
G1 X145.56 Y146.743 E.02216
G1 X145.036 Y146.36 E.02415
G1 X144.481 Y146.114 E.0226
G1 X143.901 Y145.972 E.02226
G1 X143.348 Y145.906 E.02073
G1 X141.762 Y145.87 E.05911
G1 X141.21 Y145.928 E.02066
G1 X140.71 Y146.121 E.01996
G1 X140.329 Y146.432 E.01832
G1 X140.135 Y146.725 E.0131
G1 X139.896 Y146.43 E.01413
G1 X139.387 Y146.08 E.02302
G1 X139.019 Y145.908 E.01514
G1 X138.296 Y145.742 E.0276
G1 X137.469 Y145.72 E.03081
G1 X136.93 Y145.794 E.02027
G1 X136.642 Y145.873 E.01114
G1 X136.11 Y146.098 E.02151
G1 X135.812 Y146.287 E.01312
G1 X135.655 Y146.153 E.00768
G1 X135.35 Y146.005 E.01263
G1 X134.774 Y145.881 E.02193
G1 X131.507 Y145.892 E.1217
G1 X130.848 Y145.857 E.02458
G1 X130.522 Y145.886 E.0122
G1 X129.951 Y146.133 E.02316
G1 X129.661 Y146.39 E.01444
G1 X129.453 Y146.223 E.0099
G1 X129.138 Y146.044 E.01353
G1 X128.575 Y145.833 E.02239
G1 X128.257 Y145.764 E.01212
G1 X127.313 Y145.722 E.03519
G1 X126.731 Y145.805 E.02189
G1 X126.313 Y145.936 E.01631
G1 X125.706 Y146.213 E.02485
G1 X125.295 Y146.507 E.01883
G1 X125.295 Y145.124 E.0515
G1 X125.397 Y144.769 E.01377
G1 X125.604 Y144.577 E.01051
G1 X125.904 Y144.507 E.01145
G1 X149.213 Y143.091 E.86978
G1 X150.279 Y143.067 E.03973
G1 X151.056 Y143.102 E.02895
G1 X151.814 Y143.178 E.02836
G1 X152.574 Y143.299 E.02866
G1 X153.597 Y143.532 E.0391
G1 X154.334 Y143.751 E.02863
G1 X155.174 Y144.063 E.03338
G1 X156.16 Y144.502 E.0402
G1 X157.004 Y144.958 E.03575
G1 X157.829 Y145.491 E.03657
G1 X158.513 Y145.985 E.03144
G1 X159.246 Y146.601 E.03563
G1 X159.979 Y147.321 E.03828
G1 X157.754 Y147.328 E.0829
G1 X157.168 Y147.428 E.02213
G1 X156.828 Y147.615 E.01447
G1 E-.56
;WIPE_START
G1 X156.486 Y147.473 E-.04216
G1 X156.107 Y147.337 E-.04597
G1 X155.713 Y147.34 E-.04483
G1 X155.28 Y147.46 E-.05124
G1 X154.954 Y147.664 E-.04381
;WIPE_END
G1 E-.012
G1 Z.6 F27000
G1 X162.401 Y150.047 Z.2
G1 E.8 F1800
G1 X162.395 Y150.111 E.00239
G1 X162.284 Y150.371 E.01051
G1 X161.93 Y150.948 E.02523
G1 X161.633 Y151.393 E.01991
G1 X161.112 Y152.08 E.03211
G1 X161.021 Y151.895 E.00771
G1 X160.697 Y151.593 E.01647
G1 X160.385 Y151.466 E.01255
G1 X159.865 Y151.387 E.01957
G1 X160.485 Y150.516 E.03982
G1 X160.833 Y149.982 E.02374
G1 X161.109 Y149.426 E.02313
G1 X161.163 Y149.032 E.01479
G1 X161.092 Y148.589 E.01671
;WIDTH:0.496611
G1 X160.973 Y148.387 E.00869
;WIDTH:0.466364
G1 X160.854 Y148.184 E.00811
;WIDTH:0.465276
G1 X160.678 Y148.035 E.00794
;WIDTH:0.494434
G1 X160.502 Y147.886 E.00849
;WIDTH:0.499999
G1 X160.027 Y147.778 E.01813
G1 X157.914 Y147.774 E.07871
G1 X157.365 Y147.847 E.02062
G1 X157.121 Y147.958 E.01001
G1 X156.756 Y148.258 E.01758
G1 X156.637 Y148.106 E.00719
G1 X156.171 Y147.827 E.02024
G1 X155.795 Y147.79 E.01406
G1 X155.343 Y147.934 E.01769
G1 X154.961 Y148.311 E.01998
G1 X154.709 Y148.751 E.01889
G1 X154.533 Y149.247 E.0196
G1 X154.386 Y148.733 E.0199
G1 X154.161 Y148.283 E.01875
G1 X153.783 Y147.954 E.01865
G1 X153.313 Y147.793 E.0185
G1 X152.878 Y147.802 E.0162
G1 X152.42 Y147.996 E.01851
