; generated by PrusaSlicer 2.6.0+win64 on 2023-07-18 at 00:56:15 UTC


;
;

;
;
; TODO: check the size of the extruder and the y-bar clearance. Optimize & test supports.

; external perimeters extrusion width = 0.40mm
; perimeters extrusion width = 0.46mm
; infill extrusion width = 0.64mm
; solid infill extrusion width = 0.56mm
; top infill extrusion width = 0.40mm
; first layer extrusion width = 0.50mm

; external perimeters extrusion width = 0.40mm
; perimeters extrusion width = 0.46mm
; infill extrusion width = 0.64mm
; solid infill extrusion width = 0.56mm
; top infill extrusion width = 0.40mm
; first layer extrusion width = 0.50mm

M73 P0 R70


; Pre-Processed for Cancel-Object support by preprocess_cancellation v0.2.0
; 6 known objects
EXCLUDE_OBJECT_DEFINE NAME=Bed_Support_Alignment_Tool_300_Corners_x4_stl_id_0_copy_1 CENTER=216.528,124.097 POLYGON=[[154.45,114.2],[154.45,133.8],[279.064,133.8],[279.064,114.2]]
EXCLUDE_OBJECT_DEFINE NAME=Bed_Support_Alignment_Tool_300_Corners_x4_stl_id_0_copy_2 CENTER=149.771,202.097 POLYGON=[[87.693,192.2],[87.693,211.8],[212.307,211.8],[212.307,192.2]]
EXCLUDE_OBJECT_DEFINE NAME=Bed_Support_Alignment_Tool_Center_250_300_350_x2_stl_id_1_copy_1 CENTER=85.346,176.237 POLYGON=[[20.936,166.2],[20.936,185.8],[150.55,185.8],[150.55,166.2]]
EXCLUDE_OBJECT_DEFINE NAME=Bed_Support_Alignment_Tool_Center_250_300_350_x2_stl_id_1_copy_0 CENTER=85.346,150.237 POLYGON=[[20.936,140.2],[20.936,159.8],[150.55,159.8],[150.55,140.2]]
EXCLUDE_OBJECT_DEFINE NAME=Bed_Support_Alignment_Tool_300_Corners_x4_stl_id_0_copy_3 CENTER=85.514,124.097 POLYGON=[[23.436,114.2],[23.436,133.8],[148.05,133.8],[148.05,114.2]]
EXCLUDE_OBJECT_DEFINE NAME=Bed_Support_Alignment_Tool_300_Corners_x4_stl_id_0_copy_0 CENTER=85.514,98.097 POLYGON=[[23.436,88.2],[23.436,107.8],[148.05,107.8],[148.05,88.2]]
;TYPE:Custom
M190 S0
M109 S0
print_start EXTRUDER=215 BED=60
G21 ; set units to millimeters
G90 ; use absolute coordinates
M83 ; use relative distances for extrusion
; Filament gcode
M107
;LAYER_CHANGE
;Z:0.2
;HEIGHT:0.2
;BEFORE_LAYER_CHANGE
;0.2
G92 E0

G1 E-.75 F1800
G1 Z.2 F30000
;AFTER_LAYER_CHANGE
;0.2
; printing object Bed_Support_Alignment_Tool_300_Corners_x4.stl id:0 copy 1
EXCLUDE_OBJECT_START NAME=Bed_Support_Alignment_Tool_300_Corners_x4_stl_id_0_copy_1
G1 Z1
G1 X207.281 Y130.922
G1 Z.2
G1 E.75 F1800
M204 S500
;TYPE:Perimeter
;WIDTH:0.499999
G1 X206.517 Y130.896 E.02905
G1 X205.723 Y130.838 E.03026
G1 X204.004 Y130.59 E.06601
G1 X203.462 Y130.407 E.02174
G1 X203.05 Y130.081 E.01997
G1 X202.794 Y129.7 E.01745
G1 X202.67 Y129.331 E.01479
G1 X202.637 Y129.008 E.01234
G1 X202.637 Y127.544 E.05564
G1 X202.709 Y127.069 E.01826
G1 X202.899 Y126.667 E.0169
G1 X203.186 Y126.337 E.01662
G1 X203.444 Y126.154 E.01202
G1 X203.68 Y126.044 E.0099
G1 X204.041 Y125.956 E.01412
G1 X204.542 Y125.974 E.01905
;WIDTH:0.544886
G1 X205.206 Y126.08 E.02807
G1 X204.611 Y125.807 E.02732
;WIDTH:0.499999
G1 X204.247 Y125.463 E.01903
G1 X204.056 Y125.144 E.01413
G1 X203.932 Y124.719 E.01683
G1 X203.916 Y123.189 E.05815
G1 X203.963 Y122.804 E.01474
G1 X204.044 Y122.56 E.00977
G1 X204.239 Y122.225 E.01473
G1 X204.645 Y121.847 E.02108
G1 X204.783 Y121.804 E.00549
;WIDTH:0.460304
G1 X204.921 Y121.761 E.00502
;WIDTH:0.420609
G1 X205.06 Y121.718 E.00457
G1 X204.919 Y121.756 E.00459
;WIDTH:0.460304
G1 X204.779 Y121.794 E.00503
;WIDTH:0.499999
G1 X204.639 Y121.831 E.0055
G1 X204.085 Y121.805 E.02108
G1 X203.72 Y121.675 E.01473
G1 X203.365 Y121.432 E.01635
G1 X203.053 Y121.047 E.01883
G1 X202.896 Y120.676 E.01531
G1 X202.837 Y120.245 E.01653
G1 X202.837 Y118.827 E.05389
G1 X202.873 Y118.49 E.01288
G1 X203.009 Y118.106 E.01548
G1 X203.289 Y117.713 E.01834
G1 X203.736 Y117.389 E.02098
G1 X204.315 Y117.232 E.0228
G1 X205.878 Y117.112 E.05958
G1 X207.106 Y117.079 E.04669
G1 X208.409 Y117.103 E.04953
G1 X209.619 Y117.3 E.04659
G1 X210.454 Y117.551 E.03314
G1 X210.938 Y117.802 E.02072
G1 X211.466 Y118.204 E.02522
G1 X211.816 Y118.572 E.0193
G1 X212.039 Y118.906 E.01526
G1 X212.455 Y118.368 E.02585
G1 X212.802 Y118.046 E.01799
G1 X213.494 Y117.615 E.03098
G1 X214.104 Y117.375 E.02491
G1 X214.609 Y117.232 E.01995
G1 X215.315 Y117.11 E.02723
G1 X216.361 Y117.062 E.0398
G1 X217.181 Y117.068 E.03117
G1 X218.106 Y117.146 E.03528
G1 X219.016 Y117.337 E.03534
G1 X219.716 Y117.593 E.02833
G1 X220.443 Y118.04 E.03244
G1 X220.808 Y118.379 E.01893
G1 X221.115 Y118.715 E.0173
G1 X221.431 Y118.322 E.01917
G1 X221.739 Y118.046 E.01572
G1 X222.431 Y117.615 E.03098
G1 X223.04 Y117.375 E.02488
G1 X223.545 Y117.232 E.01995
G1 X224.252 Y117.11 E.02727
G1 X225.298 Y117.062 E.0398
G1 X226.117 Y117.068 E.03113
G1 X227.043 Y117.146 E.03532
G1 X227.953 Y117.337 E.03534
G1 X228.653 Y117.593 E.02833
G1 X229.38 Y118.04 E.03244
G1 X229.695 Y118.321 E.01604
G1 X230.034 Y118.716 E.01978
G1 X230.25 Y119.039 E.01477
G1 X230.482 Y119.499 E.01958
G1 X230.769 Y120.467 E.03837
G1 X230.863 Y121.524 E.04033
G1 X230.863 Y126.601 E.19296
G1 X230.81 Y127.326 E.02763
G1 X230.592 Y128.216 E.03483
G1 X230.239 Y128.97 E.03164
G1 X230.024 Y129.286 E.01453
G1 X229.687 Y129.672 E.01947
G1 X229.375 Y129.948 E.01583
G1 X228.717 Y130.36 E.02951
G1 X228.034 Y130.635 E.02798
G1 X227.532 Y130.764 E.0197
G1 X226.828 Y130.866 E.02704
G1 X226.088 Y130.916 E.02819
G1 X224.986 Y130.916 E.04188
G1 X224.312 Y130.875 E.02566
G1 X223.43 Y130.721 E.03403
G1 X222.536 Y130.44 E.03562
G1 X222.181 Y130.272 E.01493
G1 X221.755 Y130.001 E.01919
G1 X221.387 Y129.679 E.01858
G1 X221.079 Y129.295 E.01871
G1 X220.75 Y129.672 E.01902
G1 X220.439 Y129.948 E.0158
G1 X219.781 Y130.36 E.02951
G1 X219.097 Y130.635 E.02802
G1 X218.595 Y130.764 E.0197
G1 X217.891 Y130.866 E.02704
G1 X217.262 Y130.912 E.02397
G1 X216.049 Y130.916 E.0461
G1 X215.375 Y130.875 E.02566
G1 X214.494 Y130.721 E.03399
G1 X213.599 Y130.44 E.03565
G1 X213.244 Y130.272 E.01493
G1 X212.818 Y130.001 E.01919
G1 X212.429 Y129.652 E.01986
G1 X212.053 Y129.165 E.02338
G1 X211.705 Y129.599 E.02114
G1 X211.298 Y129.952 E.02048
G1 X210.589 Y130.377 E.03142
G1 X209.576 Y130.711 E.04054
G1 X208.592 Y130.876 E.03792
G1 X207.341 Y130.924 E.04758
M204 S10000
G1 E-.75
G1 X207.459 Y126.408 F30000
G1 E.75 F1800
M204 S500
;WIDTH:0.410175
G1 X206.826 Y126.382 E.01935
;WIDTH:0.392384
G1 X206.217 Y126.338 E.01774
;WIDTH:0.406592
G1 X206.153 Y126.307 E.00215
;WIDTH:0.450107
G1 X206.089 Y126.275 E.00242
;WIDTH:0.493622
G1 X206.025 Y126.244 E.00267
;WIDTH:0.537138
G1 X205.961 Y126.212 E.00294
;WIDTH:0.580653
G1 X205.897 Y126.181 E.00318
;WIDTH:0.624168
G1 X205.834 Y126.149 E.00342
G1 X205.9 Y126.127 E.00336
;WIDTH:0.580653
G1 X205.967 Y126.106 E.00314
;WIDTH:0.537138
G1 X206.033 Y126.084 E.00286
;WIDTH:0.493622
G1 X206.099 Y126.062 E.00261
;WIDTH:0.450107
G1 X206.166 Y126.04 E.00239
;WIDTH:0.406592
G1 X206.232 Y126.019 E.00209
;WIDTH:0.392384
G1 X206.843 Y126.033 E.01776
;WIDTH:0.40624
G1 X207.799 Y126.057 E.02889
G1 X207.799 Y126.403 E.01045
;WIDTH:0.410175
G1 X207.519 Y126.409 E.00855
M204 S10000
G1 E-.75
G1 X207.294 Y130.466 F30000
G1 E.75 F1800
M204 S500
;WIDTH:0.499999
G1 X206.534 Y130.439 E.0289
G1 X205.756 Y130.382 E.02965
G1 X204.071 Y130.138 E.06471
G1 X203.683 Y130.007 E.01556
G1 X203.389 Y129.774 E.01426
G1 X203.206 Y129.502 E.01246
G1 X203.117 Y129.239 E.01055
G1 X203.094 Y129.008 E.00882
G1 X203.094 Y127.544 E.05564
G1 X203.145 Y127.204 E.01307
G1 X203.328 Y126.851 E.01511
G1 X203.561 Y126.623 E.01239
G1 X203.839 Y126.473 E.01201
G1 X204.097 Y126.41 E.01009
G1 X204.454 Y126.422 E.01358
G1 X205.397 Y126.605 E.03651
G1 X206.098 Y126.717 E.02698
G1 X206.8 Y126.785 E.02681
G1 X207.494 Y126.822 E.02641
G1 X208.152 Y126.802 E.02502
G1 X208.209 Y126.647 E.00628
G1 X208.209 Y125.673 E.03702
G1 X207.573 Y125.63 E.02423
G1 X205.834 Y125.63 E.06609
G1 X205.297 Y125.609 E.02042
G1 X204.87 Y125.43 E.0176
G1 X204.61 Y125.184 E.0136
G1 X204.411 Y124.781 E.01708
G1 X204.373 Y124.487 E.01127
G1 X204.373 Y123.189 E.04933
G1 X204.406 Y122.914 E.01053
G1 X204.603 Y122.501 E.01739
G1 X204.893 Y122.231 E.01506
G1 X205.177 Y122.098 E.01192
G1 X205.514 Y122.046 E.01296
G1 X207.627 Y122.044 E.08031
G1 X207.963 Y122.008 E.01284
G1 X207.963 Y121.097 E.03462
G1 X206.138 Y121.18 E.06943
G1 X204.581 Y121.378 E.05965
G1 X204.185 Y121.359 E.01507
G1 X203.768 Y121.171 E.01738
G1 X203.491 Y120.886 E.0151
G1 X203.336 Y120.553 E.01396
G1 X203.294 Y120.245 E.01181
G1 X203.294 Y118.827 E.05389
G1 X203.32 Y118.587 E.00917
G1 X203.417 Y118.312 E.01108
G1 X203.617 Y118.031 E.01311
G1 X203.936 Y117.8 E.01497
G1 X204.35 Y117.688 E.0163
G1 X205.913 Y117.568 E.05958
G1 X207.118 Y117.536 E.04581
G1 X208.4 Y117.56 E.04873
G1 X209.539 Y117.75 E.04389
G1 X210.316 Y117.987 E.03087
G1 X210.662 Y118.166 E.01481
G1 X211.189 Y118.567 E.02517
G1 X211.44 Y118.83 E.01382
G1 X211.729 Y119.283 E.02042
G1 X211.92 Y119.907 E.0248
G1 X211.966 Y120.228 E.01232
G1 X212.124 Y119.736 E.01964
G1 X212.443 Y119.118 E.02643
G1 X212.813 Y118.653 E.02258
G1 X213.06 Y118.423 E.01283
G1 X213.668 Y118.037 E.02737
G1 X214.228 Y117.815 E.02289
G1 X214.733 Y117.672 E.01995
G1 X215.386 Y117.562 E.02517
G1 X216.377 Y117.519 E.0377
G1 X217.176 Y117.525 E.03037
G1 X218.065 Y117.602 E.03391
G1 X218.916 Y117.783 E.03307
G1 X219.547 Y118.018 E.02559
G1 X220.187 Y118.418 E.02868
G1 X220.461 Y118.677 E.01433
G1 X220.795 Y119.068 E.01954
G1 X221.106 Y119.644 E.02488
G1 X221.412 Y119.076 E.02452
G1 X221.749 Y118.653 E.02055
G1 X221.997 Y118.423 E.01286
G1 X222.605 Y118.037 E.02737
G1 X223.164 Y117.815 E.02286
G1 X223.669 Y117.672 E.01995
G1 X224.323 Y117.562 E.02521
G1 X225.313 Y117.519 E.03766
G1 X226.113 Y117.525 E.03041
G1 X227.002 Y117.602 E.03391
G1 X227.852 Y117.783 E.03303
G1 X228.484 Y118.018 E.02563
G1 X229.123 Y118.418 E.02865
G1 X229.349 Y118.619 E.0115
G1 X229.688 Y119.014 E.01978
G1 X230.073 Y119.705 E.03006
G1 X230.326 Y120.581 E.03465
G1 X230.404 Y121.447 E.03305
G1 X230.406 Y126.601 E.19588
G1 X230.355 Y127.289 E.02622
G1 X230.152 Y128.092 E.03148
G1 X229.833 Y128.76 E.02813
G1 X229.343 Y129.372 E.0298
G1 X228.716 Y129.841 E.02976
G1 X228.094 Y130.133 E.02612
G1 X227.418 Y130.321 E.02667
G1 X226.77 Y130.412 E.02487
G1 X226.088 Y130.459 E.02598
G1 X224.986 Y130.459 E.04188
G1 X224.343 Y130.418 E.02449
G1 X223.514 Y130.272 E.03199
G1 X222.68 Y130.007 E.03326
G1 X222 Y129.615 E.02983
G1 X221.722 Y129.366 E.01418
G1 X221.405 Y128.971 E.01925
G1 X221.087 Y128.392 E.02511
G1 X220.76 Y128.965 E.02507
G1 X220.406 Y129.372 E.0205
G1 X220.183 Y129.569 E.01131
G1 X219.598 Y129.941 E.02635
G1 X218.984 Y130.193 E.02522
G1 X218.482 Y130.321 E.01969
G1 X217.834 Y130.412 E.02487
G1 X217.23 Y130.456 E.02302
G1 X216.049 Y130.459 E.04489
G1 X215.406 Y130.418 E.02449
G1 X214.577 Y130.272 E.03199
G1 X213.743 Y130.007 E.03326
G1 X213.063 Y129.615 E.02983
G1 X212.785 Y129.366 E.01418
G1 X212.468 Y128.971 E.01925
G1 X212.172 Y128.437 E.0232
G1 X212.061 Y128.181 E.0106
G1 X211.827 Y128.691 E.02133
G1 X211.394 Y129.264 E.0273
G1 X210.999 Y129.606 E.01986
G1 X210.372 Y129.975 E.02765
G1 X209.447 Y130.273 E.03694
G1 X208.523 Y130.424 E.03558
G1 X207.354 Y130.468 E.04446
M204 S10000
G1 X207.309 Y130.01 F30000
M204 S500
G1 F1800
G1 X206.552 Y129.982 E.02879
G1 X205.79 Y129.927 E.02904
G1 X204.137 Y129.686 E.06349
G1 X203.904 Y129.607 E.00935
G1 X203.728 Y129.468 E.00852
G1 X203.565 Y129.146 E.01372
G1 X203.551 Y129.008 E.00527
G1 X203.551 Y127.544 E.05564
G1 X203.627 Y127.23 E.01228
G1 X203.831 Y126.991 E.01194
G1 X203.998 Y126.901 E.00721
G1 X204.367 Y126.871 E.01407
G1 X205.317 Y127.056 E.03678
G1 X206.04 Y127.171 E.02782
G1 X206.765 Y127.24 E.02768
G1 X207.488 Y127.28 E.02752
G1 X208.239 Y127.257 E.02856
G1 X208.471 Y127.164 E.0095
G1 X208.666 Y126.788 E.0161
G1 X208.666 Y125.359 E.05431
G1 X208.611 Y125.279 E.00369
G1 X208.419 Y125.229 E.00754
G1 X207.589 Y125.173 E.03162
G1 X205.834 Y125.173 E.0667
G1 X205.385 Y125.16 E.01707
G1 X205.128 Y125.053 E.01058
G1 X204.89 Y124.769 E.01408
G1 X204.83 Y124.487 E.01096
G1 X204.83 Y123.189 E.04933
G1 X204.885 Y122.92 E.01044
G1 X204.968 Y122.776 E.00632
G1 X205.142 Y122.614 E.00904
G1 X205.429 Y122.509 E.01161
G1 X207.644 Y122.501 E.08418
G1 X208.043 Y122.46 E.01524
G1 X208.415 Y122.355 E.01469
G1 X208.42 Y120.854 E.05705
G1 X208.305 Y120.7 E.0073
G1 X207.954 Y120.64 E.01353
G1 X206.762 Y120.681 E.04533
G1 X206.094 Y120.725 E.02544
G1 X204.523 Y120.925 E.06019
G1 X204.286 Y120.913 E.00902
G1 X204.036 Y120.8 E.01043
G1 X203.844 Y120.589 E.01084
G1 X203.759 Y120.345 E.00982
G1 X203.751 Y120.245 E.00381
G1 X203.751 Y118.827 E.05389
G1 X203.825 Y118.518 E.01208
G1 X203.945 Y118.349 E.00788
G1 X204.137 Y118.211 E.00899
G1 X204.385 Y118.143 E.00977
G1 X205.983 Y118.022 E.06091
G1 X207.16 Y117.993 E.04475
G1 X208.391 Y118.017 E.04679
G1 X209.458 Y118.199 E.04114
G1 X210.178 Y118.422 E.02865
G1 X210.385 Y118.53 E.00887
G1 X210.913 Y118.931 E.0252
G1 X211.209 Y119.302 E.01804
G1 X211.341 Y119.544 E.01048
G1 X211.477 Y120.037 E.01944
;WIDTH:0.54126
G1 X211.512 Y120.184 E.00626
;WIDTH:0.58252
G1 X211.548 Y120.33 E.00675
;WIDTH:0.62378
G1 X211.583 Y120.476 E.00725
;WIDTH:0.66504
G1 X211.618 Y120.623 E.00782
G1 X211.593 Y121.461 E.04337
;WIDTH:0.632245
G1 X211.586 Y122.455 E.04871
G1 X211.545 Y122.646 E.00957
;WIDTH:0.60373
G1 X211.467 Y122.824 E.00906
;WIDTH:0.569153
G1 X211.389 Y123.003 E.00854
;WIDTH:0.534576
G1 X211.311 Y123.182 E.00798
;WIDTH:0.499999
G1 X210.98 Y123.545 E.01867
G1 X211.388 Y123.815 E.01859
G1 X211.53 Y124.012 E.00923
;WIDTH:0.508935
G1 X211.773 Y124.577 E.02383
G1 X211.814 Y124.998 E.01639
;WIDTH:0.479734
G1 X211.817 Y126.602 E.05826
;WIDTH:0.49827
G1 X211.806 Y127.252 E.02461
;WIDTH:0.499999
G1 X211.724 Y127.786 E.02053
G1 X211.531 Y128.282 E.02023
G1 X211.237 Y128.735 E.02052
G1 X211.064 Y128.946 E.01037
G1 X210.577 Y129.345 E.02393
G1 X210.024 Y129.627 E.02359
G1 X209.318 Y129.834 E.02796
G1 X208.372 Y129.98 E.03638
G1 X207.369 Y130.01 E.03814
M204 S10000
G1 X207.325 Y129.554 F30000
M204 S500
;TYPE:External perimeter
G1 F1800
G1 X206.569 Y129.526 E.02875
G1 X205.807 Y129.469 E.02904
G1 X204.203 Y129.234 E.06161
G1 X204.067 Y129.161 E.00587
G1 X204.008 Y129.008 E.00623
G1 X204.008 Y127.544 E.05564
G1 X204.076 Y127.381 E.00671
G1 X204.209 Y127.317 E.00561
G1 X205.608 Y127.565 E.054
G1 X206.7 Y127.693 E.04179
G1 X207.419 Y127.734 E.02737
G1 X208.083 Y127.719 E.02524
G1 X208.52 Y127.662 E.01675
G1 X208.773 Y127.519 E.01105
G1 X208.959 Y127.233 E.01297
G1 X209.124 Y126.893 E.01436
G1 X209.124 Y125.312 E.06009
G1 X209.042 Y125.049 E.01047
G1 X208.981 Y124.954 E.00429
G1 X208.637 Y124.805 E.01425
G1 X207.72 Y124.724 E.03499
G1 X205.472 Y124.712 E.08544
G1 X205.334 Y124.627 E.00616
G1 X205.287 Y124.487 E.00561
G1 X205.287 Y123.189 E.04933
G1 X205.333 Y123.051 E.00553
G1 X205.486 Y122.962 E.00673
G1 X207.662 Y122.958 E.0827
G1 X208.167 Y122.9 E.01932
G1 X208.667 Y122.759 E.01974
G1 X208.817 Y122.603 E.00823
G1 X208.877 Y122.317 E.01111
G1 X208.877 Y120.709 E.06111
G1 X208.554 Y120.307 E.0196
G1 X208.211 Y120.203 E.01362
G1 X207.449 Y120.2 E.02896
G1 X206.74 Y120.225 E.02696
G1 X206.051 Y120.269 E.02624
G1 X204.466 Y120.471 E.06073
G1 X204.303 Y120.43 E.00639
G1 X204.211 Y120.278 E.00675
G1 X204.208 Y120.245 E.00126
G1 X204.208 Y118.827 E.05389
G1 X204.273 Y118.668 E.00653
G1 X204.419 Y118.599 E.00614
G1 X205.983 Y118.48 E.05961
G1 X207.151 Y118.45 E.04441
G1 X208.382 Y118.474 E.04679
G1 X209.377 Y118.649 E.0384
G1 X210.039 Y118.858 E.02638
G1 X210.686 Y119.348 E.03085
G1 X210.906 Y119.684 E.01526
G1 X211.025 Y120.102 E.01652
G1 X211.078 Y120.618 E.01971
G1 X211.063 Y122.45 E.06963
G1 X210.925 Y122.937 E.01924
G1 X210.506 Y123.378 E.02312
G1 X210.108 Y123.636 E.01803
G1 X210.562 Y123.825 E.01869
G1 X211.034 Y124.116 E.02107
G1 X211.118 Y124.21 E.00479
G1 X211.317 Y124.646 E.01822
G1 X211.368 Y124.999 E.01356
G1 X211.372 Y127.018 E.07673
G1 X211.311 Y127.564 E.02088
G1 X211.105 Y128.117 E.02243
G1 X210.803 Y128.558 E.02031
G1 X210.401 Y128.915 E.02043
G1 X209.939 Y129.17 E.02006
G1 X209.189 Y129.396 E.02977
G1 X208.386 Y129.52 E.03088
G1 X207.385 Y129.552 E.03806
M204 S10000
G1 X207.126 Y129.901 F30000
