; HEADER_BLOCK_START
; generated by OrcaSlicer 1.6.3 on 2023-07-09 at 18:48:58
; total layer number: 82
; HEADER_BLOCK_END

; THUMBNAIL_BLOCK_START
; THUMBNAIL_BLOCK_END

; external perimeters extrusion width = 0.40mm
; perimeters extrusion width = 0.45mm
; infill extrusion width = 0.45mm
; solid infill extrusion width = 0.40mm
; top infill extrusion width = 0.40mm
; first layer extrusion width = 0.50mm

; external perimeters extrusion width = 0.40mm
; perimeters extrusion width = 0.45mm
; infill extrusion width = 0.45mm
; solid infill extrusion width = 0.40mm
; top infill extrusion width = 0.40mm
; first layer extrusion width = 0.50mm

; external perimeters extrusion width = 0.40mm
; perimeters extrusion width = 0.45mm
; infill extrusion width = 0.45mm
; solid infill extrusion width = 0.40mm
; top infill extrusion width = 0.40mm
; first layer extrusion width = 0.50mm

; EXECUTABLE_BLOCK_START
EXCLUDE_OBJECT_DEFINE NAME=C92X_Camera_Bracket.stl_id_0_copy_0 CENTER=179.936,168.448 POLYGON=[[138.903,166.892],[138.907,166.731],[138.91,166.679],[138.929,166.508],[138.935,166.465],[138.971,166.287],[138.979,166.252],[139.031,166.071],[139.041,166.04],[139.109,165.858],[139.121,165.83],[139.203,165.651],[139.218,165.622],[139.311,165.451],[139.332,165.416],[139.432,165.259],[139.462,165.214],[139.565,165.073],[139.609,165.016],[139.708,164.895],[139.771,164.823],[139.86,164.725],[139.947,164.634],[140.022,164.56],[140.138,164.451],[140.196,164.399],[140.342,164.273],[140.383,164.24],[140.559,164.103],[140.583,164.085],[140.787,163.939],[140.795,163.933],[141.02,163.786],[141.027,163.782],[141.258,163.644],[141.278,163.632],[141.508,163.506],[141.537,163.491],[141.771,163.374],[141.806,163.357],[142.043,163.249],[142.083,163.231],[142.319,163.133],[142.368,163.114],[142.598,163.027],[142.659,163.005],[142.956,162.904],[161.531,156.674],[196.876,156.408],[197.166,156.442],[197.241,156.453],[197.453,156.49],[197.612,156.523],[197.738,156.553],[197.99,156.619],[198.02,156.627],[198.299,156.714],[198.374,156.739],[217.024,163.067],[217.159,163.114],[217.33,163.176],[217.629,163.293],[217.672,163.311],[217.916,163.417],[217.92,163.42],[218.149,163.527],[218.203,163.555],[218.371,163.641],[218.477,163.698],[218.584,163.758],[218.741,163.85],[218.786,163.877],[218.977,163.999],[218.994,164.01],[219.159,164.123],[219.235,164.178],[219.331,164.25],[219.464,164.354],[219.494,164.378],[219.647,164.508],[219.68,164.536],[219.881,164.725],[219.94,164.785],[220.067,164.92],[220.078,164.932],[220.209,165.085],[220.238,165.12],[220.333,165.243],[220.392,165.325],[220.448,165.407],[220.529,165.535],[220.554,165.577],[220.649,165.748],[220.651,165.751],[220.736,165.931],[220.75,165.964],[220.81,166.116],[220.833,166.182],[220.871,166.305],[220.896,166.402],[220.918,166.499],[220.94,166.623],[220.95,166.695],[220.964,166.844],[220.967,166.892],[220.969,167.065],[220.968,167.089],[220.953,167.286],[220.922,167.482],[220.917,167.504],[220.875,167.675],[220.861,167.721],[220.813,167.863],[220.786,167.934],[220.738,168.046],[220.691,168.145],[220.65,168.224],[220.577,168.352],[220.55,168.395],[220.444,168.554],[220.438,168.562],[220.313,168.726],[220.293,168.751],[220.175,168.888],[220.124,168.944],[220.022,169.048],[219.937,169.13],[219.856,169.205],[219.734,169.311],[219.675,169.36],[219.515,169.485],[219.48,169.512],[219.281,169.653],[219.271,169.66],[219.054,169.801],[219.033,169.814],[218.833,169.932],[218.77,169.967],[218.495,170.114],[218.382,170.17],[198.787,179.848],[198.674,179.901],[198.418,180.011],[198.341,180.042],[198.039,180.152],[197.991,180.167],[197.649,180.27],[197.625,180.277],[197.249,180.366],[197.241,180.368],[196.839,180.439],[196.416,180.489],[163.408,180.429],[163.058,180.389],[163.003,180.381],[162.714,180.331],[162.609,180.311],[162.375,180.258],[162.225,180.22],[162.04,180.167],[161.85,180.108],[161.711,180.06],[161.485,179.975],[161.386,179.935],[161.13,179.823],[161.065,179.793],[141.445,170.015],[141.178,169.876],[141.177,169.875],[140.92,169.728],[140.783,169.644],[140.676,169.575],[140.445,169.415],[140.403,169.384],[140.228,169.249],[140.221,169.243],[140.045,169.095],[140.025,169.077],[139.878,168.938],[139.838,168.899],[139.719,168.775],[139.666,168.716],[139.571,168.603],[139.511,168.528],[139.433,168.422],[139.373,168.335],[139.308,168.233],[139.251,168.138],[139.197,168.036],[139.148,167.937],[139.101,167.831],[139.062,167.733],[139.023,167.619],[138.995,167.525],[138.963,167.402],[138.946,167.316],[138.924,167.182],[138.915,167.105],[138.905,166.957],[138.903,166.892]]
EXCLUDE_OBJECT_DEFINE NAME=C92X_Extrusion_Bracket_No_Support_Required.stl_id_1_copy_0 CENTER=158.896,85.5085 POLYGON=[[138.896,75.5097],[178.896,75.5097],[178.896,95.5074],[138.896,95.5074],[138.896,75.5097]]
EXCLUDE_OBJECT_DEFINE NAME=C92X_Spacer_Arm.stl_id_2_copy_0 CENTER=61.0294,132.389 POLYGON=[[35.0294,132.389],[35.0404,132.011],[35.0734,131.634],[35.1282,131.26],[35.2046,130.89],[35.3025,130.524],[35.4214,130.166],[35.561,129.814],[35.7208,129.471],[35.9002,129.139],[36.0987,128.817],[36.3156,128.507],[36.5501,128.211],[36.8015,127.928],[37.0688,127.661],[37.3513,127.409],[37.6479,127.175],[37.9576,126.958],[38.2794,126.76],[38.6122,126.58],[38.9549,126.42],[39.3063,126.281],[39.6652,126.162],[40.0304,126.064],[40.4007,125.987],[40.7748,125.933],[41.1515,125.9],[41.5294,125.889],[80.5294,125.889],[80.9074,125.9],[81.284,125.933],[81.6581,125.987],[82.0284,126.064],[82.3936,126.162],[82.7525,126.281],[83.1039,126.42],[83.4466,126.58],[83.7794,126.76],[84.1012,126.958],[84.4109,127.175],[84.7075,127.409],[84.99,127.661],[85.2573,127.928],[85.5087,128.211],[85.7432,128.507],[85.9601,128.817],[86.1586,129.139],[86.338,129.471],[86.4978,129.814],[86.6374,130.166],[86.7563,130.524],[86.8542,130.89],[86.9307,131.26],[86.9855,131.634],[87.0184,132.011],[87.0294,132.389],[87.0184,132.767],[86.9855,133.143],[86.9307,133.517],[86.8542,133.888],[86.7563,134.253],[86.6374,134.612],[86.4978,134.963],[86.338,135.306],[86.1586,135.639],[85.9601,135.96],[85.7432,136.27],[85.5087,136.567],[85.2573,136.849],[84.99,137.117],[84.7075,137.368],[84.4109,137.602],[84.1012,137.819],[83.7794,138.018],[83.4466,138.197],[83.1039,138.357],[82.7525,138.497],[82.3936,138.616],[82.0284,138.713],[81.6581,138.79],[81.284,138.845],[80.9074,138.878],[80.5294,138.889],[41.5294,138.889],[41.1515,138.878],[40.7748,138.845],[40.4007,138.79],[40.0304,138.713],[39.6652,138.616],[39.3063,138.497],[38.9549,138.357],[38.6122,138.197],[38.2794,138.018],[37.9576,137.819],[37.6479,137.602],[37.3513,137.368],[37.0688,137.117],[36.8015,136.849],[36.5501,136.567],[36.3156,136.27],[36.0987,135.96],[35.9002,135.639],[35.7208,135.306],[35.561,134.963],[35.4214,134.612],[35.3025,134.253],[35.2046,133.888],[35.1282,133.517],[35.0734,133.143],[35.0404,132.767],[35.0294,132.389]]
M73 P0 R41
;TYPE:Custom
M104 S0 ; Stops OrcaSlicer from sending temp waits separately
M140 S0
print_start EXTRUDER=220 BED=60 


;CHAMBER=0
G90
G21
M82 ; use absolute distances for extrusion
G92 E0
; filament start gcode
M106 S0
;LAYER_CHANGE
;Z:0.2
;HEIGHT:0.2
;BEFORE_LAYER_CHANGE
;0.2
G92 E0

G1 E-.8 F1800
G92 E0
G1 Z.4 F21000
;AFTER_LAYER_CHANGE
;0.2
M204 S500
; printing object C92X_Spacer_Arm.stl id:2 copy 0
EXCLUDE_OBJECT_START NAME=C92X_Spacer_Arm.stl_id_2_copy_0
G92 E0
G1 X37.966 Y136.348
G1 Z.2
G1 E.8 F1800
;TYPE:Inner wall
;WIDTH:0.499999
G1 F3000
G1 X37.65 Y136.049 E.8162
G1 X37.251 Y135.574 E.8393
G1 X36.908 Y135.052 E.86258
G1 X36.632 Y134.501 E.88552
G1 X36.42 Y133.919 E.90861
G1 X36.277 Y133.315 E.93172
G1 X36.205 Y132.699 E.95483
G1 X36.205 Y132.079 E.97793
G1 X36.277 Y131.462 E1.00104
G1 X36.42 Y130.859 E1.02412
G1 X36.632 Y130.276 E1.04724
G1 X36.903 Y129.736 E1.06973
G1 X37.455 Y128.948 E1.10558
G1 X37.858 Y128.521 E1.12745
G1 X38.6 Y127.934 E1.16268
G1 X39.432 Y127.485 E1.19791
G1 X40 Y127.279 E1.22039
G1 X40.587 Y127.14 E1.24288
G1 X41.58 Y127.053 E1.28
G1 X80.5 Y127.053 E2.72964
G1 X81.149 Y127.091 E2.75382
G1 X81.743 Y127.196 E2.77631
G1 X82.657 Y127.499 E2.81216
G1 X83.182 Y127.762 E2.83403
G1 X84.077 Y128.415 E2.87529
G1 X84.455 Y128.783 E2.89494
G1 X84.847 Y129.263 E2.91802
G1 X85.237 Y129.916 E2.94637
G1 X85.572 Y130.665 E2.97691
G1 X85.732 Y131.228 E2.99873
G1 X85.831 Y131.84 E3.02182
G1 X85.863 Y132.388 E3.04228
G1 X85.827 Y133.008 E3.06539
G1 X85.72 Y133.619 E3.08849
G1 X85.542 Y134.213 E3.1116
G1 X85.302 Y134.767 E3.13409
G1 X84.797 Y135.587 E3.16995
G1 X84.409 Y136.049 E3.19241
G1 X83.958 Y136.475 E3.21552
G1 X83.474 Y136.835 E3.23801
G1 X82.626 Y137.292 E3.27388
G1 X82.059 Y137.498 E3.29633
G1 X81.472 Y137.638 E3.31884
G1 X80.479 Y137.725 E3.35595
G1 X41.563 Y137.725 E4.80541
G1 X40.927 Y137.687 E4.82916
G1 X39.984 Y137.493 E4.86501
G1 X39.417 Y137.286 E4.88749
G1 X38.877 Y137.015 E4.90999
G1 X38.088 Y136.463 E4.94585
G1 X38.032 Y136.409 E4.94876
G1 X37.653 Y136.68 F21000
G1 F3000
G1 X37.317 Y136.363 E4.96594
G1 X36.884 Y135.847 E4.99104
G1 X36.511 Y135.28 E5.01631
G1 X36.211 Y134.682 E5.04122
G1 X35.981 Y134.05 E5.06629
G1 X35.826 Y133.394 E5.09139
G1 X35.747 Y132.725 E5.11647
G1 X35.747 Y132.052 E5.14156
G1 X35.826 Y131.383 E5.16666
G1 X35.981 Y130.728 E5.19172
G1 X36.211 Y130.095 E5.21682
G1 X36.509 Y129.501 E5.24154
G1 X37.1 Y128.659 E5.27987
G1 X37.548 Y128.183 E5.30422
G1 X38.348 Y127.551 E5.34219
G1 X39.245 Y127.067 E5.38014
G1 X39.868 Y126.84 E5.40486
G1 X40.514 Y126.687 E5.42958
G1 X41.56 Y126.596 E5.46868
G1 X80.514 Y126.596 E6.91956
G1 X81.202 Y126.636 E6.94523
G1 X81.855 Y126.751 E6.96995
G1 X82.832 Y127.075 E7.00828
G1 X83.417 Y127.369 E7.03263
G1 X84.26 Y127.959 E7.07097
G1 X84.742 Y128.414 E7.09566
G1 X85.175 Y128.93 E7.12076
G1 X85.54 Y129.485 E7.14548
G1 X85.83 Y130.106 E7.17102
G1 X86.044 Y130.648 E7.19272
G1 X86.182 Y131.149 E7.21208
G1 X86.288 Y131.813 E7.23714
G1 X86.321 Y132.388 E7.25859
G1 X86.282 Y133.061 E7.28369
G1 X86.165 Y133.724 E7.30877
G1 X85.972 Y134.37 E7.33386
G1 X85.709 Y134.979 E7.35858
G1 X85.168 Y135.855 E7.39693
G1 X84.742 Y136.363 E7.42162
G1 X84.252 Y136.825 E7.44671
G1 X83.72 Y137.222 E7.47144
G1 X82.814 Y137.71 E7.50978
G1 X82.191 Y137.937 E7.53447
G1 X81.545 Y138.09 E7.5592
G1 X80.499 Y138.182 E7.5983
G1 X41.55 Y138.182 E9.049
G1 X40.867 Y138.142 E9.07449
G1 X39.859 Y137.934 E9.11282
G1 X39.235 Y137.707 E9.13753
G1 X38.642 Y137.409 E9.16226
G1 X37.799 Y136.818 E9.2006
G1 X37.718 Y136.742 E9.20475
G1 X37.339 Y137.013 F21000
;TYPE:Outer wall
G1 F3000
G1 X36.984 Y136.678 E9.22292
G1 X36.517 Y136.121 E9.25
G1 X36.115 Y135.509 E9.27726
G1 X35.791 Y134.864 E9.30415
G1 X35.542 Y134.181 E9.3312
G1 X35.375 Y133.474 E9.35828
G1 X35.29 Y132.752 E9.38535
G1 X35.29 Y132.025 E9.41242
G1 X35.375 Y131.303 E9.4395
G1 X35.542 Y130.597 E9.46655
G1 X35.791 Y129.913 E9.49363
G1 X36.116 Y129.267 E9.52058
G1 X36.744 Y128.369 E9.56139
G1 X37.239 Y127.845 E9.58822
G1 X38.096 Y127.167 E9.62892
G1 X39.057 Y126.649 E9.66961
G1 X39.737 Y126.402 E9.69655
G1 X40.441 Y126.235 E9.72351
G1 X41.54 Y126.139 E9.76459
G1 X80.527 Y126.139 E11.21671
G1 X81.255 Y126.181 E11.24386
G1 X81.968 Y126.307 E11.27082
G1 X83.008 Y126.652 E11.31163
G1 X83.652 Y126.975 E11.33846
G1 X84.549 Y127.604 E11.37928
G1 X85.075 Y128.1 E11.4062
G1 X85.542 Y128.657 E11.43328
G1 X85.94 Y129.261 E11.46024
G1 X86.244 Y129.913 E11.48702
G1 X86.482 Y130.517 E11.51119
G1 X86.632 Y131.07 E11.53253
G1 X86.744 Y131.787 E11.55957
G1 X86.779 Y132.388 E11.58201
G1 X86.737 Y133.114 E11.60909
G1 X86.611 Y133.83 E11.63616
G1 X86.402 Y134.526 E11.66323
G1 X86.115 Y135.191 E11.69018
G1 X85.54 Y136.123 E11.73101
G1 X85.075 Y136.677 E11.75793
G1 X84.547 Y137.176 E11.78501
G1 X83.966 Y137.608 E11.81196
G1 X83.001 Y138.128 E11.85279
G1 X82.322 Y138.376 E11.87971
G1 X81.618 Y138.543 E11.90667
G1 X80.519 Y138.639 E11.94776
G1 X41.537 Y138.639 E13.39969
G1 X40.807 Y138.596 E13.42692
G1 X39.734 Y138.375 E13.46773
G1 X39.054 Y138.127 E13.49467
G1 X38.407 Y137.802 E13.52163
G1 X37.51 Y137.174 E13.56245
G1 X37.404 Y137.074 E13.56784
G1 X37.358 Y136.917
G1 E13.00784 F1800
;WIPE_START
G1 F3000
G1 X36.984 Y136.678 E12.94194
G1 X36.517 Y136.121 E12.85905
G1 X36.135 Y135.54 E12.77984
;WIPE_END
G1 E12.76784 F1800
G92 E0
G1 Z.6 F21000
G1 X80.164 Y135.262 Z.2
G1 E.8 F1800
;TYPE:Inner wall
G1 F3000
G1 X80.074 Y135.257 E.80338
G1 X79.758 Y135.194 E.81538
G1 X79.153 Y134.952 E.83965
G1 X78.574 Y134.536 E.86622
G1 X78.178 Y134.093 E.88835
G1 X77.83 Y133.475 E.91475
G1 X77.655 Y132.844 E.93915
G1 X77.626 Y132.19 E.96351
G1 X77.743 Y131.549 E.98778
G1 X77.857 Y131.251 E.99969
G1 X78.144 Y130.731 E1.02179
G1 X78.383 Y130.432 E1.03604
G1 X78.825 Y130.037 E1.05814
G1 X79.448 Y129.687 E1.08476
G1 X80.077 Y129.514 E1.10903
G1 X80.728 Y129.486 E1.1333
G1 X81.369 Y129.602 E1.15757
G1 X81.667 Y129.716 E1.16948
G1 X82.187 Y130.004 E1.19158
G1 X82.486 Y130.242 E1.20583
G1 X82.881 Y130.685 E1.22793
G1 X83.059 Y130.95 E1.23981
G1 X83.276 Y131.416 E1.25897
G1 X83.403 Y131.934 E1.27883
G1 X83.433 Y132.587 E1.30319
G1 X83.316 Y133.228 E1.32746
G1 X83.153 Y133.614 E1.34306
G1 X82.887 Y134.093 E1.36347
G1 X82.676 Y134.345 E1.37571
G1 X82.234 Y134.741 E1.39782
G1 X81.968 Y134.918 E1.40972
G1 X81.505 Y135.135 E1.42874
G1 X81.008 Y135.258 E1.44783
G1 X80.672 Y135.289 E1.46039
G1 X80.254 Y135.267 E1.47597
G1 X79.794 Y134.719 F21000
G1 F3000
G1 X79.396 Y134.565 E1.49187
G1 X78.914 Y134.231 E1.5137
G1 X78.518 Y133.788 E1.53583
G1 X78.242 Y133.277 E1.55749
G1 X78.101 Y132.741 E1.57812
G1 X78.083 Y132.19 E1.59864
G1 X78.189 Y131.651 E1.61911
G1 X78.544 Y130.952 E1.64831
G1 X78.687 Y130.773 E1.65685
G1 X79.13 Y130.377 E1.67896
G1 X79.647 Y130.099 E1.70083
G1 X80.179 Y129.96 E1.7213
G1 X80.728 Y129.943 E1.74177
G1 X81.267 Y130.048 E1.76224
G1 X81.743 Y130.281 E1.78196
G1 X82.104 Y130.505 E1.79781
G1 X82.541 Y130.989 E1.82208
G1 X82.817 Y131.501 E1.84374
G1 X82.958 Y132.036 E1.86437
G1 X82.975 Y132.587 E1.88489
G1 X82.87 Y133.126 E1.90536
G1 X82.514 Y133.825 E1.93455
G1 X82.371 Y134.004 E1.9431
G1 X81.929 Y134.4 E1.96521
G1 X81.412 Y134.679 E1.98708
G1 X80.906 Y134.812 E2.00658
G1 X80.516 Y134.823 E2.0211
G1 X79.909 Y134.763 E2.04383
G1 X79.878 Y134.751 E2.04505
G1 X79.87 Y134.257 F21000
;TYPE:Outer wall
G1 F3000
G1 X79.639 Y134.178 E2.05413
G1 X79.255 Y133.926 E2.07124
G1 X78.859 Y133.484 E2.09337
G1 X78.637 Y133.03 E2.11218
G1 X78.54 Y132.587 E2.12906
G1 X78.546 Y132.139 E2.14574
G1 X78.657 Y131.693 E2.16287
G1 X78.944 Y131.174 E2.18498
G1 X79.435 Y130.718 E2.2099
G1 X79.893 Y130.494 E2.22892
G1 X80.331 Y130.4 E2.2456
G1 X80.779 Y130.405 E2.26227
G1 X81.225 Y130.517 E2.27941
G1 X81.744 Y130.804 E2.30151
G1 X82.2 Y131.294 E2.32643
G1 X82.422 Y131.747 E2.34524
G1 X82.518 Y132.19 E2.36213
G1 X82.513 Y132.638 E2.3788
G1 X82.402 Y133.084 E2.39593
G1 X82.114 Y133.604 E2.41804
G1 X81.571 Y134.095 E2.44531
G1 X81.166 Y134.284 E2.46198
G1 X80.721 Y134.376 E2.47888
G1 X80.123 Y134.344 E2.5012
G1 X79.955 Y134.286 E2.50782
G1 X79.835 Y134.292
G1 E1.94782 F1800
;WIPE_START
G1 F3000
G1 X79.639 Y134.178 E1.90979
G1 X79.255 Y133.926 E1.85742
G1 X78.859 Y133.484 E1.78969
G1 X78.637 Y133.03 E1.7321
G1 X78.614 Y132.925 E1.71982
;WIPE_END
G1 E1.70782 F1800
G92 E0
G1 Z.6 F21000
G1 X40.509 Y135.106 Z.2
G1 E.8 F1800
;TYPE:Inner wall
G1 F3000
G1 X40.391 Y135.061 E.8047
G1 X39.872 Y134.774 E.8268
G1 X39.573 Y134.535 E.84105
G1 X39.155 Y134.067 E.86442
G1 X38.839 Y133.493 E.88882
G1 X38.655 Y132.844 E.91396
G1 X38.626 Y132.19 E.93832
G1 X38.743 Y131.549 E.96259
G1 X38.857 Y131.251 E.9745
G1 X39.144 Y130.731 E.9966
G1 X39.383 Y130.432 E1.01085
G1 X39.825 Y130.037 E1.03295
G1 X40.091 Y129.859 E1.04486
G1 X40.553 Y129.643 E1.06388
G1 X41.05 Y129.52 E1.08294
G1 X41.633 Y129.486 E1.10468
G1 X42.043 Y129.53 E1.12004
G1 X42.614 Y129.694 E1.14217
G1 X43.241 Y130.036 E1.16877
G1 X43.485 Y130.242 E1.18066
G1 X43.881 Y130.684 E1.20279
G1 X44.231 Y131.308 E1.22941
G1 X44.404 Y131.935 E1.25366
G1 X44.431 Y132.253 E1.26554
G1 X44.398 Y132.847 E1.28767
G1 X44.335 Y133.159 E1.29955
G1 X44.096 Y133.758 E1.32356
G1 X43.884 Y134.099 E1.33851
G1 X43.677 Y134.345 E1.35049
