; HEADER_BLOCK_START
; generated by OrcaSlicer 1.6.3 on 2023-07-09 at 09:25:06
; total layer number: 10
; HEADER_BLOCK_END

; THUMBNAIL_BLOCK_START
; THUMBNAIL_BLOCK_END

; external perimeters extrusion width = 0.40mm
; perimeters extrusion width = 0.45mm
; infill extrusion width = 0.45mm
; solid infill extrusion width = 0.40mm
; top infill extrusion width = 0.40mm
; first layer extrusion width = 0.50mm

; EXECUTABLE_BLOCK_START
EXCLUDE_OBJECT_DEFINE NAME=Filament_Card.stl_id_0_copy_0 CENTER=150,150 POLYGON=[[120,136],[120.037,135.531],[120.147,135.073],[120.327,134.638],[120.573,134.237],[120.879,133.879],[121.237,133.573],[121.638,133.327],[122.073,133.147],[122.531,133.037],[123,133],[177,133],[177.469,133.037],[177.927,133.147],[178.362,133.327],[178.763,133.573],[179.121,133.879],[179.427,134.237],[179.673,134.638],[179.853,135.073],[179.963,135.531],[180,136],[180,164],[179.963,164.469],[179.853,164.927],[179.673,165.362],[179.427,165.763],[179.121,166.121],[178.763,166.427],[178.362,166.673],[177.927,166.853],[177.469,166.963],[177,167],[123,167],[122.531,166.963],[122.073,166.853],[121.638,166.673],[121.237,166.427],[120.879,166.121],[120.573,165.763],[120.327,165.362],[120.147,164.927],[120.037,164.469],[120,164],[120,136]]
M73 P0 R8
;TYPE:Custom
M104 S0 ; Stops OrcaSlicer from sending temp waits separately
M140 S0
print_start EXTRUDER=220 BED=60 


;CHAMBER=0
G90
G21
M82 ; use absolute distances for extrusion
G92 E0
; filament start gcode
M106 S0
;LAYER_CHANGE
;Z:0.2
;HEIGHT:0.2
;BEFORE_LAYER_CHANGE
;0.2
G92 E0

G1 E-.8 F1800
G92 E0
G1 Z.4 F21000
;AFTER_LAYER_CHANGE
;0.2
M204 S500
; printing object Filament_Card.stl id:0 copy 0
EXCLUDE_OBJECT_START NAME=Filament_Card.stl_id_0_copy_0
G92 E0
G1 X124.803 Y134.556
G1 Z.2
G1 E.8 F1800
;TYPE:Inner wall
;WIDTH:0.68377
G1 F3000
G1 X124.68 Y134.625 E.80737
;WIDTH:0.637778
G1 X124.556 Y134.694 E.81422
;WIDTH:0.591786
G1 X124.433 Y134.763 E.82053
;WIDTH:0.545793
G1 X123.329 Y135.427 E.87331
;WIDTH:0.499999
G1 X122.388 Y135.97 E.91379
G1 X121.913 Y136.278 E.93489
;WIDTH:0.541842
G1 X121.709 Y136.696 E.9538
;WIDTH:0.583684
G1 X121.506 Y137.115 E.97431
G1 X121.485 Y136.599 E.99708
;WIDTH:0.541842
G1 X121.464 Y136.082 E1.01809
;WIDTH:0.499999
G1 X121.509 Y135.681 E1.03312
G1 X121.644 Y135.296 E1.04833
G1 X121.841 Y135.006 E1.06139
G1 X122.22 Y134.691 E1.07975
G1 X122.54 Y134.543 E1.09287
G1 X123.071 Y134.464 E1.11288
;WIDTH:0.545793
G1 X124.359 Y134.487 E1.16567
;WIDTH:0.591786
G1 X124.507 Y134.51 E1.17236
;WIDTH:0.637778
G1 X124.655 Y134.533 E1.17961
;WIDTH:0.68377
G1 X124.714 Y134.543 E1.18273
G1 E.62273 F1800
;WIPE_START
G1 F3000
G1 X124.68 Y134.625 E.61252
G1 X124.556 Y134.694 E.59643
G1 X124.433 Y134.763 E.58033
G1 X123.329 Y135.427 E.43348
G1 X123.035 Y135.597 E.39473
;WIPE_END
G1 E.38273 F1800
G92 E0
G1 Z.6 F21000
G1 X127.813 Y162.067 Z.2
G1 E.8 F1800
;WIDTH:0.537692
G1 F3000
G1 X127.881 Y161.815 E.81053
;WIDTH:0.575385
G1 X127.97 Y161.484 E.8254
G1 X127.987 Y160.802 E.855
;WIDTH:0.607643
G1 X127.921 Y160.143 E.88546
G1 X127.862 Y159.979 E.8935
;WIDTH:0.568231
G1 X127.754 Y159.718 E.90556
;WIDTH:0.534115
G1 X127.645 Y159.458 E.91685
;WIDTH:0.499999
G1 X127.278 Y158.78 E.94557
G1 X126.946 Y158.352 E.96574
G1 X126.456 Y157.892 E.99076
G1 X125.983 Y157.567 E1.01215
G1 X121.464 Y154.959 E1.20649
G1 X121.464 Y141.168 E1.72014
;WIDTH:0.533878
G1 X121.481 Y140.781 E1.73564
;WIDTH:0.567756
G1 X121.498 Y140.394 E1.75222
;WIDTH:0.601634
G1 X121.515 Y140.006 E1.76986
G1 X121.615 Y140.21 E1.78021
;WIDTH:0.560469
G1 X121.715 Y140.414 E1.78979
;WIDTH:0.519304
G1 X122.119 Y140.79 E1.8112
;WIDTH:0.499999
G1 X124.445 Y142.132 E1.91121
G1 X124.885 Y142.278 E1.92847
G1 X125.226 Y142.266 E1.9412
G1 X125.587 Y142.132 E1.95554
G1 X127.913 Y140.79 E2.05556
G1 X128.191 Y140.564 E2.06892
G1 X128.406 Y140.216 E2.08415
G1 X128.484 Y139.8 E2.0999
G1 X128.484 Y137.115 E2.19991
G1 X128.441 Y136.803 E2.21163
G1 X128.269 Y136.447 E2.22638
G1 X127.913 Y136.125 E2.24423
;WIDTH:0.545935
G1 X125.599 Y134.763 E2.3543
;WIDTH:0.59188
G1 X125.476 Y134.694 E2.36061
;WIDTH:0.637825
G1 X125.353 Y134.625 E2.36745
;WIDTH:0.68377
G1 X125.23 Y134.556 E2.37481
G1 X125.377 Y134.533 E2.38262
;WIDTH:0.637825
G1 X125.525 Y134.511 E2.38987
;WIDTH:0.59188
G1 X125.673 Y134.488 E2.39655
;WIDTH:0.545935
G1 X128.358 Y134.465 E2.50662
;WIDTH:0.499999
G1 X176.89 Y134.473 E4.31426
G1 X177.257 Y134.49 E4.32794
G1 X177.745 Y134.663 E4.34722
G1 X178.045 Y134.89 E4.36122
G1 X178.343 Y135.267 E4.37914
G1 X178.478 Y135.622 E4.39327
G1 X178.536 Y136.12 E4.41194
G1 X178.536 Y147.048 E4.81898
M73 P1 R8
G1 X178.172 Y147.318 E4.83584
G1 X177.7 Y147.806 E4.86115
G1 X177.536 Y148.02 E4.8712
G1 X177.244 Y148.516 E4.89262
G1 X177.096 Y148.846 E4.9061
G1 X176.936 Y149.431 E4.92868
G1 X176.88 Y149.911 E4.94668
G1 X176.887 Y163.887 E5.46725
G1 X149.91 Y163.88 E6.47205
G1 X149.685 Y163.903 E6.48049
G1 X149.045 Y164.031 E6.50477
G1 X148.754 Y164.132 E6.51626
G1 X148.21 Y164.408 E6.53899
G1 X147.876 Y164.647 E6.55428
G1 X147.465 Y165.012 E6.57475
G1 X147.036 Y165.536 E6.59997
G1 X141.893 Y165.536 E6.79153
;WIDTH:0.501013
G1 X141.107 Y165.535 E6.82086
;WIDTH:0.545278
G1 X140.817 Y165.513 E6.83277
;WIDTH:0.589542
G1 X140.527 Y165.491 E6.84574
G1 X140.767 Y165.364 E6.85786
;WIDTH:0.545278
G1 X141.007 Y165.236 E6.869
;WIDTH:0.501013
G1 X141.376 Y164.761 E6.89145
;WIDTH:0.499999
G1 X141.464 Y164.321 E6.90814
G1 X141.464 Y153.679 E7.30455
G1 X141.432 Y153.409 E7.31465
G1 X141.287 Y153.067 E7.32851
G1 X141.04 Y152.79 E7.34232
G1 X140.672 Y152.591 E7.3579
G1 X140.322 Y152.536 E7.37111
G1 X129.679 Y152.536 E7.76752
G1 X129.343 Y152.586 E7.78016
G1 X128.983 Y152.772 E7.79527
G1 X128.759 Y153 E7.80715
G1 X128.597 Y153.311 E7.82022
G1 X128.536 Y153.679 E7.8341
G1 X128.536 Y158.647 E8.01917
;WIDTH:0.502462
G1 X128.535 Y159.519 E8.05179
;WIDTH:0.537523
G1 X128.517 Y159.712 E8.05963
;WIDTH:0.572583
G1 X128.5 Y159.906 E8.06801
;WIDTH:0.607643
G1 X128.482 Y160.099 E8.07696
G1 X128.505 Y160.821 E8.11019
;WIDTH:0.573596
G1 X128.499 Y161.544 E8.14145
G1 X128.517 Y161.911 E8.15735
;WIDTH:0.536798
G1 X128.536 Y162.278 E8.17215
;WIDTH:0.499999
G1 X128.536 Y164.321 E8.24825
G1 X128.662 Y164.844 E8.26828
G1 X129.041 Y165.27 E8.28948
;WIDTH:0.535841
G1 X129.36 Y165.385 E8.3031
;WIDTH:0.571682
G1 X129.679 Y165.5 E8.31771
G1 X129.319 Y165.518 E8.33322
;WIDTH:0.535841
G1 X128.959 Y165.536 E8.34768
;WIDTH:0.499999
G1 X125.818 Y165.536 E8.46468
;WIDTH:0.523862
G1 X125.118 Y165.524 E8.49212
;WIDTH:0.550324
G1 X124.829 Y165.511 E8.5041
;WIDTH:0.576785
G1 X123.818 Y165.505 E8.54806
;WIDTH:0.608401
G1 X123.054 Y165.48 E8.5833
;WIDTH:0.637378
G1 X122.545 Y165.388 E8.60834
G1 X122.096 Y165.162 E8.6327
;WIDTH:0.612544
G1 X121.811 Y164.852 E8.65222
G1 X121.613 Y164.499 E8.67104
G1 X121.552 Y164.229 E8.68387
G1 X122.204 Y164.587 E8.71841
;WIDTH:0.637045
G1 X122.797 Y164.841 E8.74963
G1 X123.082 Y164.897 E8.76368
;WIDTH:0.610941
G1 X123.367 Y164.953 E8.77711
;WIDTH:0.584836
G1 X124.043 Y164.99 E8.80702
;WIDTH:0.576053
G1 X124.694 Y164.938 E8.83538
G1 X124.946 Y164.856 E8.84692
;WIDTH:0.538026
G1 X125.199 Y164.774 E8.85765
;WIDTH:0.499999
G1 X125.82 Y164.517 E8.88265
G1 X126.414 Y164.137 E8.90895
G1 X126.854 Y163.737 E8.93108
G1 X127.197 Y163.339 E8.95066
G1 X127.544 Y162.77 E8.97548
G1 X127.789 Y162.154 E9.00018
G1 X127.376 Y161.925 F21000
G1 F3000
G1 X127.482 Y161.398 E9.02018
G1 X127.499 Y160.802 E9.0424
G1 X127.416 Y160.223 E9.06418
G1 X127.239 Y159.669 E9.08586
G1 X126.966 Y159.141 E9.10797
G1 X126.625 Y158.678 E9.12942
G1 X126.195 Y158.267 E9.15155
G1 X125.754 Y157.963 E9.1715
G1 X121.083 Y155.266 E9.37241
G1 X121.007 Y155.135 E9.37805
G1 X121.007 Y136.082 E10.08769
G1 X121.079 Y135.501 E10.10951
G1 X121.262 Y135.031 E10.12829
G1 X121.612 Y134.584 E10.14942
G1 X122.038 Y134.259 E10.1694
G1 X122.579 Y134.06 E10.19086
G1 X123.03 Y134.007 E10.20777
G1 X177.171 Y134.024 E12.22432
G1 X177.662 Y134.123 E12.24297
G1 X178.105 Y134.354 E12.26158
G1 X178.486 Y134.68 E12.28026
G1 X178.813 Y135.198 E12.30306
G1 X178.962 Y135.664 E12.32129
G1 X178.993 Y136.12 E12.33829
M73 P2 R8
G1 X178.993 Y147.296 E12.75459
G1 X178.501 Y147.636 E12.77686
G1 X177.93 Y148.253 E12.80816
G1 X177.536 Y148.966 E12.83852
G1 X177.376 Y149.551 E12.8611
G1 X177.337 Y149.91 E12.87456
G1 X177.344 Y163.931 E13.39679
G1 X177.329 Y164.081 E13.40237
G1 X177.18 Y164.283 E13.41174
G1 X176.957 Y164.344 E13.42037
G1 X149.91 Y164.337 E14.42776
G1 X149.775 Y164.351 E14.43282
G1 X148.961 Y164.54 E14.46395
G1 X148.292 Y164.897 E14.49219
G1 X147.819 Y165.302 E14.51539
G1 X147.275 Y165.993 E14.54812
G1 X123.086 Y165.993 E15.44907
G1 X122.564 Y165.938 E15.46865
G1 X122.094 Y165.766 E15.48726
G1 X121.752 Y165.549 E15.50236
G1 X121.393 Y165.15 E15.52236
G1 X121.145 Y164.711 E15.54114
G1 X121.041 Y164.293 E15.55717
G1 X121.022 Y163.347 E15.59243
G1 X121.076 Y163.361 E15.59451
G1 X122.299 Y164.065 E15.64707
G1 X122.84 Y164.308 E15.66917
G1 X123.416 Y164.456 E15.69131
G1 X123.959 Y164.506 E15.71162
G1 X124.485 Y164.47 E15.73125
G1 X125.035 Y164.347 E15.75226
G1 X125.586 Y164.125 E15.77438
G1 X126.107 Y163.798 E15.79728
G1 X126.526 Y163.418 E15.81837
G1 X126.844 Y163.049 E15.83652
G1 X127.148 Y162.541 E15.85854
G1 X127.354 Y162.012 E15.87971
G1 X126.945 Y161.775 F21000
;TYPE:Outer wall
G1 F3000
G1 X127.032 Y161.319 E15.897
G1 X127.042 Y160.802 E15.91628
G1 X126.965 Y160.294 E15.9354
G1 X126.834 Y159.879 E15.95162
G1 X126.56 Y159.352 E15.97374
G1 X126.328 Y159.03 E15.98852
G1 X125.964 Y158.667 E16.00767
G1 X125.526 Y158.359 E16.02761
G1 X120.877 Y155.675 E16.22757
G1 X120.617 Y155.447 E16.24041
G1 X120.55 Y155.195 E16.25014
G1 X120.55 Y136.014 E16.96455
G1 X120.612 Y135.478 E16.98466
G1 X120.811 Y134.919 E17.00676
G1 X121.095 Y134.464 E17.02673
G1 X121.495 Y134.084 E17.04729
G1 X121.943 Y133.8 E17.06702
G1 X122.464 Y133.618 E17.08759
G1 X123.011 Y133.55 E17.10811
G1 X177.106 Y133.559 E19.12296
G1 X177.616 Y133.639 E19.14219
G1 X178.193 Y133.862 E19.16522
G1 X178.678 Y134.23 E19.1879
G1 X178.972 Y134.574 E19.20475
G1 X179.23 Y135.009 E19.22358
G1 X179.414 Y135.587 E19.24615
G1 X179.45 Y136.12 E19.26605
G1 X179.45 Y147.545 E19.69161
G1 X178.829 Y147.954 E19.7193
G1 X178.323 Y148.485 E19.74661
G1 X177.977 Y149.087 E19.77248
G1 X177.817 Y149.672 E19.79506
G1 X177.794 Y149.91 E19.80398
G1 X177.801 Y163.931 E20.32621
M73 P3 R8
G1 X177.776 Y164.192 E20.33597
G1 X177.62 Y164.48 E20.34816
G1 X177.373 Y164.707 E20.36066
G1 X176.985 Y164.801 E20.37553
G1 X149.91 Y164.794 E21.38397
G1 X149.167 Y164.948 E21.41221
G1 X148.581 Y165.25 E21.43677
G1 X148.172 Y165.592 E21.45662
G1 X147.721 Y166.142 E21.48312
G1 X147.538 Y166.45 E21.49647
G1 X123.086 Y166.45 E22.4072
G1 X122.571 Y166.399 E22.42649
G1 X122.186 Y166.31 E22.44122
G1 X121.677 Y166.05 E22.4625
G1 X121.249 Y165.7 E22.48309
G1 X120.951 Y165.318 E22.50113
G1 X120.729 Y164.899 E22.51879
G1 X120.588 Y164.419 E22.53742
G1 X120.554 Y163.422 E22.57458
G1 X120.617 Y163.088 E22.58723
G1 X120.779 Y162.927 E22.59574
G1 X121 Y162.868 E22.60425
G1 X121.252 Y162.935 E22.61398
G1 X122.476 Y163.642 E22.66661
G1 X122.932 Y163.857 E22.68539
G1 X123.423 Y163.994 E22.70436
G1 X123.937 Y164.048 E22.72361
G1 X124.452 Y164.014 E22.74285
G1 X124.871 Y163.92 E22.75885
G1 X125.352 Y163.732 E22.77808
G1 X125.8 Y163.46 E22.79759
G1 X126.219 Y163.079 E22.81868
G1 X126.492 Y162.758 E22.83438
G1 X126.752 Y162.313 E22.85359
G1 X126.922 Y161.862 E22.87153
G1 X127.034 Y161.752
G1 E22.31153 F1800
;WIPE_START
G1 F3000
G1 X127.032 Y161.319 E22.24839
G1 X127.042 Y160.802 E22.18939
G1 X126.965 Y160.294 E22.13086
G1 X126.84 Y159.898 E22.08353
;WIPE_END
G1 E22.07153 F1800
G92 E0
G1 Z.6 F21000
G1 X129.024 Y164.448 Z.2
G1 E.8 F1800
;TYPE:Inner wall
G1 F3000
G1 X128.993 Y164.321 E.80486
G1 X128.993 Y160.802 E.93595
G1 X128.993 Y153.679 E1.20127
G1 X129.072 Y153.359 E1.21352
G1 X129.261 Y153.135 E1.22445
G1 X129.55 Y153.005 E1.23625
G1 X129.679 Y152.993 E1.24106
G1 X140.322 Y152.993 E1.63747
G1 X140.628 Y153.065 E1.64919
G1 X140.85 Y153.242 E1.65979
G1 X140.988 Y153.517 E1.67122
G1 X141.007 Y153.679 E1.67728
G1 X141.007 Y164.321 E2.07369
G1 X140.954 Y164.585 E2.08371
G1 X140.733 Y164.87 E2.09715
G1 X140.44 Y164.997 E2.10904
G1 X140.321 Y165.007 E2.11346
G1 X129.679 Y165.007 E2.50987
G1 X129.296 Y164.89 E2.52477
G1 X129.069 Y164.635 E2.5375
G1 X129.045 Y164.536 E2.5413
G1 X129.451 Y164.339 F21000
;TYPE:Outer wall
G1 F3000
G1 X129.45 Y160.802 E2.67304
G1 X129.45 Y153.679 E2.93836
G1 X129.516 Y153.518 E2.94483
G1 X129.679 Y153.45 E2.95139
G1 X140.322 Y153.45 E3.3478
G1 X140.477 Y153.511 E3.35402
G1 X140.55 Y153.679 E3.36082
G1 X140.55 Y164.321 E3.75723
G1 X140.459 Y164.504 E3.76484
G1 X140.321 Y164.55 E3.77023
G1 X129.679 Y164.55 E4.16663
G1 X129.551 Y164.511 E4.1716
G1 X129.496 Y164.417 E4.17568
G1 X129.334 Y164.309
G1 E3.61568 F1800
;WIPE_START
G1 F3000
G1 X129.471 Y162.417 E3.38768
;WIPE_END
G1 E3.37568 F1800
G92 E0
G1 Z.6 F21000
G1 X140.527 Y165.491 Z.2
G1 E.8 F1800
;TYPE:Inner wall
;WIDTH:0.589542
G1 F3000
G1 X140.321 Y165.5 E.80915
;WIDTH:0.571682
G1 X129.679 Y165.5 E1.26772
M73 P4 R8
G1 E.70772 F1800
;WIPE_START
G1 F3000
G1 X131.679 Y165.5 E.47972
;WIPE_END
G1 E.46772 F1800
G92 E0
G1 Z.6 F21000
G1 X127.859 Y140.232 Z.2
G1 E.8 F1800
;WIDTH:0.499999
G1 F3000
G1 X127.803 Y140.308 E.80351
G1 X127.684 Y140.394 E.80897
G1 X125.359 Y141.737 E.90898
G1 X125.048 Y141.828 E.92105
G1 X124.811 Y141.797 E.92996
G1 X124.673 Y141.737 E.93555
G1 X122.348 Y140.394 E1.03556
G1 X122.11 Y140.166 E1.04783
G1 X122.005 Y139.8 E1.062
G1 X122.005 Y137.115 E1.16201
G1 X122.224 Y136.613 E1.18242
G1 X122.461 Y136.456 E1.19301
G1 X124.673 Y135.179 E1.28815
G1 X125.016 Y135.087 E1.30137
G1 X125.359 Y135.179 E1.31459
G1 X127.684 Y136.521 E1.4146
G1 X127.898 Y136.714 E1.42532
G1 X128.001 Y136.928 E1.43417
G1 X128.027 Y137.115 E1.4412
G1 X128.027 Y139.8 E1.54121
G1 X127.957 Y140.102 E1.55274
G1 X127.913 Y140.16 E1.55547
G1 X127.511 Y139.953 F21000
;TYPE:Outer wall
G1 F3000
G1 X125.13 Y141.341 E1.65812
G1 X124.99 Y141.37 E1.66347
G1 X124.902 Y141.341 E1.66692
G1 X122.576 Y139.998 E1.76693
G1 X122.465 Y139.84 E1.77413
G1 X122.462 Y139.8 E1.77561
G1 X122.462 Y137.115 E1.87562
G1 X122.576 Y136.917 E1.88413
G1 X122.69 Y136.852 E1.88901
G1 X124.902 Y135.574 E1.98415
G1 X125.056 Y135.547 E1.98997
G1 X125.13 Y135.574 E1.99293
G1 X127.456 Y136.917 E2.09294
G1 X127.561 Y137.053 E2.09934
G1 X127.57 Y137.115 E2.10169
G1 X127.57 Y139.8 E2.2017
G1 X127.544 Y139.869 E2.20444
G1 X127.552 Y140.066
G1 E1.64444 F1800
;WIPE_START
G1 F3000
G1 X125.836 Y140.91 E1.41644
;WIPE_END
G1 E1.40444 F1800
G92 E0
G1 Z.6 F21000
G1 X124.803 Y134.556 Z.2
G1 E.8 F1800
;TYPE:Inner wall
;WIDTH:0.68377
G1 F3000
G1 X125.23 Y134.556 E.82228
G1 E.26228 F1800
;WIPE_START
G1 F3000
G1 X124.803 Y134.556 E.03428
;WIPE_END
G1 E.02228 F1800
G92 E0
G1 Z.6 F21000
G1 X121.515 Y140.006 Z.2
G1 E.8 F1800
;WIDTH:0.601634
G1 F3000
G1 X121.506 Y139.8 E.8094
;WIDTH:0.583684
G1 X121.506 Y137.115 E.92772
G1 E.36772 F1800
;WIPE_START
G1 F3000
G1 X121.506 Y139.115 E.13972
;WIPE_END
G1 E.12772 F1800
G92 E0
G1 Z.6 F21000
G1 X122.836 Y134.62 Z.2
G1 E.8 F1800
;TYPE:Bottom surface
;WIDTH:0.528572
G1 F6300
G1 X123.277 Y135.061 E.82468
G1 X122.842 Y135.313 E.84458
G1 X122.47 Y134.941 E.86535
G1 X122.439 Y134.956 E.86672
G1 X122.205 Y135.122 E.87808
G1 X122.087 Y135.245 E.88482
G1 X122.406 Y135.564 E.90268
G1 X121.971 Y135.815 E.92258
G1 X121.688 Y135.532 E.93842
G1 E.37842 F1800
;WIPE_START
G1 F6300
G1 X121.971 Y135.815 E.33278
G1 X122.406 Y135.564 E.27546
G1 X122.087 Y135.245 E.22401
G1 X122.205 Y135.122 E.2046
G1 X122.439 Y134.956 E.17188
G1 X122.47 Y134.941 E.16793
G1 X122.579 Y135.05 E.15042
;WIPE_END
G1 E.13842 F1800
G92 E0
G1 Z.6 F21000
G1 X128.393 Y162.968 Z.2
G1 E.8 F1800
;WIDTH:0.525021
G1 F6300
G1 X127.997 Y162.572 E.82201
G1 X127.947 Y162.716 E.82801
G1 X127.783 Y163.041 E.84227
G1 X128.191 Y163.448 E.8649
G1 X128.196 Y164.135 E.8919
G1 X127.526 Y163.465 E.92912
M73 P5 R8
G1 X127.223 Y163.843 E.94817
G1 X128.345 Y164.966 E1.01054
G1 X128.357 Y165.005 E1.01215
G1 X128.524 Y165.193 E1.02202
