; generated by PrusaSlicer 2.6.0+win64 on 2023-07-18 at 05:19:07 UTC


;
;

;
;
; TODO: check the size of the extruder and the y-bar clearance. Optimize & test supports.

; external perimeters extrusion width = 0.40mm
; perimeters extrusion width = 0.46mm
; infill extrusion width = 0.64mm
; solid infill extrusion width = 0.56mm
; top infill extrusion width = 0.40mm
; first layer extrusion width = 0.24mm

M73 P0 R16


; Pre-Processed for Cancel-Object support by preprocess_cancellation v0.2.0
; 9 known objects
EXCLUDE_OBJECT_DEFINE NAME=First_Layer_Patch_0_2mm_stl_id_1_copy_0 CENTER=255.000,254.999 POLYGON=[[242.77,242.77],[242.77,267.23],[267.23,267.23],[267.23,242.77]]
EXCLUDE_OBJECT_DEFINE NAME=First_Layer_Patch_0_2mm_stl_id_1_copy_4 CENTER=150.000,254.999 POLYGON=[[137.77,242.77],[137.77,267.23],[162.23,267.23],[162.23,242.77]]
EXCLUDE_OBJECT_DEFINE NAME=First_Layer_Patch_0_2mm_stl_id_1_copy_1 CENTER=45.000,254.999 POLYGON=[[32.77,242.77],[32.77,267.23],[57.23,267.23],[57.23,242.77]]
EXCLUDE_OBJECT_DEFINE NAME=First_Layer_Patch_0_2mm_stl_id_1_copy_2 CENTER=45.000,149.999 POLYGON=[[32.77,137.77],[32.77,162.23],[57.23,162.23],[57.23,137.77]]
EXCLUDE_OBJECT_DEFINE NAME=First_Layer_Patch_0_2mm_stl_id_1_copy_6 CENTER=45.000,44.999 POLYGON=[[32.77,32.77],[32.77,57.23],[57.23,57.23],[57.23,32.77]]
EXCLUDE_OBJECT_DEFINE NAME=First_Layer_Patch_0_2mm_stl_id_0_copy_0 CENTER=150.000,44.999 POLYGON=[[137.77,32.77],[137.77,57.23],[162.23,57.23],[162.23,32.77]]
EXCLUDE_OBJECT_DEFINE NAME=First_Layer_Patch_0_2mm_stl_id_1_copy_3 CENTER=150.000,149.999 POLYGON=[[137.77,137.77],[137.77,162.23],[162.23,162.23],[162.23,137.77]]
EXCLUDE_OBJECT_DEFINE NAME=First_Layer_Patch_0_2mm_stl_id_1_copy_5 CENTER=255.000,149.999 POLYGON=[[242.77,137.77],[242.77,162.23],[267.23,162.23],[267.23,137.77]]
EXCLUDE_OBJECT_DEFINE NAME=First_Layer_Patch_0_2mm_stl_id_0_copy_1 CENTER=255.000,44.999 POLYGON=[[242.77,32.77],[242.77,57.23],[267.23,57.23],[267.23,32.77]]
;TYPE:Custom
M190 S0
M109 S0
print_start EXTRUDER=215 BED=60
G21 ; set units to millimeters
G90 ; use absolute coordinates
M83 ; use relative distances for extrusion
; Filament gcode
M107
;LAYER_CHANGE
;Z:0.2
;HEIGHT:0.2
;BEFORE_LAYER_CHANGE
;0.2
G92 E0

G1 E-.75 F1800
G1 Z.2 F30000
;AFTER_LAYER_CHANGE
;0.2
; printing object First_Layer_Patch-0.2mm.stl id:1 copy 0
EXCLUDE_OBJECT_START NAME=First_Layer_Patch_0_2mm_stl_id_1_copy_0
G1 Z1
G1 X266.639 Y266.639
G1 Z.2
G1 E.75 F1800
M204 S500
;TYPE:Perimeter
;WIDTH:0.239999
G1 X243.361 Y266.639 E.38146
G1 X243.361 Y243.361 E.38146
G1 X266.639 Y243.361 E.38146
G1 X266.639 Y266.579 E.38048
M204 S10000
G1 X266.836 Y266.836 F30000
M204 S500
G1 F1800
G1 X243.164 Y266.836 E.38792
G1 X243.164 Y243.164 E.38792
G1 X266.836 Y243.164 E.38792
G1 X266.836 Y266.776 E.38693
M204 S10000
G1 X267.033 Y267.033 F30000
M204 S500
G1 F1800
G1 X242.967 Y267.033 E.39437
G1 X242.967 Y242.967 E.39437
G1 X267.033 Y242.967 E.39437
M73 P1 R16
G1 X267.033 Y266.973 E.39339
M204 S10000
G1 X267.23 Y267.23 F30000
M204 S500
;TYPE:External perimeter
G1 F1800
G1 X242.77 Y267.23 E.40083
G1 X242.77 Y242.77 E.40083
G1 X267.23 Y242.77 E.40083
G1 X267.23 Y267.17 E.39985
M204 S10000
G1 X266.844 Y267.126 F30000
G1 E-.75 F1800
G1 X266.171 Y243.43 F30000
G1 E.75 F1800
M204 S500
;TYPE:Solid infill
;WIDTH:0.240222
G1 X266.57 Y243.829 E.00926
M204 S10000
G1 X266.57 Y244.108 F30000
M204 S500
G1 F1800
G1 X265.892 Y243.43 E.01573
M204 S10000
G1 X265.613 Y243.43 F30000
M204 S500
G1 F1800
G1 X266.57 Y244.387 E.0222
M204 S10000
G1 X266.57 Y244.666 F30000
M204 S500
G1 F1800
G1 X265.334 Y243.43 E.02868
M204 S10000
G1 X265.055 Y243.43 F30000
M204 S500
G1 F1800
G1 X266.57 Y244.945 E.03515
M204 S10000
G1 X266.57 Y245.224 F30000
M204 S500
G1 F1800
G1 X264.776 Y243.43 E.04162
M204 S10000
G1 X264.497 Y243.43 F30000
M204 S500
G1 F1800
G1 X266.57 Y245.503 E.0481
M204 S10000
G1 X266.57 Y245.782 F30000
M204 S500
G1 F1800
G1 X264.218 Y243.43 E.05457
M204 S10000
G1 X263.939 Y243.43 F30000
M204 S500
G1 F1800
G1 X266.57 Y246.061 E.06104
M204 S10000
G1 X266.57 Y246.34 F30000
M204 S500
G1 F1800
G1 X263.66 Y243.43 E.06752
M204 S10000
G1 X263.381 Y243.43 F30000
M204 S500
G1 F1800
G1 X266.57 Y246.619 E.07399
M204 S10000
G1 X266.57 Y246.898 F30000
M204 S500
G1 F1800
G1 X263.102 Y243.43 E.08046
M204 S10000
G1 X262.823 Y243.43 F30000
M204 S500
G1 F1800
G1 X266.57 Y247.177 E.08693
M204 S10000
G1 X266.57 Y247.456 F30000
M204 S500
G1 F1800
G1 X262.544 Y243.43 E.09341
M204 S10000
G1 X262.265 Y243.43 F30000
M204 S500
G1 F1800
G1 X266.57 Y247.735 E.09988
M204 S10000
G1 X266.57 Y248.015 F30000
M204 S500
G1 F1800
G1 X261.985 Y243.43 E.10638
M204 S10000
G1 X261.706 Y243.43 F30000
M204 S500
G1 F1800
G1 X266.57 Y248.294 E.11285
M204 S10000
G1 X266.57 Y248.573 F30000
M204 S500
G1 F1800
G1 X261.427 Y243.43 E.11932
M204 S10000
G1 X261.148 Y243.43 F30000
M204 S500
G1 F1800
G1 X266.57 Y248.852 E.1258
M204 S10000
G1 X266.57 Y249.131 F30000
M204 S500
G1 F1800
G1 X260.869 Y243.43 E.13227
M204 S10000
G1 X260.59 Y243.43 F30000
M204 S500
G1 F1800
G1 X266.57 Y249.41 E.13874
M204 S10000
G1 X266.57 Y249.689 F30000
M204 S500
G1 F1800
G1 X260.311 Y243.43 E.14522
M204 S10000
G1 X260.032 Y243.43 F30000
M204 S500
G1 F1800
G1 X266.57 Y249.968 E.15169
M204 S10000
G1 X266.57 Y250.247 F30000
M204 S500
G1 F1800
G1 X259.753 Y243.43 E.15816
M204 S10000
G1 X259.474 Y243.43 F30000
M204 S500
G1 F1800
G1 X266.57 Y250.526 E.16464
M204 S10000
M73 P2 R16
G1 X266.57 Y250.805 F30000
M204 S500
G1 F1800
G1 X259.195 Y243.43 E.17111
M204 S10000
G1 X258.916 Y243.43 F30000
M204 S500
G1 F1800
G1 X266.57 Y251.084 E.17758
M204 S10000
G1 X266.57 Y251.363 F30000
M204 S500
G1 F1800
G1 X258.637 Y243.43 E.18406
M204 S10000
G1 X258.358 Y243.43 F30000
M204 S500
G1 F1800
G1 X266.57 Y251.642 E.19053
M204 S10000
G1 X266.57 Y251.921 F30000
M204 S500
G1 F1800
G1 X258.079 Y243.43 E.197
M204 S10000
G1 X257.8 Y243.43 F30000
M204 S500
G1 F1800
G1 X266.57 Y252.2 E.20347
M204 S10000
G1 X266.57 Y252.479 F30000
M204 S500
G1 F1800
G1 X257.521 Y243.43 E.20995
M204 S10000
G1 X257.242 Y243.43 F30000
M204 S500
G1 F1800
G1 X266.57 Y252.758 E.21642
M204 S10000
G1 X266.57 Y253.037 F30000
M204 S500
G1 F1800
G1 X256.963 Y243.43 E.22289
M204 S10000
G1 X256.684 Y243.43 F30000
M204 S500
G1 F1800
G1 X266.57 Y253.316 E.22937
M204 S10000
G1 X266.57 Y253.595 F30000
M204 S500
G1 F1800
G1 X256.405 Y243.43 E.23584
M204 S10000
G1 X256.126 Y243.43 F30000
M204 S500
G1 F1800
G1 X266.57 Y253.874 E.24231
M204 S10000
G1 X266.57 Y254.153 F30000
M204 S500
G1 F1800
G1 X255.847 Y243.43 E.24879
M204 S10000
G1 X255.568 Y243.43 F30000
M204 S500
G1 F1800
G1 X266.57 Y254.432 E.25526
M204 S10000
G1 X266.57 Y254.711 F30000
M204 S500
G1 F1800
G1 X255.289 Y243.43 E.26173
M204 S10000
G1 X255.01 Y243.43 F30000
M204 S500
G1 F1800
G1 X266.57 Y254.99 E.26821
M204 S10000
G1 X266.57 Y255.269 F30000
M204 S500
G1 F1800
G1 X254.731 Y243.43 E.27468
M204 S10000
G1 X254.452 Y243.43 F30000
M204 S500
G1 F1800
G1 X266.57 Y255.548 E.28115
M204 S10000
G1 X266.57 Y255.827 F30000
M204 S500
G1 F1800
G1 X254.173 Y243.43 E.28763
M204 S10000
M73 P3 R16
G1 X253.894 Y243.43 F30000
M204 S500
G1 F1800
G1 X266.57 Y256.106 E.2941
M204 S10000
G1 X266.57 Y256.385 F30000
M204 S500
G1 F1800
G1 X253.615 Y243.43 E.30057
M204 S10000
G1 X253.336 Y243.43 F30000
M204 S500
G1 F1800
G1 X266.57 Y256.664 E.30704
M204 S10000
G1 X266.57 Y256.943 F30000
M204 S500
G1 F1800
G1 X253.057 Y243.43 E.31352
M204 S10000
M73 P3 R15
G1 X252.778 Y243.43 F30000
M204 S500
G1 F1800
G1 X266.57 Y257.222 E.31999
M204 S10000
G1 X266.57 Y257.501 F30000
M204 S500
G1 F1800
G1 X252.499 Y243.43 E.32646
M204 S10000
G1 X252.22 Y243.43 F30000
M204 S500
G1 F1800
G1 X266.57 Y257.78 E.33294
M204 S10000
G1 X266.57 Y258.06 F30000
M204 S500
G1 F1800
G1 X251.94 Y243.43 E.33943
M204 S10000
G1 X251.661 Y243.43 F30000
M204 S500
G1 F1800
G1 X266.57 Y258.339 E.34591
M204 S10000
G1 X266.57 Y258.618 F30000
M204 S500
G1 F1800
G1 X251.382 Y243.43 E.35238
M204 S10000
G1 X251.103 Y243.43 F30000
M204 S500
G1 F1800
G1 X266.57 Y258.897 E.35885
M204 S10000
G1 X266.57 Y259.176 F30000
M204 S500
G1 F1800
G1 X250.824 Y243.43 E.36533
M204 S10000
G1 X250.545 Y243.43 F30000
M204 S500
G1 F1800
G1 X266.57 Y259.455 E.3718
M204 S10000
G1 X266.57 Y259.734 F30000
M204 S500
G1 F1800
G1 X250.266 Y243.43 E.37827
M204 S10000
M73 P4 R15
G1 X249.987 Y243.43 F30000
M204 S500
G1 F1800
G1 X266.57 Y260.013 E.38475
M204 S10000
G1 X266.57 Y260.292 F30000
M204 S500
G1 F1800
G1 X249.708 Y243.43 E.39122
M204 S10000
G1 X249.429 Y243.43 F30000
M204 S500
G1 F1800
G1 X266.57 Y260.571 E.39769
M204 S10000
G1 X266.57 Y260.85 F30000
M204 S500
G1 F1800
G1 X249.15 Y243.43 E.40416
M204 S10000
G1 X248.871 Y243.43 F30000
M204 S500
G1 F1800
G1 X266.57 Y261.129 E.41064
M204 S10000
G1 X266.57 Y261.408 F30000
M204 S500
G1 F1800
G1 X248.592 Y243.43 E.41711
M204 S10000
G1 X248.313 Y243.43 F30000
M204 S500
G1 F1800
G1 X266.57 Y261.687 E.42358
M204 S10000
G1 X266.57 Y261.966 F30000
M204 S500
G1 F1800
G1 X248.034 Y243.43 E.43006
M204 S10000
G1 X247.755 Y243.43 F30000
M204 S500
G1 F1800
G1 X266.57 Y262.245 E.43653
M204 S10000
G1 X266.57 Y262.524 F30000
M204 S500
G1 F1800
G1 X247.476 Y243.43 E.443
M204 S10000
G1 X247.197 Y243.43 F30000
M204 S500
G1 F1800
G1 X266.57 Y262.803 E.44948
M204 S10000
M73 P5 R15
G1 X266.57 Y263.082 F30000
M204 S500
G1 F1800
G1 X246.918 Y243.43 E.45595
M204 S10000
G1 X246.639 Y243.43 F30000
M204 S500
G1 F1800
G1 X266.57 Y263.361 E.46242
M204 S10000
G1 X266.57 Y263.64 F30000
M204 S500
G1 F1800
G1 X246.36 Y243.43 E.4689
M204 S10000
G1 X246.081 Y243.43 F30000
M204 S500
G1 F1800
G1 X266.57 Y263.919 E.47537
M204 S10000
G1 X266.57 Y264.198 F30000
M204 S500
G1 F1800
G1 X245.802 Y243.43 E.48184
M204 S10000
G1 X245.523 Y243.43 F30000
M204 S500
G1 F1800
G1 X266.57 Y264.477 E.48832
M204 S10000
G1 X266.57 Y264.756 F30000
M204 S500
G1 F1800
G1 X245.244 Y243.43 E.49479
M204 S10000
G1 X244.965 Y243.43 F30000
M204 S500
G1 F1800
G1 X266.57 Y265.035 E.50126
M204 S10000
G1 X266.57 Y265.314 F30000
M204 S500
G1 F1800
G1 X244.686 Y243.43 E.50774
M204 S10000
G1 X244.407 Y243.43 F30000
M204 S500
G1 F1800
G1 X266.57 Y265.593 E.51421
M204 S10000
M73 P6 R15
G1 X266.57 Y265.872 F30000
M204 S500
G1 F1800
G1 X244.128 Y243.43 E.52068
M204 S10000
G1 X243.849 Y243.43 F30000
M204 S500
G1 F1800
G1 X266.57 Y266.151 E.52715
M204 S10000
G1 X266.57 Y266.43 F30000
M204 S500
G1 F1800
G1 X243.57 Y243.43 E.53363
M204 S10000
G1 X243.43 Y243.57 F30000
M204 S500
G1 F1800
G1 X266.43 Y266.57 E.53363
M204 S10000
G1 X266.151 Y266.57 F30000
M204 S500
G1 F1800
G1 X243.43 Y243.849 E.52715
M204 S10000
G1 X243.43 Y244.128 F30000
M204 S500
G1 F1800
G1 X265.872 Y266.57 E.52068
M204 S10000
G1 X265.593 Y266.57 F30000
M204 S500
G1 F1800
G1 X243.43 Y244.407 E.51421
M204 S10000
G1 X243.43 Y244.686 F30000
M204 S500
G1 F1800
G1 X265.314 Y266.57 E.50774
M204 S10000
G1 X265.035 Y266.57 F30000
M204 S500
G1 F1800
G1 X243.43 Y244.965 E.50126
M204 S10000
M73 P7 R15
G1 X243.43 Y245.244 F30000
M204 S500
G1 F1800
G1 X264.756 Y266.57 E.49479
M204 S10000
G1 X264.477 Y266.57 F30000
M204 S500
G1 F1800
G1 X243.43 Y245.523 E.48832
M204 S10000
G1 X243.43 Y245.802 F30000
M204 S500
G1 F1800
G1 X264.198 Y266.57 E.48184
M204 S10000
G1 X263.919 Y266.57 F30000
M204 S500
G1 F1800
G1 X243.43 Y246.081 E.47537
M204 S10000
G1 X243.43 Y246.36 F30000
M204 S500
G1 F1800
G1 X263.64 Y266.57 E.4689
M204 S10000
G1 X263.361 Y266.57 F30000
M204 S500
G1 F1800
G1 X243.43 Y246.639 E.46242
M204 S10000
G1 X243.43 Y246.918 F30000
M204 S500
G1 F1800
G1 X263.082 Y266.57 E.45595
M204 S10000
G1 X262.803 Y266.57 F30000
M204 S500
G1 F1800
G1 X243.43 Y247.197 E.44948
M204 S10000
G1 X243.43 Y247.476 F30000
M204 S500
G1 F1800
G1 X262.524 Y266.57 E.443
M204 S10000
G1 X262.245 Y266.57 F30000
M204 S500
G1 F1800
G1 X243.43 Y247.755 E.43653
M204 S10000
M73 P8 R15
G1 X243.43 Y248.034 F30000
M204 S500
G1 F1800
G1 X261.966 Y266.57 E.43006
M204 S10000
G1 X261.687 Y266.57 F30000
M204 S500
G1 F1800
G1 X243.43 Y248.313 E.42358
M204 S10000
G1 X243.43 Y248.592 F30000
M204 S500
G1 F1800
G1 X261.408 Y266.57 E.41711
M204 S10000
G1 X261.129 Y266.57 F30000
M204 S500
G1 F1800
G1 X243.43 Y248.871 E.41064
M204 S10000
G1 X243.43 Y249.15 F30000
M204 S500
G1 F1800
G1 X260.85 Y266.57 E.40416
M204 S10000
G1 X260.571 Y266.57 F30000
M204 S500
G1 F1800
G1 X243.43 Y249.429 E.39769
M204 S10000
G1 X243.43 Y249.708 F30000
M204 S500
G1 F1800
G1 X260.292 Y266.57 E.39122
M204 S10000
G1 X260.013 Y266.57 F30000
M204 S500
G1 F1800
G1 X243.43 Y249.987 E.38475
M204 S10000
G1 X243.43 Y250.266 F30000
M204 S500
G1 F1800
G1 X259.734 Y266.57 E.37827
M204 S10000
G1 X259.455 Y266.57 F30000
M204 S500
G1 F1800
G1 X243.43 Y250.545 E.3718
M204 S10000
G1 X243.43 Y250.824 F30000
M204 S500
G1 F1800
G1 X259.176 Y266.57 E.36533
M204 S10000
G1 X258.896 Y266.57 F30000
M204 S500
G1 F1800
G1 X243.43 Y251.104 E.35883
M204 S10000
M73 P9 R15
G1 X243.43 Y251.383 F30000
M204 S500
G1 F1800
G1 X258.617 Y266.57 E.35236
M204 S10000
G1 X258.338 Y266.57 F30000
M204 S500
G1 F1800
G1 X243.43 Y251.662 E.34588
M204 S10000
G1 X243.43 Y251.941 F30000
M204 S500
G1 F1800
G1 X258.059 Y266.57 E.33941
M204 S10000
G1 X257.78 Y266.57 F30000
M204 S500
G1 F1800
G1 X243.43 Y252.22 E.33294
M204 S10000
M73 P9 R14
G1 X243.43 Y252.499 F30000
M204 S500
G1 F1800
G1 X257.501 Y266.57 E.32646
M204 S10000
G1 X257.222 Y266.57 F30000
M204 S500
G1 F1800
G1 X243.43 Y252.778 E.31999
M204 S10000
G1 X243.43 Y253.057 F30000
M204 S500
G1 F1800
G1 X256.943 Y266.57 E.31352
M204 S10000
G1 X256.664 Y266.57 F30000
M204 S500
G1 F1800
G1 X243.43 Y253.336 E.30704
M204 S10000
G1 X243.43 Y253.615 F30000
M204 S500
G1 F1800
G1 X256.385 Y266.57 E.30057
M204 S10000
G1 X256.106 Y266.57 F30000
M204 S500
G1 F1800
G1 X243.43 Y253.894 E.2941
M204 S10000
G1 X243.43 Y254.173 F30000
M204 S500
G1 F1800
G1 X255.827 Y266.57 E.28763
M204 S10000
G1 X255.548 Y266.57 F30000
M204 S500
G1 F1800
G1 X243.43 Y254.452 E.28115
M204 S10000
G1 X243.43 Y254.731 F30000
M204 S500
G1 F1800
G1 X255.269 Y266.57 E.27468
M204 S10000
G1 X254.99 Y266.57 F30000
M204 S500
G1 F1800
G1 X243.43 Y255.01 E.26821
M204 S10000
G1 X243.43 Y255.289 F30000
M204 S500
G1 F1800
G1 X254.711 Y266.57 E.26173
M204 S10000
M73 P10 R14
G1 X254.432 Y266.57 F30000
M204 S500
G1 F1800
G1 X243.43 Y255.568 E.25526
M204 S10000
G1 X243.43 Y255.847 F30000
M204 S500
G1 F1800
G1 X254.153 Y266.57 E.24879
M204 S10000
G1 X253.874 Y266.57 F30000
M204 S500
G1 F1800
G1 X243.43 Y256.126 E.24231
M204 S10000
G1 X243.43 Y256.405 F30000
M204 S500
G1 F1800
G1 X253.595 Y266.57 E.23584
M204 S10000
G1 X253.316 Y266.57 F30000
M204 S500
G1 F1800
G1 X243.43 Y256.684 E.22937
M204 S10000
G1 X243.43 Y256.963 F30000
M204 S500
G1 F1800
G1 X253.037 Y266.57 E.22289
M204 S10000
G1 X252.758 Y266.57 F30000
M204 S500
G1 F1800
G1 X243.43 Y257.242 E.21642
M204 S10000
G1 X243.43 Y257.521 F30000
M204 S500
G1 F1800
G1 X252.479 Y266.57 E.20995
M204 S10000
G1 X252.2 Y266.57 F30000
M204 S500
G1 F1800
G1 X243.43 Y257.8 E.20347
M204 S10000
G1 X243.43 Y258.079 F30000
M204 S500
G1 F1800
G1 X251.921 Y266.57 E.197
M204 S10000
G1 X251.642 Y266.57 F30000
M204 S500
G1 F1800
G1 X243.43 Y258.358 E.19053
M204 S10000
G1 X243.43 Y258.637 F30000
M204 S500
G1 F1800
G1 X251.363 Y266.57 E.18406
M204 S10000
G1 X251.084 Y266.57 F30000
M204 S500
G1 F1800
G1 X243.43 Y258.916 E.17758
M204 S10000
G1 X243.43 Y259.195 F30000
M204 S500
G1 F1800
G1 X250.805 Y266.57 E.17111
M204 S10000
G1 X250.526 Y266.57 F30000
M204 S500
G1 F1800
G1 X243.43 Y259.474 E.16464
M204 S10000
G1 X243.43 Y259.753 F30000
M204 S500
G1 F1800
G1 X250.247 Y266.57 E.15816
M204 S10000
G1 X249.968 Y266.57 F30000
M204 S500
G1 F1800
G1 X243.43 Y260.032 E.15169
M204 S10000
G1 X243.43 Y260.311 F30000
M204 S500
G1 F1800
G1 X249.689 Y266.57 E.14522
M204 S10000
G1 X249.41 Y266.57 F30000
M204 S500
G1 F1800
G1 X243.43 Y260.59 E.13874
M204 S10000
G1 X243.43 Y260.869 F30000
M204 S500
G1 F1800
G1 X249.131 Y266.57 E.13227
M204 S10000
G1 X248.852 Y266.57 F30000
M204 S500
G1 F1800
G1 X243.43 Y261.148 E.1258
M204 S10000
G1 X243.43 Y261.428 F30000
M204 S500
G1 F1800
G1 X248.572 Y266.57 E.1193
M204 S10000
G1 X248.293 Y266.57 F30000
M204 S500
