; HEADER_BLOCK_START
; generated by OrcaSlicer 1.6.3 on 2023-07-09 at 17:11:14
; total layer number: 1
; HEADER_BLOCK_END

; THUMBNAIL_BLOCK_START
; THUMBNAIL_BLOCK_END

; external perimeters extrusion width = 0.40mm
; perimeters extrusion width = 0.45mm
; infill extrusion width = 0.45mm
; solid infill extrusion width = 0.40mm
; top infill extrusion width = 0.40mm
; first layer extrusion width = 0.50mm

; EXECUTABLE_BLOCK_START
EXCLUDE_OBJECT_DEFINE NAME=first_layer_calibration_test.stl_id_0_copy_0 CENTER=150,150 POLYGON=[[60,60],[240,60],[240,240],[60,240],[60,60]]
M73 P0 R9
;TYPE:Custom
M104 S0 ; Stops OrcaSlicer from sending temp waits separately
M140 S0
print_start EXTRUDER=220 BED=60 


;CHAMBER=0
G90
G21
M82 ; use absolute distances for extrusion
G92 E0
; filament start gcode
M106 S0
;LAYER_CHANGE
;Z:0.2
;HEIGHT:0.2
;BEFORE_LAYER_CHANGE
;0.2
G92 E0

G1 E-.8 F1800
G92 E0
G1 Z.4 F21000
;AFTER_LAYER_CHANGE
;0.2
M204 S500
; printing object first_layer_calibration_test.stl id:0 copy 0
EXCLUDE_OBJECT_START NAME=first_layer_calibration_test.stl_id_0_copy_0
G92 E0
G1 X158.852 Y69.151
G1 Z.2
G1 E.8 F1800
;TYPE:Inner wall
;WIDTH:0.499999
G1 F3000
G1 X158.869 Y69.294 E.80536
G1 X159.031 Y69.661 E.82031
G1 X159.298 Y69.94 E.83469
G1 X159.582 Y70.093 E.84669
G1 X159.979 Y70.164 E.8617
G1 X220.021 Y70.164 E3.09807
G1 X220.418 Y70.093 E3.11309
G1 X220.702 Y69.94 E3.12509
G1 X220.969 Y69.661 E3.13947
G1 X221.104 Y69.387 E3.15085
G1 X221.164 Y69.021 E3.16464
G1 X221.164 Y61.164 E3.4573
G1 X238.836 Y61.164 E4.1155
G1 X238.836 Y78.836 E4.7737
G1 X231.979 Y78.836 E5.02911
G1 X231.752 Y78.859 E5.03759
G1 X231.386 Y79.002 E5.05224
G1 X231.097 Y79.252 E5.06648
G1 X230.922 Y79.543 E5.07913
G1 X230.836 Y79.979 E5.09566
G1 X230.836 Y140.021 E7.33202
G1 X230.922 Y140.457 E7.34855
G1 X231.097 Y140.748 E7.3612
G1 X231.26 Y140.91 E7.36976
G1 X231.604 Y141.101 E7.38443
G1 X231.979 Y141.164 E7.39857
G1 X238.836 Y141.164 E7.65398
M73 P1 R9
G1 X238.836 Y158.836 E8.31218
G1 X231.979 Y158.836 E8.56759
G1 X231.752 Y158.859 E8.57607
G1 X231.386 Y159.002 E8.59072
G1 X231.097 Y159.252 E8.60496
G1 X230.922 Y159.543 E8.61761
G1 X230.836 Y159.979 E8.63414
G1 X230.836 Y220.021 E10.87051
G1 X230.922 Y220.457 E10.88703
G1 X231.097 Y220.748 E10.89968
G1 X231.26 Y220.91 E10.90824
G1 X231.604 Y221.101 E10.92291
G1 X231.979 Y221.164 E10.93705
G1 X238.836 Y221.164 E11.19246
G1 X238.836 Y228.021 E11.44787
G1 X238.836 Y238.836 E11.85066
G1 X221.164 Y238.836 E12.50887
G1 X221.164 Y230.979 E12.80152
G1 X221.131 Y230.706 E12.81174
G1 X220.969 Y230.339 E12.82669
G1 X220.702 Y230.06 E12.84107
G1 X220.418 Y229.907 E12.85307
G1 X220.021 Y229.836 E12.86808
G1 X159.979 Y229.836 E15.10445
G1 X159.582 Y229.907 E15.11947
G1 X159.298 Y230.06 E15.13147
G1 X159.129 Y230.214 E15.13998
G1 X158.912 Y230.567 E15.15542
G1 X158.836 Y230.979 E15.171
G1 X158.836 Y238.836 E15.46365
M73 P1 R8
G1 X141.164 Y238.836 E16.12186
G1 X141.164 Y230.979 E16.41451
M73 P2 R8
G1 X141.131 Y230.706 E16.42473
G1 X140.969 Y230.339 E16.43968
G1 X140.702 Y230.06 E16.45406
G1 X140.418 Y229.907 E16.46606
G1 X140.021 Y229.836 E16.48107
G1 X79.979 Y229.836 E18.71744
G1 X79.582 Y229.907 E18.73246
G1 X79.298 Y230.06 E18.74446
G1 X79.031 Y230.339 E18.75884
G1 X78.896 Y230.613 E18.77022
G1 X78.836 Y230.979 E18.78401
G1 X78.836 Y238.836 E19.07667
G1 X61.164 Y238.836 E19.73487
G1 X61.164 Y221.164 E20.39307
G1 X68.021 Y221.164 E20.64848
G1 X68.248 Y221.141 E20.65696
G1 X68.614 Y220.998 E20.67161
G1 X68.903 Y220.748 E20.68585
G1 X69.078 Y220.457 E20.6985
G1 X69.164 Y220.021 E20.71503
G1 X69.164 Y159.979 E22.95139
G1 X69.078 Y159.543 E22.96792
G1 X68.903 Y159.252 E22.98057
G1 X68.74 Y159.09 E22.98913
G1 X68.396 Y158.899 E23.0038
G1 X68.021 Y158.836 E23.01794
G1 X61.164 Y158.836 E23.27335
G1 X61.164 Y141.164 E23.93155
G1 X68.021 Y141.164 E24.18696
G1 X68.248 Y141.141 E24.19544
G1 X68.614 Y140.998 E24.21009
G1 X68.903 Y140.748 E24.22433
G1 X69.078 Y140.457 E24.23698
G1 X69.164 Y140.021 E24.25351
G1 X69.164 Y79.979 E26.48988
M73 P3 R8
G1 X69.078 Y79.543 E26.5064
G1 X68.903 Y79.252 E26.51905
G1 X68.74 Y79.09 E26.52761
G1 X68.396 Y78.899 E26.54228
G1 X68.021 Y78.836 E26.55642
G1 X61.164 Y78.836 E26.81183
G1 X61.164 Y61.164 E27.47003
G1 X78.836 Y61.164 E28.12824
G1 X78.836 Y69.021 E28.42089
G1 X78.869 Y69.294 E28.43111
G1 X79.031 Y69.661 E28.44606
G1 X79.298 Y69.94 E28.46044
G1 X79.582 Y70.093 E28.47244
G1 X79.979 Y70.164 E28.48745
G1 X140.021 Y70.164 E30.72382
G1 X140.418 Y70.093 E30.73884
G1 X140.702 Y69.94 E30.75084
G1 X140.871 Y69.786 E30.75935
G1 X141.088 Y69.433 E30.77479
G1 X141.164 Y69.021 E30.79037
G1 X141.164 Y61.164 E31.08302
G1 X158.836 Y61.164 E31.74123
G1 X158.836 Y69.021 E32.03388
G1 X158.841 Y69.062 E32.03539
G1 X159.302 Y69.089 F21000
G1 F3000
G1 X159.317 Y69.2 E32.03955
G1 X159.469 Y69.48 E32.05142
G1 X159.74 Y69.664 E32.06364
G1 X159.979 Y69.707 E32.07265
G1 X220.021 Y69.707 E34.30902
M73 P4 R8
G1 X220.26 Y69.664 E34.31803
G1 X220.531 Y69.48 E34.33025
G1 X220.647 Y69.303 E34.33813
G1 X220.707 Y69.021 E34.34885
G1 X220.707 Y60.707 E34.65853
G1 X239.293 Y60.707 E35.35078
G1 X239.293 Y79.293 E36.04303
G1 X231.979 Y79.293 E36.31547
G1 X231.831 Y79.309 E36.321
G1 X231.547 Y79.446 E36.33272
G1 X231.345 Y79.717 E36.34535
G1 X231.293 Y79.979 E36.35527
G1 X231.293 Y140.021 E38.59163
G1 X231.345 Y140.283 E38.60155
G1 X231.449 Y140.457 E38.60914
G1 X231.679 Y140.638 E38.62003
G1 X231.979 Y140.707 E38.63147
G1 X239.293 Y140.707 E38.90391
G1 X239.293 Y159.293 E39.59616
G1 X231.979 Y159.293 E39.86859
G1 X231.831 Y159.309 E39.87413
G1 X231.547 Y159.446 E39.88585
G1 X231.345 Y159.717 E39.89847
G1 X231.293 Y159.979 E39.90839
G1 X231.293 Y220.021 E42.14476
G1 X231.345 Y220.283 E42.15467
G1 X231.449 Y220.457 E42.16226
G1 X231.679 Y220.638 E42.17315
G1 X231.979 Y220.707 E42.1846
G1 X239.293 Y220.707 E42.45703
G1 X239.293 Y228.021 E42.72946
M73 P5 R8
G1 X239.293 Y239.293 E43.14928
G1 X220.707 Y239.293 E43.84153
G1 X220.707 Y230.979 E44.15121
G1 X220.683 Y230.8 E44.15792
G1 X220.531 Y230.52 E44.16979
G1 X220.26 Y230.336 E44.18202
G1 X220.021 Y230.293 E44.19103
G1 X159.979 Y230.293 E46.42739
G1 X159.74 Y230.336 E46.43641
G1 X159.469 Y230.52 E46.44863
G1 X159.353 Y230.697 E46.45651
G1 X159.293 Y230.979 E46.46723
G1 X159.293 Y239.293 E46.77691
G1 X140.707 Y239.293 E47.46916
G1 X140.707 Y230.979 E47.77884
G1 X140.683 Y230.8 E47.78555
G1 X140.531 Y230.52 E47.79742
G1 X140.26 Y230.336 E47.80964
G1 X140.021 Y230.293 E47.81865
G1 X79.979 Y230.293 E50.05502
G1 X79.74 Y230.336 E50.06403
G1 X79.469 Y230.52 E50.07625
G1 X79.353 Y230.697 E50.08414
G1 X79.293 Y230.979 E50.09485
G1 X79.293 Y239.293 E50.40453
G1 X60.707 Y239.293 E51.09678
G1 X60.707 Y220.707 E51.78904
M73 P6 R8
G1 X68.021 Y220.707 E52.06147
G1 X68.169 Y220.691 E52.067
G1 X68.453 Y220.554 E52.07872
G1 X68.655 Y220.283 E52.09135
G1 X68.707 Y220.021 E52.10127
G1 X68.707 Y159.979 E54.33764
G1 X68.655 Y159.717 E54.34755
G1 X68.551 Y159.543 E54.35514
G1 X68.321 Y159.362 E54.36603
G1 X68.021 Y159.293 E54.37748
G1 X60.707 Y159.293 E54.64991
G1 X60.707 Y140.707 E55.34216
G1 X68.021 Y140.707 E55.61459
G1 X68.169 Y140.691 E55.62013
G1 X68.453 Y140.554 E55.63185
G1 X68.655 Y140.283 E55.64448
G1 X68.707 Y140.021 E55.65439
G1 X68.707 Y79.979 E57.89076
G1 X68.655 Y79.717 E57.90068
G1 X68.551 Y79.543 E57.90827
G1 X68.321 Y79.362 E57.91915
G1 X68.021 Y79.293 E57.9306
G1 X60.707 Y79.293 E58.20303
G1 X60.707 Y60.707 E58.89528
G1 X79.293 Y60.707 E59.58753
G1 X79.293 Y69.021 E59.89721
G1 X79.317 Y69.2 E59.90393
G1 X79.469 Y69.48 E59.9158
G1 X79.74 Y69.664 E59.92802
G1 X79.979 Y69.707 E59.93703
G1 X140.021 Y69.707 E62.1734
M73 P7 R8
G1 X140.26 Y69.664 E62.18241
G1 X140.531 Y69.48 E62.19463
G1 X140.647 Y69.303 E62.20251
G1 X140.707 Y69.021 E62.21323
G1 X140.707 Y60.707 E62.52291
G1 X159.293 Y60.707 E63.21516
G1 X159.293 Y69 E63.52404
G1 X159.75 Y69.021 F21000
;TYPE:Outer wall
G1 F3000
G1 X159.809 Y69.174 E63.53014
G1 X159.979 Y69.25 E63.53707
G1 X220.021 Y69.25 E65.77343
G1 X220.191 Y69.174 E65.78036
G1 X220.25 Y69.021 E65.78646
G1 X220.25 Y60.25 E66.11316
G1 X239.75 Y60.25 E66.83946
G1 X239.75 Y79.75 E67.56576
G1 X231.979 Y79.75 E67.85522
G1 X231.802 Y79.833 E67.86248
G1 X231.75 Y79.979 E67.86823
G1 X231.751 Y140.041 E70.10534
M73 P8 R8
G1 X231.835 Y140.199 E70.112
G1 X231.979 Y140.25 E70.11768
G1 X239.75 Y140.25 E70.40713
G1 X239.75 Y159.75 E71.13343
G1 X231.979 Y159.75 E71.42289
G1 X231.802 Y159.833 E71.43016
G1 X231.75 Y159.979 E71.43591
G1 X231.751 Y220.041 E73.67302
G1 X231.835 Y220.199 E73.67967
G1 X231.979 Y220.25 E73.68535
G1 X239.75 Y220.25 E73.97481
G1 X239.75 Y228.021 E74.26426
G1 X239.75 Y239.75 E74.70111
G1 X220.25 Y239.75 E75.42741
G1 X220.25 Y230.979 E75.75411
G1 X220.191 Y230.826 E75.76021
G1 X220.021 Y230.75 E75.76714
G1 X159.979 Y230.75 E78.0035
G1 X159.809 Y230.826 E78.01043
G1 X159.75 Y230.979 E78.01653
G1 X159.75 Y239.75 E78.34323
M73 P9 R8
G1 X140.25 Y239.75 E79.06953
G1 X140.25 Y230.979 E79.39623
G1 X140.191 Y230.826 E79.40233
G1 X140.021 Y230.75 E79.40926
G1 X79.979 Y230.75 E81.64563
G1 X79.809 Y230.826 E81.65255
G1 X79.75 Y230.979 E81.65865
G1 X79.75 Y239.75 E81.98536
G1 X60.25 Y239.75 E82.71166
G1 X60.25 Y220.25 E83.43796
G1 X68.021 Y220.25 E83.72741
G1 X68.198 Y220.167 E83.73468
G1 X68.25 Y220.021 E83.74043
G1 X68.25 Y159.979 E85.9768
G1 X68.233 Y159.891 E85.9801
G1 X68.165 Y159.801 E85.98431
G1 X68.021 Y159.75 E85.98999
G1 X60.25 Y159.75 E86.27945
G1 X60.25 Y140.25 E87.00575
G1 X68.021 Y140.25 E87.2952
M73 P10 R8
G1 X68.198 Y140.167 E87.30247
G1 X68.25 Y140.021 E87.30822
G1 X68.25 Y79.979 E89.54459
G1 X68.233 Y79.891 E89.54789
G1 X68.165 Y79.801 E89.5521
G1 X68.021 Y79.75 E89.55778
G1 X60.25 Y79.75 E89.84724
G1 X60.25 Y60.25 E90.57354
G1 X79.75 Y60.25 E91.29984
G1 X79.75 Y69.021 E91.62654
G1 X79.809 Y69.174 E91.63264
G1 X79.979 Y69.25 E91.63957
G1 X140.021 Y69.25 E93.87593
G1 X140.191 Y69.174 E93.88286
G1 X140.25 Y69.021 E93.88896
G1 X140.25 Y60.25 E94.21566
G1 X159.75 Y60.25 E94.94196
G1 X159.75 Y68.931 E95.26531
G1 X159.737 Y69.051
G1 E94.70531 F1800
;WIPE_START
G1 F3000
G1 X159.809 Y69.174 E94.67683
G1 X159.979 Y69.25 E94.65563
G1 X161.543 Y69.25 E94.47731
;WIPE_END
G1 E94.46531 F1800
G92 E0
G1 Z.6 F21000
G1 X228.153 Y221.144 Z.2
M73 P11 R8
G1 E.8 F1800
;TYPE:Inner wall
G1 F3000
G1 X227.021 Y221.164 E.84216
G1 X223.287 Y221.164 E.98125
G1 X222.915 Y221.102 E.9953
G1 X222.703 Y221.004 E1.004
G1 X222.011 Y220.361 E1.03917
G1 X159.171 Y157.521 E4.34923
G1 X158.996 Y157.297 E4.3598
G1 X158.898 Y157.085 E4.36851
G1 X158.836 Y156.713 E4.38255
G1 X158.836 Y151.979 E4.55889
G1 X158.897 Y151.611 E4.57277
G1 X159.083 Y151.268 E4.58729
G1 X159.243 Y151.104 E4.59585
G1 X159.536 Y150.925 E4.60861
G1 X159.979 Y150.836 E4.62544
G1 X220.021 Y150.836 E6.8618
G1 X220.46 Y150.924 E6.87848
G1 X220.752 Y151.1 E6.89119
G1 X221.001 Y151.39 E6.90541
G1 X221.144 Y151.764 E6.92032
G1 X221.164 Y151.979 E6.92835
G1 X221.164 Y158.836 E7.18375
G1 X228.021 Y158.836 E7.43916
G1 X228.268 Y158.863 E7.44839
G1 X228.614 Y159.002 E7.4623
G1 X228.903 Y159.252 E7.47654
G1 X229.078 Y159.543 E7.48919
G1 X229.164 Y159.979 E7.50572
G1 X229.164 Y220.021 E9.74208
M73 P12 R8
G1 X229.078 Y220.457 E9.75861
G1 X228.903 Y220.748 E9.77126
G1 X228.614 Y220.998 E9.7855
G1 X228.244 Y221.142 E9.80032
G1 X228.243 Y221.142 E9.80033
G1 X228.096 Y220.692 F21000
G1 F3000
G1 X227.021 Y220.707 E9.84035
G1 X223.287 Y220.707 E9.97944
G1 X222.937 Y220.611 E9.99298
G1 X222.334 Y220.038 E10.02393
G1 X159.494 Y157.198 E13.334
G1 X159.33 Y156.936 E13.34549
G1 X159.293 Y156.713 E13.35391
G1 X159.293 Y151.979 E13.53025
G1 X159.359 Y151.684 E13.5415
G1 X159.537 Y151.454 E13.55234
G1 X159.713 Y151.346 E13.56
G1 X159.979 Y151.293 E13.57009
G1 X220.021 Y151.293 E15.80646
G1 X220.285 Y151.346 E15.81646
G1 X220.557 Y151.55 E15.82913
G1 X220.691 Y151.832 E15.84078
G1 X220.707 Y151.979 E15.84626
G1 X220.707 Y159.293 E16.11869
M73 P12 R7
G1 X228.021 Y159.293 E16.39112
G1 X228.169 Y159.309 E16.39666
G1 X228.453 Y159.446 E16.40838
G1 X228.655 Y159.717 E16.42101
G1 X228.707 Y159.979 E16.43093
G1 X228.707 Y220.021 E18.66729
M73 P13 R7
G1 X228.655 Y220.283 E18.67721
G1 X228.453 Y220.554 E18.68984
G1 X228.184 Y220.684 E18.70093
G1 X228.042 Y220.249 F21000
;TYPE:Outer wall
G1 F3000
G1 X223.287 Y220.25 E18.87802
G1 X223.126 Y220.183 E18.88454
G1 X159.817 Y156.874 E22.21925
G1 X159.75 Y156.713 E22.22577
G1 X159.75 Y151.979 E22.4021
G1 X159.799 Y151.837 E22.4077
G1 X159.979 Y151.75 E22.41511
G1 X220.021 Y151.75 E24.65148
G1 X220.168 Y151.803 E24.65727
G1 X220.25 Y151.966 E24.66406
G1 X220.25 Y159.75 E24.95399
G1 X228.071 Y159.755 E25.24529
G1 X228.198 Y159.833 E25.25084
G1 X228.25 Y159.979 E25.25659
G1 X228.25 Y220.021 E27.49296
M73 P14 R7
G1 X228.198 Y220.167 E27.49871
G1 X228.121 Y220.207 E27.50193
G1 X228.012 Y220.365
G1 E26.94193 F1800
;WIPE_START
G1 F3000
G1 X226.121 Y220.225 E26.71393
;WIPE_END
G1 E26.70193 F1800
G92 E0
G1 Z.6 F21000
G1 X228.157 Y141.151 Z.2
G1 E.8 F1800
;TYPE:Inner wall
G1 F3000
G1 X228.021 Y141.164 E.80507
G1 X221.164 Y141.164 E1.06048
G1 X221.164 Y148.021 E1.31588
G1 X221.102 Y148.392 E1.32989
G1 X220.913 Y148.736 E1.34449
G1 X220.752 Y148.9 E1.35305
G1 X220.46 Y149.076 E1.36576
G1 X220.021 Y149.164 E1.38243
G1 X159.979 Y149.164 E3.6188
G1 X159.536 Y149.075 E3.63562
G1 X159.243 Y148.896 E3.64839
G1 X159.083 Y148.732 E3.65694
G1 X158.897 Y148.389 E3.67146
G1 X158.836 Y148.021 E3.68535
G1 X158.836 Y142.819 E3.87911
G1 X158.894 Y142.458 E3.89275
G1 X159.171 Y142.011 E3.91231
G1 X222.011 Y79.171 E7.22237
G1 X222.458 Y78.894 E7.24193
G1 X222.819 Y78.836 E7.25556
G1 X228.021 Y78.836 E7.44933
G1 X228.396 Y78.899 E7.46347
G1 X228.74 Y79.09 E7.47815
G1 X228.903 Y79.252 E7.4867
G1 X229.078 Y79.543 E7.49935
G1 X229.164 Y79.979 E7.51588
G1 X229.164 Y140.021 E9.75225
M73 P15 R7
G1 X229.078 Y140.457 E9.76877
G1 X228.903 Y140.748 E9.78142
G1 X228.614 Y140.998 E9.79567
G1 X228.246 Y141.14 E9.81037
G1 X228.093 Y140.699 F21000
G1 F3000
G1 X228.021 Y140.707 E9.81304
G1 X220.707 Y140.707 E10.08547
G1 X220.707 Y148.021 E10.3579
G1 X220.639 Y148.318 E10.36925
G1 X220.46 Y148.548 E10.38011
G1 X220.285 Y148.654 E10.38774
G1 X220.021 Y148.707 E10.39774
G1 X159.979 Y148.707 E12.63411
G1 X159.713 Y148.654 E12.6442
G1 X159.441 Y148.448 E12.6569
G1 X159.306 Y148.155 E12.66891
G1 X159.293 Y148.021 E12.6739
G1 X159.293 Y142.819 E12.86767
G1 X159.328 Y142.602 E12.87585
G1 X159.494 Y142.334 E12.88758
G1 X222.334 Y79.494 E16.19765
G1 X222.602 Y79.328 E16.20938
G1 X222.819 Y79.293 E16.21756
G1 X228.021 Y79.293 E16.41133
G1 X228.321 Y79.362 E16.42277
G1 X228.551 Y79.543 E16.43366
G1 X228.655 Y79.717 E16.44125
G1 X228.707 Y79.979 E16.45117
G1 X228.707 Y140.021 E18.68754
M73 P16 R7
G1 X228.655 Y140.283 E18.69745
G1 X228.453 Y140.554 E18.71008
G1 X228.181 Y140.685 E18.72132
G1 X228.021 Y140.25 F21000
;TYPE:Outer wall
G1 F3000
G1 X220.25 Y140.25 E19.01077
G1 X220.25 Y148.021 E19.30023
G1 X220.2 Y148.164 E19.30587
G1 X220.109 Y148.232 E19.31009
G1 X220.021 Y148.25 E19.31343
G1 X159.979 Y148.25 E21.54979
G1 X159.831 Y148.196 E21.55562
G1 X159.799 Y148.163 E21.55733
G1 X159.75 Y148.021 E21.56294
G1 X159.75 Y142.819 E21.7567
G1 X159.817 Y142.658 E21.76322
G1 X222.658 Y79.817 E25.07328
G1 X222.819 Y79.75 E25.0798
G1 X228.021 Y79.75 E25.27356
G1 X228.165 Y79.801 E25.27924
G1 X228.233 Y79.891 E25.28345
G1 X228.25 Y79.979 E25.28676
G1 X228.25 Y140.021 E27.52313
M73 P17 R7
G1 X228.198 Y140.167 E27.52888
G1 X228.103 Y140.212 E27.53279
G1 X227.99 Y140.366
G1 E26.97279 F1800
;WIPE_START
G1 F3000
G1 X226.103 Y140.221 E26.74479
;WIPE_END
G1 E26.73279 F1800
G92 E0
G1 Z.6 F21000
G1 X221.134 Y227.186 Z.2
G1 E.8 F1800
;TYPE:Inner wall
G1 F3000
G1 X221.088 Y227.433 E.80936
G1 X220.871 Y227.786 E.82479
G1 X220.702 Y227.94 E.83331
G1 X220.418 Y228.093 E.84531
G1 X220.021 Y228.164 E.86033
G1 X159.979 Y228.164 E3.09669
G1 X159.582 Y228.093 E3.11171
G1 X159.298 Y227.94 E3.12371
G1 X159.031 Y227.661 E3.13809
G1 X158.869 Y227.294 E3.15304
G1 X158.836 Y227.021 E3.16326
G1 X158.836 Y221.164 E3.38142
G1 X151.979 Y221.164 E3.63683
G1 X151.606 Y221.102 E3.65089
