; HEADER_BLOCK_START
; generated by OrcaSlicer 1.6.3 on 2023-07-18 at 04:14:46
; total layer number: 7
; HEADER_BLOCK_END

; THUMBNAIL_BLOCK_START
; THUMBNAIL_BLOCK_END

; external perimeters extrusion width = 0.40mm
; perimeters extrusion width = 0.45mm
; infill extrusion width = 0.45mm
; solid infill extrusion width = 0.48mm
; top infill extrusion width = 0.48mm
; first layer extrusion width = 0.50mm

; external perimeters extrusion width = 0.40mm
; perimeters extrusion width = 0.45mm
; infill extrusion width = 0.45mm
; solid infill extrusion width = 0.48mm
; top infill extrusion width = 0.48mm
; first layer extrusion width = 0.50mm

; external perimeters extrusion width = 0.40mm
; perimeters extrusion width = 0.45mm
; infill extrusion width = 0.45mm
; solid infill extrusion width = 0.48mm
; top infill extrusion width = 0.48mm
; first layer extrusion width = 0.50mm

; external perimeters extrusion width = 0.40mm
; perimeters extrusion width = 0.45mm
; infill extrusion width = 0.45mm
; solid infill extrusion width = 0.48mm
; top infill extrusion width = 0.48mm
; first layer extrusion width = 0.50mm

; external perimeters extrusion width = 0.40mm
; perimeters extrusion width = 0.45mm
; infill extrusion width = 0.45mm
; solid infill extrusion width = 0.48mm
; top infill extrusion width = 0.48mm
; first layer extrusion width = 0.50mm

; external perimeters extrusion width = 0.40mm
; perimeters extrusion width = 0.45mm
; infill extrusion width = 0.45mm
; solid infill extrusion width = 0.48mm
; top infill extrusion width = 0.48mm
; first layer extrusion width = 0.50mm

; external perimeters extrusion width = 0.40mm
; perimeters extrusion width = 0.45mm
; infill extrusion width = 0.45mm
; solid infill extrusion width = 0.48mm
; top infill extrusion width = 0.48mm
; first layer extrusion width = 0.50mm

; external perimeters extrusion width = 0.40mm
; perimeters extrusion width = 0.45mm
; infill extrusion width = 0.45mm
; solid infill extrusion width = 0.48mm
; top infill extrusion width = 0.48mm
; first layer extrusion width = 0.50mm

; external perimeters extrusion width = 0.40mm
; perimeters extrusion width = 0.45mm
; infill extrusion width = 0.45mm
; solid infill extrusion width = 0.48mm
; top infill extrusion width = 0.48mm
; first layer extrusion width = 0.50mm

; external perimeters extrusion width = 0.40mm
; perimeters extrusion width = 0.45mm
; infill extrusion width = 0.45mm
; solid infill extrusion width = 0.48mm
; top infill extrusion width = 0.48mm
; first layer extrusion width = 0.50mm

; EXECUTABLE_BLOCK_START
EXCLUDE_OBJECT_DEFINE NAME=flowrate_0_id_0_copy_0 CENTER=150,198 POLYGON=[[130,183],[170,183],[170,203],[160,213],[140,213],[130,203],[130,183]]
EXCLUDE_OBJECT_DEFINE NAME=flowrate_m1_id_1_copy_0 CENTER=108,166 POLYGON=[[88,151],[128,151],[128,171],[118,181],[98,181],[88,171],[88,151]]
EXCLUDE_OBJECT_DEFINE NAME=flowrate_m2_id_2_copy_0 CENTER=150,166 POLYGON=[[130,151],[170,151],[170,171],[160,181],[140,181],[130,171],[130,151]]
EXCLUDE_OBJECT_DEFINE NAME=flowrate_m3_id_3_copy_0 CENTER=192,166 POLYGON=[[172,151],[212,151],[212,171],[202,181],[182,181],[172,171],[172,151]]
EXCLUDE_OBJECT_DEFINE NAME=flowrate_m4_id_4_copy_0 CENTER=108,134 POLYGON=[[88,119],[128,119],[128,139],[118,149],[98,149],[88,139],[88,119]]
EXCLUDE_OBJECT_DEFINE NAME=flowrate_m5_id_5_copy_0 CENTER=150,134 POLYGON=[[130,119],[170,119],[170,139],[160,149],[140,149],[130,139],[130,119]]
EXCLUDE_OBJECT_DEFINE NAME=flowrate_m6_id_6_copy_0 CENTER=192,134 POLYGON=[[172,119],[212,119],[212,139],[202,149],[182,149],[172,139],[172,119]]
EXCLUDE_OBJECT_DEFINE NAME=flowrate_m7_id_7_copy_0 CENTER=192,102 POLYGON=[[172,87],[212,87],[212,107],[202,117],[182,117],[172,107],[172,87]]
EXCLUDE_OBJECT_DEFINE NAME=flowrate_m8_id_8_copy_0 CENTER=150,102 POLYGON=[[130,87],[170,87],[170,107],[160,117],[140,117],[130,107],[130,87]]
EXCLUDE_OBJECT_DEFINE NAME=flowrate_m9_id_9_copy_0 CENTER=108,102 POLYGON=[[88,87],[128,87],[128,107],[118,117],[98,117],[88,107],[88,87]]
M73 P0 R34
;TYPE:Custom
M104 S0 ; Stops OrcaSlicer from sending temp waits separately
M140 S0
print_start EXTRUDER=220 BED=60 


;CHAMBER=0
G90
G21
M83 ; use relative distances for extrusion
; filament start gcode
M106 S0
;LAYER_CHANGE
;Z:0.2
;HEIGHT:0.2
;BEFORE_LAYER_CHANGE
;0.2
G92 E0

G1 E-.8 F1800
G1 Z.4 F27000
;AFTER_LAYER_CHANGE
;0.2
M204 S2000
; printing object flowrate_m3 id:3 copy 0
EXCLUDE_OBJECT_START NAME=flowrate_m3_id_3_copy_0
G1 X183.141 Y170.835
G1 Z.2
G1 E.8 F1800
;TYPE:Inner wall
;WIDTH:0.499999
G1 X183.116 Y170.65 E.00689
G1 X182.969 Y170.339 E.01269
G1 X182.707 Y170.064 E.01399
G1 X182.392 Y169.898 E.01314
G1 X182.021 Y169.836 E.01385
G1 X173.164 Y169.836 E.32653
G1 X173.164 Y152.164 E.65149
G1 X210.836 Y152.164 E1.38881
G1 X210.836 Y161 E.32574
G1 X210.836 Y169.836 E.32574
G1 X202 Y169.836 E.32574
G1 X201.789 Y169.852 E.00779
G1 X201.441 Y169.97 E.01358
G1 X201.113 Y170.233 E.01548
G1 X200.909 Y170.577 E.01477
G1 X200.836 Y170.979 E.01503
G1 X200.836 Y179.836 E.32653
G1 X183.164 Y179.836 E.65149
G1 X183.164 Y171 E.32574
G1 X183.15 Y170.895 E.00392
G1 X182.695 Y170.909 F27000
G1 F1800
G1 X182.678 Y170.782 E.00472
G1 X182.541 Y170.531 E.01053
G1 X182.295 Y170.35 E.01125
G1 X182.021 Y170.293 E.01031
G1 X172.707 Y170.293 E.34338
G1 X172.707 Y151.707 E.68519
G1 X211.293 Y151.707 E1.42251
G1 X211.293 Y161 E.34259
G1 X211.293 Y170.293 E.34259
G1 X202 Y170.293 E.34259
G1 X201.81 Y170.314 E.00706
G1 X201.528 Y170.462 E.01174
G1 X201.353 Y170.697 E.0108
G1 X201.293 Y170.979 E.01061
G1 X201.293 Y180.293 E.34338
G1 X182.707 Y180.293 E.68519
G1 X182.707 Y171 E.34259
G1 X182.703 Y170.968 E.00119
G1 X182.25 Y170.979 F27000
;TYPE:Outer wall
G1 F1800
G1 X182.184 Y170.818 E.00642
G1 X182.021 Y170.75 E.00648
G1 X172.25 Y170.75 E.36024
G1 X172.25 Y151.25 E.71889
G1 X211.75 Y151.25 E1.45621
G1 X211.75 Y161 E.35944
G1 X211.75 Y170.75 E.35944
G1 X201.979 Y170.75 E.36024
G1 X201.816 Y170.818 E.00648
G1 X201.75 Y170.979 E.00642
G1 X201.75 Y180.75 E.36024
G1 X182.25 Y180.75 E.71889
G1 X182.25 Y171.039 E.35802
G1 X182.264 Y170.947
G1 E-.8
G1 Z.6 F27000
G1 X210.699 Y153.236
G1 Z.2
G1 E.8 F1800
;TYPE:Bottom surface
;WIDTH:0.504949
G1 F3600
G1 X209.97 Y152.507 E.03841
G1 X209.317 Y152.507 E.02435
G1 X210.493 Y153.683 E.062
G1 X210.493 Y154.337 E.02435
G1 X208.663 Y152.507 E.09644
G1 X208.01 Y152.507 E.02435
G1 X210.493 Y154.99 E.13087
G1 X210.493 Y155.644 E.02435
G1 X207.356 Y152.507 E.16531
G1 X206.703 Y152.507 E.02435
G1 X210.493 Y156.297 E.19974
G1 X210.493 Y156.951 E.02435
G1 X206.049 Y152.507 E.23418
G1 X205.396 Y152.507 E.02435
G1 X210.493 Y157.604 E.26862
G1 X210.493 Y158.257 E.02435
G1 X204.743 Y152.507 E.30305
G1 X204.089 Y152.507 E.02435
G1 X210.493 Y158.911 E.33749
G1 X210.493 Y159.564 E.02435
G1 X203.436 Y152.507 E.37192
G1 X202.782 Y152.507 E.02435
G1 X210.493 Y160.218 E.40636
G1 X210.493 Y160.871 E.02435
G1 X202.129 Y152.507 E.44079
G1 X201.476 Y152.507 E.02435
G1 X210.493 Y161.524 E.47523
G1 X210.493 Y162.178 E.02435
G1 X200.822 Y152.507 E.50966
G1 X200.169 Y152.507 E.02435
G1 X210.493 Y162.831 E.5441
G1 X210.493 Y163.485 E.02435
G1 X199.515 Y152.507 E.57853
G1 X198.862 Y152.507 E.02435
G1 X210.493 Y164.138 E.61297
G1 X210.493 Y164.791 E.02435
G1 X198.209 Y152.507 E.6474
G1 X197.555 Y152.507 E.02435
G1 X210.493 Y165.445 E.68184
G1 X210.493 Y166.098 E.02435
G1 X196.902 Y152.507 E.71627
G1 X196.248 Y152.507 E.02435
G1 X210.493 Y166.752 E.75071
G1 X210.493 Y167.405 E.02435
G1 X195.595 Y152.507 E.78515
G1 X194.942 Y152.507 E.02435
G1 X210.493 Y168.058 E.81958
G1 X210.493 Y168.712 E.02435
G1 X194.288 Y152.507 E.85402
M73 P1 R34
G1 X193.635 Y152.507 E.02435
G1 X210.493 Y169.365 E.88845
G1 X210.493 Y169.493 E.00476
G1 X209.968 Y169.493 E.01957
G1 X192.981 Y152.507 E.8952
G1 X192.328 Y152.507 E.02435
G1 X209.315 Y169.494 E.89522
G1 X208.662 Y169.494 E.02434
G1 X191.675 Y152.507 E.89524
G1 X191.021 Y152.507 E.02435
G1 X208.009 Y169.494 E.89526
G1 X207.356 Y169.495 E.02434
G1 X190.368 Y152.507 E.89528
G1 X189.714 Y152.507 E.02435
G1 X206.703 Y169.495 E.8953
G1 X206.049 Y169.496 E.02434
G1 X189.061 Y152.507 E.89532
G1 X188.407 Y152.507 E.02435
G1 X205.396 Y169.496 E.89534
G1 X204.743 Y169.496 E.02434
G1 X187.754 Y152.507 E.89535
G1 X187.101 Y152.507 E.02435
G1 X204.09 Y169.497 E.89537
G1 X203.437 Y169.497 E.02434
G1 X186.447 Y152.507 E.89539
G1 X185.794 Y152.507 E.02435
G1 X202.784 Y169.497 E.89541
G1 X202.131 Y169.498 E.02434
G1 X185.14 Y152.507 E.89543
G1 X184.487 Y152.507 E.02435
G1 X201.543 Y169.562 E.89884
G1 X201.385 Y169.616 E.00619
G1 X201.178 Y169.727 E.00875
G1 X201.109 Y169.782 E.00331
G1 X183.834 Y152.507 E.91043
G1 X183.18 Y152.507 E.02435
G1 X200.78 Y170.107 E.92753
G1 X200.623 Y170.37 E.01141
G1 X200.565 Y170.545 E.00688
G1 X182.527 Y152.507 E.95061
G1 X181.873 Y152.507 E.02435
G1 X200.497 Y171.13 E.98147
G1 X200.496 Y171.783 E.02434
G1 X181.22 Y152.507 E1.01589
G1 X180.567 Y152.507 E.02435
G1 X200.496 Y172.437 E1.05031
G1 X200.496 Y173.09 E.02434
G1 X179.913 Y152.507 E1.08473
G1 X179.26 Y152.507 E.02435
G1 X200.496 Y173.743 E1.11915
G1 X200.495 Y174.396 E.02434
G1 X178.606 Y152.507 E1.15357
M73 P1 R33
G1 X177.953 Y152.507 E.02435
G1 X200.495 Y175.049 E1.18799
G1 X200.495 Y175.702 E.02434
G1 X177.3 Y152.507 E1.22241
G1 X176.646 Y152.507 E.02435
G1 X200.494 Y176.355 E1.25683
G1 X200.494 Y177.008 E.02434
G1 X175.993 Y152.507 E1.29125
G1 X175.339 Y152.507 E.02435
G1 X200.494 Y177.662 E1.32567
G1 X200.494 Y178.315 E.02434
G1 X174.686 Y152.507 E1.36009
G1 X174.033 Y152.507 E.02435
G1 X200.493 Y178.968 E1.39451
G1 X200.493 Y179.493 E.01957
G1 X200.365 Y179.493 E.00477
G1 X173.507 Y152.635 E1.41546
G1 X173.507 Y153.288 E.02435
G1 X199.712 Y179.493 E1.38102
G1 X199.058 Y179.493 E.02435
G1 X173.507 Y153.942 E1.34659
G1 X173.507 Y154.595 E.02435
G1 X198.405 Y179.493 E1.31215
G1 X197.752 Y179.493 E.02435
G1 X173.507 Y155.248 E1.27772
G1 X173.507 Y155.902 E.02435
G1 X197.098 Y179.493 E1.24328
G1 X196.445 Y179.493 E.02435
G1 X173.507 Y156.555 E1.20885
G1 X173.507 Y157.209 E.02435
G1 X195.791 Y179.493 E1.17441
M73 P2 R33
G1 X195.138 Y179.493 E.02435
G1 X173.507 Y157.862 E1.13998
G1 X173.507 Y158.515 E.02435
G1 X194.485 Y179.493 E1.10554
G1 X193.831 Y179.493 E.02435
G1 X173.507 Y159.169 E1.07111
G1 X173.507 Y159.822 E.02435
G1 X193.178 Y179.493 E1.03667
G1 X192.524 Y179.493 E.02435
G1 X173.507 Y160.476 E1.00224
G1 X173.507 Y161.129 E.02435
G1 X181.876 Y169.498 E.44103
G1 X181.222 Y169.497 E.02436
G1 X173.507 Y161.783 E.40658
G1 X173.507 Y162.436 E.02435
G1 X180.568 Y169.497 E.37212
G1 X179.914 Y169.497 E.02436
G1 X173.507 Y163.089 E.33767
G1 X173.507 Y163.743 E.02435
G1 X179.26 Y169.496 E.30322
G1 X178.607 Y169.496 E.02436
G1 X173.507 Y164.396 E.26876
G1 X173.507 Y165.05 E.02435
G1 X177.953 Y169.496 E.23431
G1 X177.299 Y169.495 E.02436
G1 X173.507 Y165.703 E.19985
G1 X173.507 Y166.356 E.02435
G1 X176.645 Y169.495 E.1654
G1 X175.992 Y169.494 E.02436
G1 X173.507 Y167.01 E.13095
G1 X173.507 Y167.663 E.02435
G1 X175.338 Y169.494 E.09649
G1 X174.684 Y169.494 E.02436
G1 X173.507 Y168.317 E.06204
G1 X173.507 Y168.97 E.02435
G1 X174.236 Y169.699 E.03843
G1 E-.8 F1800
G1 Z.6 F27000
G1 X183.297 Y170.92
G1 Z.2
G1 E.8 F1800
G1 F3600
G1 X191.871 Y179.493 E.45183
G1 X191.217 Y179.493 E.02435
G1 X183.504 Y171.779 E.40654
G1 X183.504 Y172.433 E.02436
G1 X190.564 Y179.493 E.37208
G1 X189.911 Y179.493 E.02435
G1 X183.504 Y173.086 E.33763
G1 X183.504 Y173.74 E.02436
G1 X189.257 Y179.493 E.30318
G1 X188.604 Y179.493 E.02435
G1 X183.505 Y174.394 E.26873
G1 X183.505 Y175.048 E.02436
G1 X187.95 Y179.493 E.23428
G1 X187.297 Y179.493 E.02435
G1 X183.505 Y175.701 E.19983
G1 X183.506 Y176.355 E.02436
G1 X186.644 Y179.493 E.16538
G1 X185.99 Y179.493 E.02435
G1 X183.506 Y177.009 E.13093
G1 X183.506 Y177.662 E.02436
G1 X185.337 Y179.493 E.09648
G1 X184.683 Y179.493 E.02435
G1 X183.506 Y178.316 E.06203
G1 X183.507 Y178.97 E.02436
G1 X184.236 Y179.699 E.03842
; stop printing object flowrate_m3 id:3 copy 0
EXCLUDE_OBJECT_END NAME=flowrate_m3_id_3_copy_0
; printing object flowrate_m6 id:6 copy 0
EXCLUDE_OBJECT_START NAME=flowrate_m6_id_6_copy_0
G1 E-.56 F1800
;WIPE_START
G1 F3600
G1 X183.507 Y178.97 E-.11753
G1 X183.506 Y178.316 E-.07452
G1 X183.729 Y178.539 E-.03595
;WIPE_END
G1 E-.012 F1800
G1 Z.6 F27000
G1 X183.141 Y138.835
G1 Z.2
G1 E.8 F1800
;TYPE:Inner wall
;WIDTH:0.499999
G1 X183.116 Y138.65 E.00668
G1 X182.969 Y138.339 E.01229
G1 X182.707 Y138.064 E.01355
G1 X182.392 Y137.898 E.01273
G1 X182.021 Y137.836 E.01342
G1 X173.164 Y137.836 E.31644
G1 X173.164 Y120.164 E.63134
G1 X210.836 Y120.164 E1.34585
G1 X210.836 Y129 E.31567
G1 X210.836 Y137.836 E.31567
G1 X202 Y137.836 E.31567
G1 X201.789 Y137.852 E.00754
G1 X201.441 Y137.97 E.01316
G1 X201.113 Y138.233 E.015
G1 X200.909 Y138.577 E.01432
G1 X200.836 Y138.979 E.01457
G1 X200.836 Y147.836 E.31644
G1 X183.164 Y147.836 E.63134
G1 X183.164 Y139 E.31567
G1 X183.15 Y138.895 E.0038
G1 X182.695 Y138.909 F27000
G1 F1800
G1 X182.678 Y138.782 E.00458
G1 X182.541 Y138.531 E.01021
G1 X182.295 Y138.35 E.0109
G1 X182.021 Y138.293 E.00999
G1 X172.707 Y138.293 E.33276
G1 X172.707 Y119.707 E.664
G1 X211.293 Y119.707 E1.37851
G1 X211.293 Y129 E.332
G1 X211.293 Y138.293 E.332
G1 X202 Y138.293 E.332
G1 X201.81 Y138.314 E.00684
G1 X201.528 Y138.462 E.01138
G1 X201.353 Y138.697 E.01046
G1 X201.293 Y138.979 E.01028
G1 X201.293 Y148.293 E.33276
G1 X182.707 Y148.293 E.664
G1 X182.707 Y139 E.332
G1 X182.703 Y138.968 E.00115
G1 X182.25 Y138.979 F27000
;TYPE:Outer wall
G1 F1800
G1 X182.184 Y138.818 E.00622
G1 X182.021 Y138.75 E.00628
G1 X172.25 Y138.75 E.34909
G1 X172.25 Y119.25 E.69666
G1 X211.75 Y119.25 E1.41117
G1 X211.75 Y129 E.34833
G1 X211.75 Y138.75 E.34833
G1 X201.979 Y138.75 E.34909
G1 X201.816 Y138.818 E.00628
G1 X201.75 Y138.979 E.00622
G1 X201.75 Y148.75 E.34909
G1 X182.25 Y148.75 E.69666
M73 P3 R33
G1 X182.25 Y139.039 E.34695
G1 X182.264 Y138.947
G1 E-.8
G1 Z.6 F27000
G1 X210.699 Y121.236
G1 Z.2
G1 E.8 F1800
;TYPE:Bottom surface
;WIDTH:0.504949
G1 F3600
G1 X209.97 Y120.507 E.03722
G1 X209.317 Y120.507 E.0236
G1 X210.493 Y121.683 E.06009
G1 X210.493 Y122.337 E.0236
G1 X208.663 Y120.507 E.09346
G1 X208.01 Y120.507 E.0236
G1 X210.493 Y122.99 E.12683
G1 X210.493 Y123.644 E.0236
G1 X207.356 Y120.507 E.1602
G1 X206.703 Y120.507 E.0236
G1 X210.493 Y124.297 E.19357
G1 X210.493 Y124.951 E.0236
G1 X206.049 Y120.507 E.22694
G1 X205.396 Y120.507 E.0236
G1 X210.493 Y125.604 E.26031
G1 X210.493 Y126.257 E.0236
G1 X204.743 Y120.507 E.29368
G1 X204.089 Y120.507 E.0236
G1 X210.493 Y126.911 E.32705
G1 X210.493 Y127.564 E.0236
G1 X203.436 Y120.507 E.36042
G1 X202.782 Y120.507 E.0236
G1 X210.493 Y128.218 E.39379
G1 X210.493 Y128.871 E.0236
G1 X202.129 Y120.507 E.42716
G1 X201.476 Y120.507 E.0236
G1 X210.493 Y129.524 E.46053
G1 X210.493 Y130.178 E.0236
G1 X200.822 Y120.507 E.4939
G1 X200.169 Y120.507 E.0236
G1 X210.493 Y130.831 E.52727
G1 X210.493 Y131.485 E.0236
G1 X199.515 Y120.507 E.56064
G1 X198.862 Y120.507 E.0236
G1 X210.493 Y132.138 E.59401
G1 X210.493 Y132.791 E.0236
G1 X198.209 Y120.507 E.62738
G1 X197.555 Y120.507 E.0236
G1 X210.493 Y133.445 E.66075
G1 X210.493 Y134.098 E.0236
G1 X196.902 Y120.507 E.69412
G1 X196.248 Y120.507 E.0236
G1 X210.493 Y134.752 E.72749
G1 X210.493 Y135.405 E.0236
G1 X195.595 Y120.507 E.76086
G1 X194.942 Y120.507 E.0236
G1 X210.493 Y136.058 E.79423
G1 X210.493 Y136.712 E.0236
G1 X194.288 Y120.507 E.8276
G1 X193.635 Y120.507 E.0236
G1 X210.493 Y137.365 E.86097
G1 X210.493 Y137.493 E.00462
G1 X209.968 Y137.493 E.01897
G1 X192.981 Y120.507 E.86752
G1 X192.328 Y120.507 E.0236
G1 X209.315 Y137.494 E.86754
G1 X208.662 Y137.494 E.02358
G1 X191.675 Y120.507 E.86755
G1 X191.021 Y120.507 E.0236
G1 X208.009 Y137.494 E.86757
G1 X207.356 Y137.495 E.02358
G1 X190.368 Y120.507 E.86759
G1 X189.714 Y120.507 E.0236
G1 X206.703 Y137.495 E.86761
G1 X206.049 Y137.496 E.02358
G1 X189.061 Y120.507 E.86763
G1 X188.407 Y120.507 E.0236
G1 X205.396 Y137.496 E.86764
G1 X204.743 Y137.496 E.02358
G1 X187.754 Y120.507 E.86766
G1 X187.101 Y120.507 E.0236
G1 X204.09 Y137.497 E.86768
