; HEADER_BLOCK_START
; generated by OrcaSlicer 1.6.3 on 2023-07-10 at 23:39:35
; total layer number: 7
; HEADER_BLOCK_END

; THUMBNAIL_BLOCK_START
; THUMBNAIL_BLOCK_END

; external perimeters extrusion width = 0.40mm
; perimeters extrusion width = 0.45mm
; infill extrusion width = 0.45mm
; solid infill extrusion width = 0.72mm
; top infill extrusion width = 0.72mm
; first layer extrusion width = 0.50mm

; external perimeters extrusion width = 0.40mm
; perimeters extrusion width = 0.45mm
; infill extrusion width = 0.45mm
; solid infill extrusion width = 0.72mm
; top infill extrusion width = 0.72mm
; first layer extrusion width = 0.50mm

; external perimeters extrusion width = 0.40mm
; perimeters extrusion width = 0.45mm
; infill extrusion width = 0.45mm
; solid infill extrusion width = 0.72mm
; top infill extrusion width = 0.72mm
; first layer extrusion width = 0.50mm

; external perimeters extrusion width = 0.40mm
; perimeters extrusion width = 0.45mm
; infill extrusion width = 0.45mm
; solid infill extrusion width = 0.72mm
; top infill extrusion width = 0.72mm
; first layer extrusion width = 0.50mm

; external perimeters extrusion width = 0.40mm
; perimeters extrusion width = 0.45mm
; infill extrusion width = 0.45mm
; solid infill extrusion width = 0.72mm
; top infill extrusion width = 0.72mm
; first layer extrusion width = 0.50mm

; external perimeters extrusion width = 0.40mm
; perimeters extrusion width = 0.45mm
; infill extrusion width = 0.45mm
; solid infill extrusion width = 0.72mm
; top infill extrusion width = 0.72mm
; first layer extrusion width = 0.50mm

; external perimeters extrusion width = 0.40mm
; perimeters extrusion width = 0.45mm
; infill extrusion width = 0.45mm
; solid infill extrusion width = 0.72mm
; top infill extrusion width = 0.72mm
; first layer extrusion width = 0.50mm

; external perimeters extrusion width = 0.40mm
; perimeters extrusion width = 0.45mm
; infill extrusion width = 0.45mm
; solid infill extrusion width = 0.72mm
; top infill extrusion width = 0.72mm
; first layer extrusion width = 0.50mm

; external perimeters extrusion width = 0.40mm
; perimeters extrusion width = 0.45mm
; infill extrusion width = 0.45mm
; solid infill extrusion width = 0.72mm
; top infill extrusion width = 0.72mm
; first layer extrusion width = 0.50mm

; EXECUTABLE_BLOCK_START
EXCLUDE_OBJECT_DEFINE NAME=flowrate_0_id_0_copy_0 CENTER=150,150 POLYGON=[[130,135],[170,135],[170,155],[160,165],[140,165],[130,155],[130,135]]
EXCLUDE_OBJECT_DEFINE NAME=flowrate_10_id_1_copy_0 CENTER=192,182 POLYGON=[[172,167],[212,167],[212,187],[202,197],[182,197],[172,187],[172,167]]
EXCLUDE_OBJECT_DEFINE NAME=flowrate_15_id_2_copy_0 CENTER=150,182 POLYGON=[[130,167],[170,167],[170,187],[160,197],[140,197],[130,187],[130,167]]
EXCLUDE_OBJECT_DEFINE NAME=flowrate_20_id_3_copy_0 CENTER=108,182 POLYGON=[[88,167],[128,167],[128,187],[118,197],[98,197],[88,187],[88,167]]
EXCLUDE_OBJECT_DEFINE NAME=flowrate_5_id_4_copy_0 CENTER=108,150 POLYGON=[[88,135],[128,135],[128,155],[118,165],[98,165],[88,155],[88,135]]
EXCLUDE_OBJECT_DEFINE NAME=flowrate_m10_id_5_copy_0 CENTER=192,118 POLYGON=[[172,103],[212,103],[212,123],[202,133],[182,133],[172,123],[172,103]]
EXCLUDE_OBJECT_DEFINE NAME=flowrate_m15_id_6_copy_0 CENTER=150,118 POLYGON=[[130,103],[170,103],[170,123],[160,133],[140,133],[130,123],[130,103]]
EXCLUDE_OBJECT_DEFINE NAME=flowrate_m20_id_7_copy_0 CENTER=108,118 POLYGON=[[88,103],[128,103],[128,123],[118,133],[98,133],[88,123],[88,103]]
EXCLUDE_OBJECT_DEFINE NAME=flowrate_m5_id_8_copy_0 CENTER=192,150 POLYGON=[[172,135],[212,135],[212,155],[202,165],[182,165],[172,155],[172,135]]
M73 P0 R34
;TYPE:Custom
M104 S0 ; Stops OrcaSlicer from sending temp waits separately
M140 S0
print_start EXTRUDER=220 BED=60 


;CHAMBER=0
G90
G21
M82 ; use absolute distances for extrusion
G92 E0
; filament start gcode
M106 S0
;LAYER_CHANGE
;Z:0.3
;HEIGHT:0.3
;BEFORE_LAYER_CHANGE
;0.3
G92 E0

G1 E-.8 F1800
G92 E0
G1 Z.4 F21000
;AFTER_LAYER_CHANGE
;0.3
M204 S500
; printing object flowrate_m20 id:7 copy 0
EXCLUDE_OBJECT_START NAME=flowrate_m20_id_7_copy_0
G92 E0
G1 X116.907 Y122.81
G1 Z.3
G1 E.8 F1800
;TYPE:Inner wall
;WIDTH:0.5
G1 F3000
G1 X116.879 Y122.968 E.80698
G1 X116.879 Y131.879 E1.19431
G1 X99.121 Y131.879 E1.96616
G1 X99.121 Y123 E2.35209
G1 X99.095 Y122.729 E2.36394
G1 X98.935 Y122.359 E2.38146
G1 X98.686 Y122.097 E2.39718
G1 X98.385 Y121.938 E2.41195
G1 X98.032 Y121.879 E2.42751
G1 X89.121 Y121.879 E2.81484
G1 X89.121 Y104.121 E3.58669
G1 X126.879 Y104.121 E5.22787
G1 X126.879 Y113 E5.61379
G1 X126.879 Y121.879 E5.99972
G1 X118 Y121.879 E6.38565
G1 X117.788 Y121.894 E6.3949
G1 X117.455 Y122.007 E6.41016
G1 X117.143 Y122.257 E6.42755
G1 X116.948 Y122.585 E6.44415
G1 X116.923 Y122.721 E6.45015
G1 X117.338 Y122.874 F21000
G1 F3000
G1 X117.314 Y122.968 E6.45435
G1 X117.314 Y132.314 E6.86061
G1 X98.686 Y132.314 E7.67034
G1 X98.686 Y123 E8.0752
G1 X98.658 Y122.78 E8.08483
G1 X98.527 Y122.541 E8.09667
G1 X98.293 Y122.369 E8.10931
G1 X98.032 Y122.314 E8.12089
G1 X88.686 Y122.314 E8.52715
G1 X88.686 Y103.686 E9.33688
G1 X127.314 Y103.686 E11.01592
G1 X127.314 Y113 E11.42078
G1 X127.314 Y122.314 E11.82564
G1 X118 Y122.314 E12.23051
G1 X117.86 Y122.323 E12.23662
G1 X117.576 Y122.445 E12.25004
G1 X117.389 Y122.664 E12.26255
G1 X117.359 Y122.786 E12.26803
G1 X117.75 Y122.968 F21000
;TYPE:Outer wall
G1 F3000
G1 X117.75 Y132.75 E12.69322
G1 X98.25 Y132.75 E13.54081
G1 X98.25 Y122.968 E13.96601
G1 X98.187 Y122.814 E13.97322
G1 X98.032 Y122.75 E13.9805
G1 X88.25 Y122.75 E14.4057
G1 X88.25 Y103.25 E15.25329
G1 X127.75 Y103.25 E16.97021
G1 X127.75 Y113 E17.394
G1 X127.75 Y122.75 E17.8178
G1 X117.968 Y122.75 E18.24299
G1 X117.813 Y122.814 E18.25027
G1 X117.784 Y122.885 E18.25357
G1 X117.634 Y122.999
G1 E17.45357 F1800
G92 E0
G1 Z.7 F21000
G1 X126.748 Y105.137
G1 Z.3
G1 E.8 F1800
;TYPE:Bottom surface
;WIDTH:0.501988
G1 F5712.888
G1 X126.059 Y104.448 E.84253
G1 X125.44 Y104.448 E.86956
G1 X126.552 Y105.56 E.9382
G1 X126.552 Y106.178 E.96522
G1 X124.822 Y104.448 E1.07208
G1 X124.203 Y104.448 E1.09911
G1 X126.552 Y106.797 E1.24418
G1 X126.552 Y107.416 E1.2712
G1 X123.584 Y104.448 E1.4545
G1 X122.965 Y104.448 E1.48152
G1 X126.552 Y108.035 E1.70303
G1 X126.552 Y108.654 E1.73005
G1 X122.346 Y104.448 E1.98977
G1 X121.727 Y104.448 E2.0168
G1 X126.552 Y109.273 E2.31473
G1 X126.552 Y109.892 E2.34176
G1 X121.108 Y104.448 E2.67791
G1 X120.489 Y104.448 E2.70494
G1 X126.552 Y110.511 E3.07931
G1 X126.552 Y111.129 E3.10633
G1 X119.871 Y104.448 E3.51892
G1 X119.252 Y104.448 E3.54594
G1 X126.552 Y111.748 E3.99674
G1 X126.552 Y112.367 E4.02376
G1 X118.633 Y104.448 E4.51278
G1 X118.014 Y104.448 E4.53981
G1 X126.552 Y112.986 E5.06704
G1 X126.552 Y113.605 E5.09406
G1 X117.395 Y104.448 E5.65951
G1 X116.776 Y104.448 E5.68654
G1 X126.552 Y114.224 E6.2902
G1 X126.552 Y114.843 E6.31723
G1 X116.157 Y104.448 E6.95911
G1 X115.539 Y104.448 E6.98613
G1 X126.552 Y115.461 E7.66623
G1 X126.552 Y116.08 E7.69325
G1 X114.92 Y104.448 E8.41157
G1 X114.301 Y104.448 E8.43859
G1 X126.552 Y116.699 E9.19512
G1 X126.552 Y117.318 E9.22214
G1 X113.682 Y104.448 E10.01689
G1 X113.063 Y104.448 E10.04391
G1 X126.552 Y117.937 E10.87687
G1 X126.552 Y118.556 E10.90389
G1 X112.444 Y104.448 E11.77507
G1 X111.825 Y104.448 E11.80209
G1 X126.552 Y119.175 E12.71149
G1 X126.552 Y119.794 E12.73851
G1 X111.206 Y104.448 E13.68612
G1 X110.588 Y104.448 E13.71314
G1 X126.552 Y120.412 E14.69897
G1 X126.552 Y121.031 E14.72599
G1 X109.969 Y104.448 E15.75003
G1 X109.35 Y104.448 E15.77705
G1 X126.454 Y121.552 E16.83325
G1 X125.835 Y121.552 E16.86028
G1 X108.731 Y104.448 E17.91647
G1 X108.112 Y104.448 E17.9435
G1 X125.216 Y121.552 E18.99969
M73 P1 R34
G1 X124.597 Y121.552 E19.02672
G1 X107.493 Y104.448 E20.08291
G1 X106.874 Y104.448 E20.10994
G1 X123.978 Y121.552 E21.16613
G1 X123.36 Y121.552 E21.19316
G1 X106.255 Y104.448 E22.24936
G1 X105.637 Y104.448 E22.27638
G1 X122.741 Y121.552 E23.33258
G1 X122.122 Y121.552 E23.3596
G1 X105.018 Y104.448 E24.4158
G1 X104.399 Y104.448 E24.44282
G1 X121.503 Y121.552 E25.49902
G1 X120.884 Y121.552 E25.52604
G1 X103.78 Y104.448 E26.58224
G1 X103.161 Y104.448 E26.60926
G1 X120.265 Y121.552 E27.66546
G1 X119.646 Y121.552 E27.69248
G1 X102.542 Y104.448 E28.74868
G1 X101.923 Y104.448 E28.7757
G1 X119.028 Y121.552 E29.8319
G1 X118.409 Y121.552 E29.85892
G1 X101.305 Y104.448 E30.91512
G1 X100.686 Y104.448 E30.94214
G1 X117.804 Y121.566 E31.9992
G1 X117.721 Y121.573 E32.0028
G1 X117.404 Y121.668 E32.01726
G1 X117.328 Y121.709 E32.02104
G1 X100.067 Y104.448 E33.08693
G1 X99.448 Y104.448 E33.11396
G1 X116.967 Y121.967 E34.19576
G1 X116.794 Y122.175 E34.20757
G1 X116.709 Y122.328 E34.21521
G1 X98.829 Y104.448 E35.31932
G1 X98.21 Y104.448 E35.34635
G1 X116.565 Y122.802 E36.47975
G1 X116.555 Y123.412 E36.50638
G1 X97.591 Y104.448 E37.67744
G1 X96.972 Y104.448 E37.70446
G1 X116.555 Y124.031 E38.91372
G1 X116.555 Y124.649 E38.94074
G1 X96.354 Y104.448 E40.18819
G1 X95.735 Y104.448 E40.21522
G1 X116.555 Y125.268 E41.50088
G1 X116.554 Y125.887 E41.52789
G1 X95.116 Y104.448 E42.85175
G1 X94.497 Y104.448 E42.87877
G1 X116.554 Y126.505 E44.24083
G1 X116.554 Y127.124 E44.26784
G1 X93.878 Y104.448 E45.6681
G1 X93.259 Y104.448 E45.69512
G1 X116.554 Y127.742 E47.13358
G1 X116.553 Y128.361 E47.1606
G1 X92.64 Y104.448 E48.63726
G1 X92.021 Y104.448 E48.66428
G1 X116.553 Y128.98 E50.17914
G1 X116.553 Y129.598 E50.20615
G1 X91.403 Y104.448 E51.75921
G1 X90.784 Y104.448 E51.78623
G1 X116.553 Y130.217 E53.37749
G1 X116.552 Y130.835 E53.4045
G1 X90.165 Y104.448 E55.03396
G1 X89.546 Y104.448 E55.06098
G1 X116.552 Y131.454 E56.72864
G1 X116.552 Y131.552 E56.73292
G1 X116.031 Y131.552 E56.75566
G1 X89.448 Y104.969 E58.39721
G1 X89.448 Y105.588 E58.42423
G1 X115.412 Y131.552 E60.02757
G1 X114.793 Y131.552 E60.05459
G1 X89.448 Y106.207 E61.6197
G1 X89.448 Y106.825 E61.64673
G1 X114.175 Y131.552 E63.17363
G1 X113.556 Y131.552 E63.20065
G1 X89.448 Y107.444 E64.68933
G1 X89.448 Y108.063 E64.71636
G1 X112.937 Y131.552 E66.16682
G1 X112.318 Y131.552 E66.19385
G1 X89.448 Y108.682 E67.6061
G1 X89.448 Y109.301 E67.63312
G1 X111.699 Y131.552 E69.00716
G1 X111.08 Y131.552 E69.03418
G1 X89.448 Y109.92 E70.37
G1 X89.448 Y110.539 E70.39702
G1 X110.461 Y131.552 E71.69463
G1 X109.843 Y131.552 E71.72165
G1 X89.448 Y111.157 E72.98104
M73 P2 R34
G1 X89.448 Y111.776 E73.00806
G1 X109.224 Y131.552 E74.22923
G1 X108.605 Y131.552 E74.25626
G1 X89.448 Y112.395 E75.43921
G1 X89.448 Y113.014 E75.46624
G1 X97.986 Y121.552 E75.99347
G1 X97.367 Y121.552 E76.02049
G1 X89.448 Y113.633 E76.5095
G1 X89.448 Y114.252 E76.53653
G1 X96.748 Y121.552 E76.98732
G1 X96.129 Y121.552 E77.01435
G1 X89.448 Y114.871 E77.42693
G1 X89.448 Y115.49 E77.45395
G1 X95.51 Y121.552 E77.82832
G1 X94.892 Y121.552 E77.85534
G1 X89.448 Y116.108 E78.19149
G1 X89.448 Y116.727 E78.21852
G1 X94.273 Y121.552 E78.51645
G1 X93.654 Y121.552 E78.54347
G1 X89.448 Y117.346 E78.80319
G1 X89.448 Y117.965 E78.83021
G1 X93.035 Y121.552 E79.05172
G1 X92.416 Y121.552 E79.07874
G1 X89.448 Y118.584 E79.26203
G1 X89.448 Y119.203 E79.28905
G1 X91.797 Y121.552 E79.43412
G1 X91.178 Y121.552 E79.46114
G1 X89.448 Y119.822 E79.568
G1 X89.448 Y120.441 E79.59502
G1 X90.559 Y121.552 E79.66366
G1 X89.941 Y121.552 E79.69068
G1 X89.252 Y120.863 E79.73321
G1 E78.93321 F1800
G92 E0
G1 Z.7 F21000
G1 X99.237 Y122.803
G1 Z.3
G1 E.8 F1800
G1 F5712.888
G1 X107.986 Y131.552 E1.34023
G1 X107.367 Y131.552 E1.36726
G1 X99.445 Y123.63 E1.85648
G1 X99.445 Y124.249 E1.88351
G1 X106.748 Y131.552 E2.3345
G1 X106.129 Y131.552 E2.36152
G1 X99.445 Y124.868 E2.77428
G1 X99.445 Y125.487 E2.80131
G1 X105.51 Y131.552 E3.17584
G1 X104.892 Y131.552 E3.20286
G1 X99.446 Y126.106 E3.53916
G1 X99.446 Y126.725 E3.56619
G1 X104.273 Y131.552 E3.86425
G1 X103.654 Y131.552 E3.89127
G1 X99.446 Y127.344 E4.1511
G1 X99.446 Y127.963 E4.17814
G1 X103.035 Y131.552 E4.39974
G1 X102.416 Y131.552 E4.42676
G1 X99.447 Y128.583 E4.61013
G1 X99.447 Y129.202 E4.63716
G1 X101.797 Y131.552 E4.78229
G1 X101.178 Y131.552 E4.80932
G1 X99.447 Y129.821 E4.91622
G1 X99.447 Y130.44 E4.94325
G1 X100.559 Y131.552 E5.01192
G1 X99.941 Y131.552 E5.03895
G1 X99.252 Y130.863 E5.0815
; stop printing object flowrate_m20 id:7 copy 0
EXCLUDE_OBJECT_END NAME=flowrate_m20_id_7_copy_0
G92 E0
; printing object flowrate_5 id:4 copy 0
EXCLUDE_OBJECT_START NAME=flowrate_5_id_4_copy_0
G92 E0
G1 E-.56 F1800
;WIPE_START
G1 F5712.888
G1 X99.941 Y131.552 E-.67109
G1 X100.559 Y131.552 E-.74164
G1 X100.272 Y131.265 E-.788
;WIPE_END
G1 E-.8 F1800
G92 E0
G1 Z.7 F21000
G1 X99.107 Y154.851
G1 Z.3
G1 E.8 F1800
;TYPE:Inner wall
;WIDTH:0.5
G1 F3000
G1 X99.095 Y154.729 E.80703
G1 X98.935 Y154.359 E.83004
G1 X98.686 Y154.097 E.85066
G1 X98.385 Y153.938 E.87004
G1 X98.032 Y153.879 E.89047
G1 X89.121 Y153.879 E1.39884
G1 X89.121 Y136.121 E2.41189
G1 X126.879 Y136.121 E4.56594
G1 X126.879 Y145 E5.07247
G1 X126.879 Y153.879 E5.579
G1 X118 Y153.879 E6.08552
G1 X117.788 Y153.894 E6.09767
G1 X117.455 Y154.007 E6.1177
G1 X117.143 Y154.257 E6.14053
G1 X116.948 Y154.585 E6.16231
G1 X116.879 Y154.968 E6.18449
G1 X116.879 Y163.879 E6.69285
G1 X99.121 Y163.879 E7.70591
G1 X99.121 Y155 E8.21244
G1 X99.115 Y154.941 E8.21582
G1 X98.673 Y154.903 F21000
G1 F3000
G1 X98.658 Y154.78 E8.22289
G1 X98.527 Y154.541 E8.23843
G1 X98.293 Y154.369 E8.25501
G1 X98.032 Y154.314 E8.27022
G1 X88.686 Y154.314 E8.80344
G1 X88.686 Y135.686 E9.8662
G1 X127.314 Y135.686 E12.06995
G1 X127.314 Y145 E12.60133
G1 X127.314 Y154.314 E13.13271
G1 X118 Y154.314 E13.66409
G1 X117.86 Y154.323 E13.67211
G1 X117.576 Y154.445 E13.68973
G1 X117.389 Y154.664 E13.70614
G1 X117.314 Y154.968 E13.72399
G1 X117.314 Y164.314 E14.25721
M73 P2 R33
G1 X98.686 Y164.314 E15.31997
G1 X98.686 Y155 E15.85135
G1 X98.685 Y154.992 E15.85179
G1 X98.25 Y154.968 F21000
;TYPE:Outer wall
G1 F3000
G1 X98.187 Y154.814 E15.86125
G1 X98.032 Y154.75 E15.87081
G1 X88.25 Y154.75 E16.42888
G1 X88.25 Y135.25 E17.54134
G1 X127.75 Y135.25 E19.79479
G1 X127.75 Y145 E20.35102
G1 X127.75 Y154.75 E20.90726
G1 X117.968 Y154.75 E21.46532
G1 X117.813 Y154.814 E21.47488
G1 X117.75 Y154.968 E21.48435
G1 X117.75 Y164.75 E22.04241
G1 X98.25 Y164.75 E23.15488
G1 X98.25 Y155.058 E23.70781
G1 X98.263 Y154.937
G1 E22.90781 F1800
G92 E0
G1 Z.7 F21000
G1 X126.748 Y137.137
G1 Z.3
G1 E.8 F1800
;TYPE:Bottom surface
;WIDTH:0.501988
G1 F4352.677
G1 X126.059 Y136.448 E.85582
G1 X125.44 Y136.448 E.89129
G1 X126.552 Y137.56 E.98139
G1 X126.552 Y138.178 E1.01686
G1 X124.822 Y136.448 E1.15711
G1 X124.203 Y136.448 E1.19258
G1 X126.552 Y138.797 E1.38299
G1 X126.552 Y139.416 E1.41846
G1 X123.584 Y136.448 E1.65903
G1 X122.965 Y136.448 E1.69449
G1 X126.552 Y140.035 E1.98522
G1 X126.552 Y140.654 E2.02069
G1 X122.346 Y136.448 E2.36158
G1 X121.727 Y136.448 E2.39704
G1 X126.552 Y141.273 E2.78809
G1 X126.552 Y141.892 E2.82356
G1 X121.108 Y136.448 E3.26476
M73 P3 R33
G1 X120.489 Y136.448 E3.30023
G1 X126.552 Y142.511 E3.79159
G1 X126.552 Y143.129 E3.82706
G1 X119.871 Y136.448 E4.36858
G1 X119.252 Y136.448 E4.40404
G1 X126.552 Y143.748 E4.99572
G1 X126.552 Y144.367 E5.03119
G1 X118.633 Y136.448 E5.67303
G1 X118.014 Y136.448 E5.7085
G1 X126.552 Y144.986 E6.40049
G1 X126.552 Y145.605 E6.43596
G1 X117.395 Y136.448 E7.17811
G1 X116.776 Y136.448 E7.21358
G1 X126.552 Y146.224 E8.00589
G1 X126.552 Y146.843 E8.04136
G1 X116.157 Y136.448 E8.88383
G1 X115.539 Y136.448 E8.9193
G1 X126.552 Y147.461 E9.81193
G1 X126.552 Y148.08 E9.84739
G1 X114.92 Y136.448 E10.79018
G1 X114.301 Y136.448 E10.82565
G1 X126.552 Y148.699 E11.81859
G1 X126.552 Y149.318 E11.85406
G1 X113.682 Y136.448 E12.89716
G1 X113.063 Y136.448 E12.93263
G1 X126.552 Y149.937 E14.02589
G1 X126.552 Y150.556 E14.06136
G1 X112.444 Y136.448 E15.20478
G1 X111.825 Y136.448 E15.24025
G1 X126.552 Y151.175 E16.43383
G1 X126.552 Y151.794 E16.46929
G1 X111.206 Y136.448 E17.71303
G1 X110.588 Y136.448 E17.7485
G1 X126.552 Y152.412 E19.04239
G1 X126.552 Y153.031 E19.07786
G1 X109.969 Y136.448 E20.42192
G1 X109.35 Y136.448 E20.45738
G1 X126.454 Y153.552 E21.84364
