; HEADER_BLOCK_START
; generated by OrcaSlicer 1.6.3 on 2023-07-11 at 00:50:27
; total layer number: 7
; HEADER_BLOCK_END

; THUMBNAIL_BLOCK_START
; THUMBNAIL_BLOCK_END

; external perimeters extrusion width = 0.40mm
; perimeters extrusion width = 0.45mm
; infill extrusion width = 0.45mm
; solid infill extrusion width = 0.48mm
; top infill extrusion width = 0.48mm
; first layer extrusion width = 0.50mm

; external perimeters extrusion width = 0.40mm
; perimeters extrusion width = 0.45mm
; infill extrusion width = 0.45mm
; solid infill extrusion width = 0.48mm
; top infill extrusion width = 0.48mm
; first layer extrusion width = 0.50mm

; external perimeters extrusion width = 0.40mm
; perimeters extrusion width = 0.45mm
; infill extrusion width = 0.45mm
; solid infill extrusion width = 0.48mm
; top infill extrusion width = 0.48mm
; first layer extrusion width = 0.50mm

; external perimeters extrusion width = 0.40mm
; perimeters extrusion width = 0.45mm
; infill extrusion width = 0.45mm
; solid infill extrusion width = 0.48mm
; top infill extrusion width = 0.48mm
; first layer extrusion width = 0.50mm

; external perimeters extrusion width = 0.40mm
; perimeters extrusion width = 0.45mm
; infill extrusion width = 0.45mm
; solid infill extrusion width = 0.48mm
; top infill extrusion width = 0.48mm
; first layer extrusion width = 0.50mm

; external perimeters extrusion width = 0.40mm
; perimeters extrusion width = 0.45mm
; infill extrusion width = 0.45mm
; solid infill extrusion width = 0.48mm
; top infill extrusion width = 0.48mm
; first layer extrusion width = 0.50mm

; external perimeters extrusion width = 0.40mm
; perimeters extrusion width = 0.45mm
; infill extrusion width = 0.45mm
; solid infill extrusion width = 0.48mm
; top infill extrusion width = 0.48mm
; first layer extrusion width = 0.50mm

; external perimeters extrusion width = 0.40mm
; perimeters extrusion width = 0.45mm
; infill extrusion width = 0.45mm
; solid infill extrusion width = 0.48mm
; top infill extrusion width = 0.48mm
; first layer extrusion width = 0.50mm

; external perimeters extrusion width = 0.40mm
; perimeters extrusion width = 0.45mm
; infill extrusion width = 0.45mm
; solid infill extrusion width = 0.48mm
; top infill extrusion width = 0.48mm
; first layer extrusion width = 0.50mm

; EXECUTABLE_BLOCK_START
EXCLUDE_OBJECT_DEFINE NAME=flowrate_0_id_0_copy_0 CENTER=150,150 POLYGON=[[130,135],[170,135],[170,155],[160,165],[140,165],[130,155],[130,135]]
EXCLUDE_OBJECT_DEFINE NAME=flowrate_10_id_1_copy_0 CENTER=192,182 POLYGON=[[172,167],[212,167],[212,187],[202,197],[182,197],[172,187],[172,167]]
EXCLUDE_OBJECT_DEFINE NAME=flowrate_15_id_2_copy_0 CENTER=150,182 POLYGON=[[130,167],[170,167],[170,187],[160,197],[140,197],[130,187],[130,167]]
EXCLUDE_OBJECT_DEFINE NAME=flowrate_20_id_3_copy_0 CENTER=108,182 POLYGON=[[88,167],[128,167],[128,187],[118,197],[98,197],[88,187],[88,167]]
EXCLUDE_OBJECT_DEFINE NAME=flowrate_5_id_4_copy_0 CENTER=108,150 POLYGON=[[88,135],[128,135],[128,155],[118,165],[98,165],[88,155],[88,135]]
EXCLUDE_OBJECT_DEFINE NAME=flowrate_m10_id_5_copy_0 CENTER=192,118 POLYGON=[[172,103],[212,103],[212,123],[202,133],[182,133],[172,123],[172,103]]
EXCLUDE_OBJECT_DEFINE NAME=flowrate_m15_id_6_copy_0 CENTER=150,118 POLYGON=[[130,103],[170,103],[170,123],[160,133],[140,133],[130,123],[130,103]]
EXCLUDE_OBJECT_DEFINE NAME=flowrate_m20_id_7_copy_0 CENTER=108,118 POLYGON=[[88,103],[128,103],[128,123],[118,133],[98,133],[88,123],[88,103]]
EXCLUDE_OBJECT_DEFINE NAME=flowrate_m5_id_8_copy_0 CENTER=192,150 POLYGON=[[172,135],[212,135],[212,155],[202,165],[182,165],[172,155],[172,135]]
M73 P0 R28
;TYPE:Custom
M104 S0 ; Stops OrcaSlicer from sending temp waits separately
M140 S0
print_start EXTRUDER=220 BED=60 


#CHAMBER=0
G90
G21
M83 ; use relative distances for extrusion
; filament start gcode
M106 S0
;LAYER_CHANGE
;Z:0.2
;HEIGHT:0.2
;BEFORE_LAYER_CHANGE
;0.2
G92 E0

G1 E-.8 F1800
G1 Z.4 F21000
;AFTER_LAYER_CHANGE
;0.2
M204 S500
; printing object flowrate_m20 id:7 copy 0
EXCLUDE_OBJECT_START NAME=flowrate_m20_id_7_copy_0
G1 X99.141 Y122.835
G1 Z.2
G1 E.8 F1800
;TYPE:Inner wall
;WIDTH:0.499999
G1 F3000
G1 X99.116 Y122.65 E.00557
G1 X98.969 Y122.339 E.01025
G1 X98.707 Y122.064 E.0113
G1 X98.392 Y121.898 E.01062
G1 X98.021 Y121.836 E.0112
G1 X89.164 Y121.836 E.26392
G1 X89.164 Y104.164 E.52656
G1 X126.836 Y104.164 E1.1225
G1 X126.836 Y113 E.26328
G1 X126.836 Y121.836 E.26328
G1 X118 Y121.836 E.26328
G1 X117.789 Y121.852 E.00629
G1 X117.441 Y121.97 E.01097
G1 X117.113 Y122.233 E.01251
G1 X116.909 Y122.577 E.01194
G1 X116.836 Y122.979 E.01215
G1 X116.836 Y131.836 E.26392
G1 X99.164 Y131.836 E.52656
G1 X99.164 Y123 E.26328
G1 X99.15 Y122.895 E.00317
G1 X98.695 Y122.909 F21000
G1 F3000
G1 X98.678 Y122.782 E.00382
G1 X98.541 Y122.531 E.00851
G1 X98.295 Y122.35 E.00909
G1 X98.021 Y122.293 E.00833
G1 X88.707 Y122.293 E.27754
G1 X88.707 Y103.707 E.5538
G1 X127.293 Y103.707 E1.14974
G1 X127.293 Y113 E.2769
G1 X127.293 Y122.293 E.2769
G1 X118 Y122.293 E.2769
G1 X117.81 Y122.314 E.0057
G1 X117.528 Y122.462 E.00949
G1 X117.353 Y122.697 E.00873
G1 X117.293 Y122.979 E.00857
G1 X117.293 Y132.293 E.27754
G1 X98.707 Y132.293 E.5538
G1 X98.707 Y123 E.2769
G1 X98.703 Y122.968 E.00096
G1 X98.25 Y122.979 F21000
;TYPE:Outer wall
G1 F3000
G1 X98.184 Y122.818 E.00519
G1 X98.021 Y122.75 E.00524
G1 X88.25 Y122.75 E.29116
G1 X88.25 Y103.25 E.58104
G1 X127.75 Y103.25 E1.17698
G1 X127.75 Y113 E.29052
G1 X127.75 Y122.75 E.29052
G1 X117.979 Y122.75 E.29116
G1 X117.816 Y122.818 E.00524
G1 X117.75 Y122.979 E.00519
G1 X117.75 Y132.75 E.29116
G1 X98.25 Y132.75 E.58104
G1 X98.25 Y123.039 E.28937
G1 X98.264 Y122.947
G1 E-.8 F1800
G1 Z.6 F21000
G1 X126.699 Y105.236
G1 Z.2
G1 E.8 F1800
;TYPE:Bottom surface
;WIDTH:0.504949
G1 F6300
G1 X125.97 Y104.507 E.03104
G1 X125.317 Y104.507 E.01968
G1 X126.493 Y105.683 E.05011
G1 X126.493 Y106.337 E.01968
G1 X124.663 Y104.507 E.07795
G1 X124.01 Y104.507 E.01968
G1 X126.493 Y106.99 E.10578
G1 X126.493 Y107.644 E.01968
G1 X123.356 Y104.507 E.13361
G1 X122.703 Y104.507 E.01968
G1 X126.493 Y108.297 E.16144
G1 X126.493 Y108.951 E.01968
G1 X122.049 Y104.507 E.18928
G1 X121.396 Y104.507 E.01968
G1 X126.493 Y109.604 E.21711
G1 X126.493 Y110.257 E.01968
G1 X120.743 Y104.507 E.24494
G1 X120.089 Y104.507 E.01968
G1 X126.493 Y110.911 E.27277
G1 X126.493 Y111.564 E.01968
G1 X119.436 Y104.507 E.3006
G1 X118.782 Y104.507 E.01968
G1 X126.493 Y112.218 E.32844
G1 X126.493 Y112.871 E.01968
G1 X118.129 Y104.507 E.35627
G1 X117.476 Y104.507 E.01968
G1 X126.493 Y113.524 E.3841
G1 X126.493 Y114.178 E.01968
G1 X116.822 Y104.507 E.41193
G1 X116.169 Y104.507 E.01968
G1 X126.493 Y114.831 E.43977
G1 X126.493 Y115.485 E.01968
G1 X115.515 Y104.507 E.4676
G1 X114.862 Y104.507 E.01968
G1 X126.493 Y116.138 E.49543
G1 X126.493 Y116.791 E.01968
G1 X114.209 Y104.507 E.52326
G1 X113.555 Y104.507 E.01968
G1 X126.493 Y117.445 E.55109
M73 P1 R28
G1 X126.493 Y118.098 E.01968
G1 X112.902 Y104.507 E.57893
G1 X112.248 Y104.507 E.01968
G1 X126.493 Y118.752 E.60676
G1 X126.493 Y119.405 E.01968
G1 X111.595 Y104.507 E.63459
G1 X110.942 Y104.507 E.01968
G1 X126.493 Y120.058 E.66242
G1 X126.493 Y120.712 E.01968
G1 X110.288 Y104.507 E.69026
G1 X109.635 Y104.507 E.01968
G1 X126.493 Y121.365 E.71809
G1 X126.493 Y121.493 E.00385
G1 X125.968 Y121.493 E.01582
G1 X108.981 Y104.507 E.72355
G1 X108.328 Y104.507 E.01968
G1 X125.315 Y121.494 E.72356
G1 X124.662 Y121.494 E.01967
G1 X107.675 Y104.507 E.72358
G1 X107.021 Y104.507 E.01968
G1 X124.009 Y121.494 E.72359
G1 X123.356 Y121.495 E.01967
G1 X106.368 Y104.507 E.72361
G1 X105.714 Y104.507 E.01968
G1 X122.703 Y121.495 E.72362
G1 X122.049 Y121.496 E.01967
G1 X105.061 Y104.507 E.72364
G1 X104.407 Y104.507 E.01968
G1 X121.396 Y121.496 E.72365
G1 X120.743 Y121.496 E.01967
G1 X103.754 Y104.507 E.72367
G1 X103.101 Y104.507 E.01968
G1 X120.09 Y121.497 E.72368
G1 X119.437 Y121.497 E.01967
G1 X102.447 Y104.507 E.7237
G1 X101.794 Y104.507 E.01968
G1 X118.784 Y121.497 E.72371
G1 X118.131 Y121.498 E.01967
G1 X101.14 Y104.507 E.72373
G1 X100.487 Y104.507 E.01968
G1 X117.543 Y121.562 E.72649
M73 P1 R27
G1 X117.385 Y121.616 E.005
G1 X117.178 Y121.727 E.00707
G1 X117.109 Y121.782 E.00267
G1 X99.834 Y104.507 E.73585
G1 X99.18 Y104.507 E.01968
G1 X116.78 Y122.107 E.74967
G1 X116.623 Y122.37 E.00922
G1 X116.565 Y122.545 E.00556
G1 X98.527 Y104.507 E.76833
G1 X97.873 Y104.507 E.01968
G1 X116.497 Y123.13 E.79327
G1 X116.496 Y123.783 E.01967
G1 X97.22 Y104.507 E.82109
G1 X96.567 Y104.507 E.01968
G1 X116.496 Y124.437 E.84891
G1 X116.496 Y125.09 E.01967
G1 X95.913 Y104.507 E.87673
G1 X95.26 Y104.507 E.01968
G1 X116.496 Y125.743 E.90455
G1 X116.495 Y126.396 E.01967
G1 X94.606 Y104.507 E.93237
G1 X93.953 Y104.507 E.01968
G1 X116.495 Y127.049 E.96019
G1 X116.495 Y127.702 E.01967
G1 X93.3 Y104.507 E.98801
G1 X92.646 Y104.507 E.01968
G1 X116.494 Y128.355 E1.01583
G1 X116.494 Y129.008 E.01967
G1 X91.993 Y104.507 E1.04365
G1 X91.339 Y104.507 E.01968
G1 X116.494 Y129.662 E1.07147
G1 X116.494 Y130.315 E.01967
G1 X90.686 Y104.507 E1.09929
G1 X90.033 Y104.507 E.01968
G1 X116.493 Y130.968 E1.12711
M73 P2 R27
G1 X116.493 Y131.493 E.01582
G1 X116.365 Y131.493 E.00385
G1 X89.507 Y104.635 E1.14404
G1 X89.507 Y105.288 E.01968
G1 X115.712 Y131.493 E1.11621
G1 X115.058 Y131.493 E.01968
G1 X89.507 Y105.942 E1.08838
G1 X89.507 Y106.595 E.01968
G1 X114.405 Y131.493 E1.06055
G1 X113.752 Y131.493 E.01968
G1 X89.507 Y107.248 E1.03271
G1 X89.507 Y107.902 E.01968
G1 X113.098 Y131.493 E1.00488
G1 X112.445 Y131.493 E.01968
G1 X89.507 Y108.555 E.97705
G1 X89.507 Y109.209 E.01968
G1 X111.791 Y131.493 E.94922
G1 X111.138 Y131.493 E.01968
G1 X89.507 Y109.862 E.92138
G1 X89.507 Y110.515 E.01968
G1 X110.485 Y131.493 E.89355
G1 X109.831 Y131.493 E.01968
G1 X89.507 Y111.169 E.86572
G1 X89.507 Y111.822 E.01968
G1 X109.178 Y131.493 E.83789
G1 X108.524 Y131.493 E.01968
G1 X89.507 Y112.476 E.81005
G1 X89.507 Y113.129 E.01968
G1 X97.876 Y121.498 E.35646
G1 X97.222 Y121.497 E.01969
G1 X89.507 Y113.783 E.32862
G1 X89.507 Y114.436 E.01968
G1 X96.568 Y121.497 E.30077
G1 X95.914 Y121.497 E.01969
G1 X89.507 Y115.089 E.27292
G1 X89.507 Y115.743 E.01968
G1 X95.26 Y121.496 E.24507
G1 X94.607 Y121.496 E.01969
G1 X89.507 Y116.396 E.21723
G1 X89.507 Y117.05 E.01968
G1 X93.953 Y121.496 E.18938
G1 X93.299 Y121.495 E.01969
G1 X89.507 Y117.703 E.16153
G1 X89.507 Y118.356 E.01968
G1 X92.645 Y121.495 E.13368
G1 X91.992 Y121.494 E.01969
G1 X89.507 Y119.01 E.10584
G1 X89.507 Y119.663 E.01968
G1 X91.338 Y121.494 E.07799
G1 X90.684 Y121.494 E.01969
G1 X89.507 Y120.317 E.05014
G1 X89.507 Y120.97 E.01968
G1 X90.236 Y121.699 E.03106
G1 E-.8 F1800
G1 Z.6 F21000
G1 X99.297 Y122.92
G1 Z.2
G1 E.8 F1800
G1 F6300
G1 X107.871 Y131.493 E.36519
G1 X107.217 Y131.493 E.01968
G1 X99.504 Y123.779 E.32858
G1 X99.504 Y124.433 E.01969
G1 X106.564 Y131.493 E.30074
G1 X105.911 Y131.493 E.01968
G1 X99.504 Y125.086 E.27289
G1 X99.504 Y125.74 E.01969
G1 X105.257 Y131.493 E.24505
G1 X104.604 Y131.493 E.01968
G1 X99.505 Y126.394 E.2172
G1 X99.505 Y127.048 E.01969
G1 X103.95 Y131.493 E.18936
G1 X103.297 Y131.493 E.01968
G1 X99.505 Y127.701 E.16151
G1 X99.506 Y128.355 E.01969
G1 X102.644 Y131.493 E.13367
G1 X101.99 Y131.493 E.01968
G1 X99.506 Y129.009 E.10583
G1 X99.506 Y129.662 E.01969
G1 X101.337 Y131.493 E.07798
G1 X100.683 Y131.493 E.01968
G1 X99.506 Y130.316 E.05014
G1 X99.507 Y130.97 E.01969
G1 X100.236 Y131.699 E.03105
; stop printing object flowrate_m20 id:7 copy 0
EXCLUDE_OBJECT_END NAME=flowrate_m20_id_7_copy_0
; printing object flowrate_5 id:4 copy 0
EXCLUDE_OBJECT_START NAME=flowrate_5_id_4_copy_0
G1 E-.56 F1800
;WIPE_START
G1 F6300
G1 X99.507 Y130.97 E-.11753
G1 X99.506 Y130.316 E-.07452
G1 X99.729 Y130.539 E-.03595
;WIPE_END
G1 E-.012 F1800
G1 Z.6 F21000
G1 X99.141 Y154.835
G1 Z.2
G1 E.8 F1800
;TYPE:Inner wall
;WIDTH:0.499999
G1 F3000
G1 X99.116 Y154.65 E.00731
G1 X98.969 Y154.339 E.01346
G1 X98.707 Y154.064 E.01484
G1 X98.392 Y153.898 E.01394
G1 X98.021 Y153.836 E.01469
G1 X89.164 Y153.836 E.3464
G1 X89.164 Y136.164 E.69111
G1 X126.836 Y136.164 E1.47328
G1 X126.836 Y145 E.34556
G1 X126.836 Y153.836 E.34556
G1 X118 Y153.836 E.34556
G1 X117.789 Y153.852 E.00826
G1 X117.441 Y153.97 E.0144
G1 X117.113 Y154.233 E.01642
G1 X116.909 Y154.577 E.01567
G1 X116.836 Y154.979 E.01595
G1 X116.836 Y163.836 E.3464
G1 X99.164 Y163.836 E.69111
M73 P3 R27
G1 X99.164 Y155 E.34556
G1 X99.15 Y154.895 E.00415
G1 X98.695 Y154.909 F21000
G1 F3000
G1 X98.678 Y154.782 E.00501
G1 X98.541 Y154.531 E.01117
G1 X98.295 Y154.35 E.01193
G1 X98.021 Y154.293 E.01094
G1 X88.707 Y154.293 E.36427
G1 X88.707 Y135.707 E.72686
G1 X127.293 Y135.707 E1.50903
G1 X127.293 Y145 E.36343
G1 X127.293 Y154.293 E.36343
G1 X118 Y154.293 E.36343
G1 X117.81 Y154.314 E.00749
G1 X117.528 Y154.462 E.01246
G1 X117.353 Y154.697 E.01145
G1 X117.293 Y154.979 E.01125
G1 X117.293 Y164.293 E.36427
G1 X98.707 Y164.293 E.72686
G1 X98.707 Y155 E.36343
G1 X98.703 Y154.968 E.00126
G1 X98.25 Y154.979 F21000
;TYPE:Outer wall
G1 F3000
G1 X98.184 Y154.818 E.00681
G1 X98.021 Y154.75 E.00688
G1 X88.25 Y154.75 E.38215
G1 X88.25 Y135.25 E.76261
G1 X127.75 Y135.25 E1.54478
G1 X127.75 Y145 E.38131
G1 X127.75 Y154.75 E.38131
G1 X117.979 Y154.75 E.38215
G1 X117.816 Y154.818 E.00688
G1 X117.75 Y154.979 E.00681
G1 X117.75 Y164.75 E.38215
G1 X98.25 Y164.75 E.76261
G1 X98.25 Y155.039 E.3798
G1 X98.264 Y154.947
G1 E-.8 F1800
G1 Z.6 F21000
G1 X126.699 Y137.236
G1 Z.2
G1 E.8 F1800
;TYPE:Bottom surface
;WIDTH:0.504949
G1 F6300
G1 X125.97 Y136.507 E.04074
G1 X125.317 Y136.507 E.02583
G1 X126.493 Y137.683 E.06577
G1 X126.493 Y138.337 E.02583
G1 X124.663 Y136.507 E.1023
G1 X124.01 Y136.507 E.02583
G1 X126.493 Y138.99 E.13883
G1 X126.493 Y139.644 E.02583
G1 X123.356 Y136.507 E.17536
G1 X122.703 Y136.507 E.02583
G1 X126.493 Y140.297 E.21189
G1 X126.493 Y140.951 E.02583
G1 X122.049 Y136.507 E.24842
G1 X121.396 Y136.507 E.02583
G1 X126.493 Y141.604 E.28495
G1 X126.493 Y142.257 E.02583
G1 X120.743 Y136.507 E.32148
G1 X120.089 Y136.507 E.02583
G1 X126.493 Y142.911 E.35801
G1 X126.493 Y143.564 E.02583
G1 X119.436 Y136.507 E.39454
G1 X118.782 Y136.507 E.02583
G1 X126.493 Y144.218 E.43107
G1 X126.493 Y144.871 E.02583
G1 X118.129 Y136.507 E.4676
G1 X117.476 Y136.507 E.02583
G1 X126.493 Y145.524 E.50413
G1 X126.493 Y146.178 E.02583
G1 X116.822 Y136.507 E.54066
G1 X116.169 Y136.507 E.02583
G1 X126.493 Y146.831 E.57719
G1 X126.493 Y147.485 E.02583
G1 X115.515 Y136.507 E.61372
G1 X114.862 Y136.507 E.02583
G1 X126.493 Y148.138 E.65025
G1 X126.493 Y148.791 E.02583
G1 X114.209 Y136.507 E.68678
G1 X113.555 Y136.507 E.02583
G1 X126.493 Y149.445 E.72331
G1 X126.493 Y150.098 E.02583
G1 X112.902 Y136.507 E.75984
G1 X112.248 Y136.507 E.02583
G1 X126.493 Y150.752 E.79637
G1 X126.493 Y151.405 E.02583
G1 X111.595 Y136.507 E.8329
G1 X110.942 Y136.507 E.02583
G1 X126.493 Y152.058 E.86943
G1 X126.493 Y152.712 E.02583
G1 X110.288 Y136.507 E.90596
G1 X109.635 Y136.507 E.02583
G1 X126.493 Y153.365 E.94249
G1 X126.493 Y153.493 E.00505
G1 X125.968 Y153.493 E.02076
G1 X108.981 Y136.507 E.94965
G1 X108.328 Y136.507 E.02583
G1 X125.315 Y153.494 E.94967
G1 X124.662 Y153.494 E.02582
G1 X107.675 Y136.507 E.94969
M73 P4 R27
G1 X107.021 Y136.507 E.02583
G1 X124.009 Y153.494 E.94971
G1 X123.356 Y153.495 E.02582
G1 X106.368 Y136.507 E.94973
G1 X105.714 Y136.507 E.02583
G1 X122.703 Y153.495 E.94975
G1 X122.049 Y153.496 E.02582
G1 X105.061 Y136.507 E.94977
G1 X104.407 Y136.507 E.02583
G1 X121.396 Y153.496 E.94979
G1 X120.743 Y153.496 E.02582
G1 X103.754 Y136.507 E.94981
G1 X103.101 Y136.507 E.02583
G1 X120.09 Y153.497 E.94983
G1 X119.437 Y153.497 E.02582
G1 X102.447 Y136.507 E.94985
G1 X101.794 Y136.507 E.02583
G1 X118.784 Y153.497 E.94987
G1 X118.131 Y153.498 E.02582
G1 X101.14 Y136.507 E.94989
G1 X100.487 Y136.507 E.02583
G1 X117.543 Y153.562 E.95351
G1 X117.385 Y153.616 E.00657
G1 X117.178 Y153.727 E.00928
G1 X117.109 Y153.782 E.00351
G1 X99.834 Y136.507 E.96581
G1 X99.18 Y136.507 E.02583
G1 X116.78 Y154.107 E.98395
G1 X116.623 Y154.37 E.0121
