; generated by PrusaSlicer 2.6.0+win64 on 2023-07-15 at 11:12:42 UTC


;
;

;
;
; TODO: check the size of the extruder and the y-bar clearance. Optimize & test supports.

; external perimeters extrusion width = 0.42mm
; perimeters extrusion width = 0.44mm
; infill extrusion width = 0.44mm
; solid infill extrusion width = 0.44mm
; top infill extrusion width = 0.44mm
; first layer extrusion width = 0.56mm

M73 P0 R60


; Pre-Processed for Cancel-Object support by preprocess_cancellation v0.2.0
; 2 known objects
EXCLUDE_OBJECT_DEFINE NAME=lrs_200_psu_bracket_x2_stl_id_0_copy_0 CENTER=151.311,163.498 POLYGON=[[117.71,153.21],[117.71,172.39],[182.29,172.39],[182.29,153.21]]
EXCLUDE_OBJECT_DEFINE NAME=lrs_200_psu_bracket_x2_stl_id_0_copy_1 CENTER=151.305,137.900 POLYGON=[[117.71,127.61],[117.71,146.79],[182.29,146.79],[182.29,127.61]]
M190 S60 ; set bed temperature and wait for it to be reached
M104 S215 ; set temperature
;TYPE:Custom
; M190 S0
; M109 S0 ; uncomment to remove set&wait temp gcode added automatically after this start gcode
print_start EXTRUDER=215 BED=60
M109 S215 ; set temperature and wait for it to be reached
G21 ; set units to millimeters
G90 ; use absolute coordinates
M83 ; use relative distances for extrusion
; Filament gcode
M107
;LAYER_CHANGE
;Z:0.2
;HEIGHT:0.2
;BEFORE_LAYER_CHANGE
;0.2
G92 E0

G1 Z.2 F18000
;AFTER_LAYER_CHANGE
;0.2
G1 E-.75 F1800
G1 Z.6 F18000
M204 S3000
G1 X117.406 Y132.082
G1 Z.2
G1 E.75 F1800
M204 S1000
;TYPE:Skirt/Brim
;WIDTH:0.56
G1 X118.014 Y131.571 E.03415
G1 X126.014 Y125.971 E.41986
G1 X128.388 Y125.155 E.10793
G1 X166.888 Y123.155 E1.65755
G1 X169.976 Y123.149 E.13277
G1 X171.832 Y123.544 E.08159
G1 X172.837 Y124.161 E.0507
G1 X182.594 Y132.082 E.54034
G1 X185.418 Y134.906 E.17171
G1 X186.451 Y136.498 E.0816
G1 X186.751 Y138.124 E.07109
G1 X186.751 Y165.476 E1.17601
G1 X186.212 Y167.624 E.09522
G1 X182.612 Y174.348 E.32793
G1 X181.228 Y175.916 E.08992
G1 X178.459 Y176.851 E.12566
G1 X119.541 Y176.851 E2.5332
G1 X116.772 Y175.916 E.12566
G1 X115.485 Y174.522 E.08157
G1 X114.849 Y172.2 E.10351
G1 X114.849 Y136.524 E1.5339
G1 X115.244 Y134.668 E.08159
G1 X116.182 Y133.306 E.0711
G1 X117.364 Y132.124 E.07187
M204 S2000
M204 S3000
G1 X117.729 Y132.49 F18000
M204 S1000
G1 F1800
G1 X118.311 Y131.995 E.03285
G1 X126.311 Y126.395 E.41986
G1 X128.415 Y125.671 E.09567
G1 X166.915 Y123.671 E1.65755
G1 X169.976 Y123.666 E.13161
G1 X171.717 Y124.061 E.07676
G1 X172.512 Y124.563 E.04043
G1 X181.912 Y132.163 E.51973
G1 X185.053 Y135.272 E.19002
G1 X186.004 Y136.782 E.07673
G1 X186.234 Y138.124 E.05854
G1 X186.234 Y165.476 E1.17601
G1 X185.757 Y167.38 E.08439
G1 X182.157 Y174.104 E.32793
G1 X180.929 Y175.494 E.07975
G1 X178.459 Y176.334 E.11217
G1 X119.541 Y176.334 E2.5332
G1 X117.071 Y175.494 E.11217
G1 X115.877 Y174.166 E.07678
G1 X115.366 Y172.2 E.08734
G1 X115.366 Y136.524 E1.5339
G1 X115.761 Y134.783 E.07676
G1 X116.547 Y133.672 E.05851
G1 X117.687 Y132.532 E.06932
M204 S2000
M204 S3000
G1 X118.052 Y132.898 F18000
M204 S1000
G1 F1800
G1 X118.607 Y132.419 E.03152
G1 X126.607 Y126.819 E.41986
G1 X128.442 Y126.188 E.08343
G1 X166.942 Y124.188 E1.65755
G1 X169.976 Y124.183 E.13045
G1 X172.187 Y124.965 E.10083
G1 X181.863 Y132.813 E.53566
G1 X184.687 Y135.637 E.17171
G1 X185.552 Y137.06 E.0716
G1 X185.717 Y138.124 E.04629
G1 X185.717 Y165.476 E1.17601
G1 X185.301 Y167.136 E.07358
G1 X181.701 Y173.86 E.32793
G1 X180.631 Y175.072 E.06951
G1 X178.459 Y175.817 E.09873
G1 X119.541 Y175.817 E2.5332
G1 X117.369 Y175.072 E.09873
G1 X116.276 Y173.816 E.07159
G1 X115.883 Y172.2 E.07151
G1 X115.883 Y136.524 E1.5339
G1 X116.277 Y134.906 E.0716
G1 X116.913 Y134.037 E.0463
G1 X118.01 Y132.94 E.0667
M204 S2000
; printing object lrs_200_psu_bracket_x2.stl id:0 copy 0
EXCLUDE_OBJECT_START NAME=lrs_200_psu_bracket_x2_stl_id_0_copy_0
G1 E-.75
G1 Z.6 F18000
M204 S3000
G1 X179.509 Y163.108
G1 Z.2
G1 E.75 F1800
M204 S1000
;TYPE:Perimeter
;WIDTH:0.66569
G1 X179.728 Y163.302 E.01515
;WIDTH:0.63046
G1 X179.946 Y163.495 E.01422
;WIDTH:0.59523
G1 X180.164 Y163.689 E.0134
;WIDTH:0.559999
G1 X180.786 Y164.31 E.03779
G1 X180.786 Y164.535 E.00967
G1 X180.786 Y164.89 E.01526
G1 X179.815 Y165.861 E.05904
G1 X179.613 Y165.886 E.00875
G1 X179.671 Y165.782 E.00512
G1 X179.7 Y165.508 E.01185
G1 X179.7 Y163.881 E.06995
;WIDTH:0.59523
G1 X179.637 Y163.623 E.0122
;WIDTH:0.63046
G1 X179.573 Y163.366 E.01294
;WIDTH:0.66569
G1 X179.524 Y163.166 E.01066
M204 S2000
G1 E-.75
G1 Z.6 F18000
M204 S3000
G1 X168.802 Y161.516
G1 Z.2
G1 E.75 F1800
M204 S1000
;WIDTH:0.47552
G1 X168.49 Y161.596 E.01159
G1 X168.17 Y161.894 E.01573
G1 X168.152 Y160.878 E.03655
;WIDTH:0.438486
M73 P0 R59
G1 X168.133 Y160.484 E.01297
G1 X168.289 Y160.821 E.01221
;WIDTH:0.47552
G1 X168.444 Y161.159 E.01338
G1 X168.759 Y161.474 E.01602
M204 S2000
G1 E-.75
G1 Z.6 F18000
M204 S3000
G1 X168.066 Y155.556
G1 Z.2
G1 E.75 F1800
M204 S1000
;WIDTH:0.503501
G1 X167.714 Y155.093 E.02227
G1 X167.411 Y154.973 E.01248
G1 X167.7 Y154.684 E.01565
G1 X168.096 Y154.682 E.01517
G1 X168.068 Y155.496 E.03119
M204 S2000
M204 S3000
G1 X170.702 Y154.442 F18000
M204 S1000
;TYPE:External perimeter
;WIDTH:0.60213
G1 F1800
G1 X170.184 Y153.934 E.03374
;WIDTH:0.606312
G1 X170.152 Y153.905 E.00202
M204 S2000
G1 E-.75
G1 Z.6 F18000
M204 S3000
G1 X168.795 Y161.993
G1 Z.2
G1 E.75 F1800
M204 S1000
;TYPE:Perimeter
;WIDTH:0.559999
G1 X169.092 Y161.917 E.01318
G1 X169.383 Y161.917 E.01251
G1 X169.556 Y161.942 E.00752
;WIDTH:0.510316
G1 X169.729 Y161.966 E.00679
;WIDTH:0.460632
G1 X169.902 Y161.991 E.00607
;WIDTH:0.410949
G1 X170.075 Y162.016 E.00535
;WIDTH:0.361266
G1 X177.219 Y162.016 E.18911
;WIDTH:0.41095
G1 X177.356 Y162.048 E.00431
;WIDTH:0.460633
G1 X177.493 Y162.08 E.00489
;WIDTH:0.510316
G1 X177.63 Y162.112 E.00547
;WIDTH:0.559999
G1 X177.768 Y162.144 E.00609
G1 X179.043 Y163.435 E.07801
G1 X179.183 Y163.881 E.0201
G1 X179.183 Y165.508 E.06995
G1 X179.166 Y165.672 E.00709
G1 X178.946 Y166.067 E.01944
G1 X178.811 Y166.096 E.00594
;WIDTH:0.510319
G1 X178.677 Y166.125 E.00533
;WIDTH:0.460638
G1 X178.542 Y166.155 E.0048
;WIDTH:0.410958
G1 X178.408 Y166.184 E.0042
;WIDTH:0.361323
G1 X169.092 Y166.184 E.24664
;WIDTH:0.405276
G1 X168.995 Y166.143 E.00317
;WIDTH:0.449228
G1 X168.898 Y166.102 E.00356
;WIDTH:0.493181
G1 X168.801 Y166.061 E.00394
;WIDTH:0.537133
G1 X168.703 Y166.019 E.00438
;WIDTH:0.581085
G1 X168.606 Y165.978 E.00471
;WIDTH:0.625038
G1 X168.509 Y165.937 E.0051
;WIDTH:0.66899
G1 X168.411 Y165.896 E.00553
;WIDTH:0.712942
G1 X168.314 Y165.855 E.00587
G1 X168.302 Y165.681 E.00972
;WIDTH:0.662952
G1 X168.29 Y165.508 E.00894
;WIDTH:0.612962
G1 X168.29 Y162.692 E.13348
;WIDTH:0.612456
G1 X168.366 Y162.481 E.01062
;WIDTH:0.586228
G1 X168.442 Y162.27 E.01013
;WIDTH:0.559999
G1 X168.737 Y162.008 E.01696
M204 S2000
M204 S3000
G1 X169.748 Y161.621 F18000
M204 S1000
;WIDTH:0.510316
G1 F1800
G1 X169.801 Y161.634 E.00212
;WIDTH:0.460632
G1 X169.938 Y161.666 E.00489
;WIDTH:0.410949
G1 X170.075 Y161.698 E.00431
;WIDTH:0.361266
G1 X177.219 Y161.698 E.18911
;WIDTH:0.41095
G1 X177.392 Y161.723 E.00535
;WIDTH:0.460633
G1 X177.565 Y161.747 E.00607
;WIDTH:0.510316
G1 X177.738 Y161.772 E.00679
;WIDTH:0.559999
G1 X177.911 Y161.797 E.00752
G1 X179.004 Y161.797 E.04699
G1 X181.303 Y164.096 E.13979
G1 X181.303 Y164.535 E.01887
G1 X181.303 Y165.104 E.02446
G1 X180.004 Y166.403 E.07899
G1 X179.081 Y166.403 E.03968
G1 X178.913 Y166.428 E.0073
;WIDTH:0.510319
G1 X178.744 Y166.453 E.00664
;WIDTH:0.460638
G1 X178.576 Y166.477 E.00589
;WIDTH:0.410957
G1 X178.408 Y166.502 E.0052
;WIDTH:0.361323
G1 X169.092 Y166.502 E.24664
;WIDTH:0.405276
G1 X168.957 Y166.48 E.00412
;WIDTH:0.449228
G1 X168.821 Y166.458 E.00465
;WIDTH:0.493181
G1 X168.686 Y166.436 E.00512
;WIDTH:0.537133
G1 X168.55 Y166.414 E.00566
;WIDTH:0.581085
G1 X168.415 Y166.393 E.00611
;WIDTH:0.625038
G1 X168.279 Y166.371 E.00667
;WIDTH:0.66899
G1 X168.144 Y166.349 E.00712
;WIDTH:0.712942
G1 X168.008 Y166.327 E.00768
G1 X167.296 Y166.335 E.03967
G1 X167.5 Y166.144 E.01557
G1 X167.683 Y165.898 E.01708
G1 X167.702 Y165.71 E.01053
;WIDTH:0.662978
G1 X167.72 Y165.522 E.00974
;WIDTH:0.613013
G1 X167.721 Y162.692 E.13415
;WIDTH:0.612456
G1 X167.708 Y162.371 E.01521
;WIDTH:0.586228
G1 X167.695 Y162.049 E.01456
;WIDTH:0.559999
G1 X167.697 Y156.079 E.25668
G1 X167.644 Y155.796 E.01238
G1 X167.407 Y155.474 E.01719
G1 X166.921 Y155.303 E.02215
G1 X166.647 Y155.303 E.01178
G1 X166.647 Y155.046 E.01105
G1 X167.497 Y154.196 E.05168
G1 X168.788 Y154.172 E.05552
G1 X168.689 Y154.282 E.00636
G1 X168.587 Y154.64 E.016
G1 X168.553 Y155.625 E.04238
G1 X168.565 Y160.408 E.20565
G1 X168.78 Y160.823 E.0201
G1 X169.527 Y161.57 E.04542
G1 X169.664 Y161.602 E.00605
;WIDTH:0.510316
G1 X169.69 Y161.608 E.00104
M204 S2000
G1 E-.75
G1 Z.6 F18000
M204 S3000
G1 X178.772 Y162.357
G1 Z.2
G1 E.75 F1800
M204 S1000
;WIDTH:0.645452
G1 X179.352 Y162.937 E.04109
;WIDTH:0.66569
G1 X179.509 Y163.108 E.01202
M204 S2000
M204 S3000
G1 X178.666 Y165.508 F18000
M204 S1000
;TYPE:External perimeter
;WIDTH:0.559999
G1 F1800
G1 X178.587 Y165.694 E.00869
G1 X178.408 Y165.766 E.0083
G1 X169.092 Y165.766 E.40054
G1 X168.856 Y165.613 E.01209
G1 X168.834 Y165.508 E.00461
G1 X168.834 Y162.692 E.12107
G1 X168.875 Y162.552 E.00627
G1 X168.968 Y162.466 E.00545
G1 X169.383 Y162.434 E.0179
G1 X177.219 Y162.434 E.33691
G1 X177.402 Y162.509 E.0085
G1 X178.591 Y163.698 E.0723
G1 X178.666 Y163.881 E.0085
G1 X178.666 Y165.448 E.06737
M204 S2000
G1 X178.81 Y165.65 F18000
G1 E-.75 F1800
G1 Z.6 F18000
M204 S3000
G1 X168.125 Y156.079
G1 Z.2
G1 E.75 F1800
M204 S1000
;TYPE:Perimeter
;WIDTH:0.381994
G1 X168.125 Y156.079 E0
;WIDTH:0.3832
G1 X168.124 Y160.274 E.11869
;WIDTH:0.401452
G1 X168.133 Y160.484 E.00627
M204 S2000
G1 E-.75
G1 Z.6 F18000
M204 S3000
G1 X164.308 Y159.272
G1 Z.2
G1 E.75 F1800
M204 S1000
;WIDTH:0.474805
G1 X164.328 Y159.683 E.01478
G1 X163.825 Y159.703 E.01808
;WIDTH:0.506247
G1 X163.571 Y159.74 E.00989
;WIDTH:0.537688
G1 X163.316 Y159.777 E.0106
;WIDTH:0.582383
G1 X163.212 Y159.829 E.00522
;WIDTH:0.627077
G1 X163.107 Y159.881 E.00569
;WIDTH:0.671772
G1 X163.003 Y159.933 E.00608
;WIDTH:0.716466
G1 X162.898 Y159.985 E.00656
;WIDTH:0.761161
G1 X162.793 Y160.036 E.00697
;WIDTH:0.805854
G1 X162.689 Y160.088 E.00738
G1 X160.215 Y162.562 E.22196
G1 X160.173 Y162.638 E.00551
;WIDTH:0.756683
G1 X160.132 Y162.715 E.00518
;WIDTH:0.707512
G1 X160.09 Y162.791 E.0048
;WIDTH:0.658341
G1 X160.048 Y162.868 E.00449
;WIDTH:0.60917
G1 X160.006 Y162.945 E.00413
;WIDTH:0.559999
G1 X158.821 Y164.13 E.07205
G1 X158.53 Y164.577 E.02293
G1 X158.452 Y164.884 E.01362
G1 X158.456 Y165.235 E.01509
G1 X158.542 Y165.542 E.01371
G1 X159.052 Y166.766 E.05701
G1 X159.335 Y167.187 E.02181
G1 X159.53 Y167.284 E.00936
G1 X157.781 Y169.035 E.10641
G1 X157.566 Y169.393 E.01795
G1 X157.476 Y169.807 E.01822
G1 X157.572 Y170.366 E.02439
G1 X157.635 Y170.516 E.007
G1 X157.921 Y170.886 E.02011
G1 X153.631 Y170.886 E.18445
G1 X155.328 Y169.189 E.10319
G1 X155.44 Y169.06 E.00735
G1 X155.64 Y168.686 E.01824
G1 X155.707 Y168.275 E.0179
G1 X155.707 Y165.507 E.11901
G1 X155.659 Y165.092 E.01796
G1 X155.537 Y164.799 E.01365
G1 X155.328 Y164.525 E.01482
G1 X153.581 Y162.778 E.10623
;WIDTH:0.602727
G1 X153.124 Y162.568 E.02341
;WIDTH:0.645454
G1 X152.667 Y162.357 E.02522
G1 X153.22 Y162.336 E.02773
;WIDTH:0.602727
G1 X153.774 Y162.314 E.02581
;WIDTH:0.559999
G1 X158.675 Y162.314 E.21072
G1 X159.15 Y162.223 E.02079
;WIDTH:0.60917
G1 X159.255 Y162.183 E.00529
;WIDTH:0.658341
G1 X159.36 Y162.143 E.00575
;WIDTH:0.707512
G1 X159.466 Y162.103 E.00626
;WIDTH:0.756683
G1 X159.571 Y162.063 E.00667
;WIDTH:0.805855
G1 X159.676 Y162.022 E.00715
G1 X162.261 Y159.437 E.23191
G1 X162.436 Y159.417 E.01117
;WIDTH:0.766097
G1 X162.611 Y159.397 E.01059
;WIDTH:0.726338
G1 X162.803 Y159.373 E.011
;WIDTH:0.678253
G1 X162.995 Y159.349 E.01022
;WIDTH:0.630168
G1 X163.186 Y159.325 E.0094
;WIDTH:0.582083
G1 X163.378 Y159.301 E.00867
;WIDTH:0.533998
G1 X163.57 Y159.277 E.0079
;WIDTH:0.485913
G1 X164.248 Y159.272 E.02497
M204 S2000
G1 E-.75
G1 Z.6 F18000
M204 S3000
G1 X139.325 Y162.357
G1 Z.2
G1 E.75 F1800
M204 S1000
;WIDTH:0.645454
G1 X139.205 Y162.382 E.00614
;WIDTH:0.595768
G1 X139.084 Y162.407 E.00568
;WIDTH:0.546082
G1 X138.963 Y162.431 E.00516
;WIDTH:0.496396
G1 X138.842 Y162.456 E.00466
;WIDTH:0.44671
G1 X138.721 Y162.481 E.00415
;WIDTH:0.397024
G1 X138.522 Y162.299 E.00794
;WIDTH:0.408884
G1 X138.491 Y162.236 E.00214
;WIDTH:0.456198
G1 X138.46 Y162.173 E.00241
;WIDTH:0.503511
G1 X138.429 Y162.11 E.00269
;WIDTH:0.550825
G1 X138.398 Y162.047 E.00297
;WIDTH:0.598139
G1 X138.367 Y161.984 E.00324
;WIDTH:0.645452
G1 X138.336 Y161.921 E.00352
G1 X138.398 Y161.949 E.00341
;WIDTH:0.597609
G1 X138.491 Y161.987 E.00463
;WIDTH:0.557492
G1 X138.584 Y162.025 E.0043
;WIDTH:0.517375
G1 X138.676 Y162.064 E.00394
;WIDTH:0.477258
G1 X138.769 Y162.102 E.00363
;WIDTH:0.437141
G1 X138.862 Y162.14 E.00329
;WIDTH:0.44671
G1 X138.955 Y162.184 E.00345
;WIDTH:0.496396
G1 X139.047 Y162.227 E.00383
;WIDTH:0.546082
G1 X139.14 Y162.27 E.00429
;WIDTH:0.595768
G1 X139.233 Y162.314 E.00473
;WIDTH:0.645454
G1 X139.271 Y162.331 E.00209
M204 S2000
G1 E-.75
G1 Z.6 F18000
M204 S3000
G1 X136.163 Y159.748
G1 Z.2
G1 E.75 F1800
M204 S1000
;WIDTH:0.645452
G1 X136.067 Y159.713 E.00512
;WIDTH:0.595767
G1 X135.971 Y159.678 E.0047
;WIDTH:0.546081
G1 X135.875 Y159.643 E.00428
;WIDTH:0.496396
G1 X135.779 Y159.608 E.00385
;WIDTH:0.44671
G1 X135.59 Y159.53 E.00686
;WIDTH:0.496396
G1 X135.497 Y159.487 E.00386
;WIDTH:0.546082
G1 X135.405 Y159.443 E.00427
;WIDTH:0.595768
G1 X135.312 Y159.4 E.00471
;WIDTH:0.645454
G1 X135.219 Y159.357 E.00513
G1 X135.34 Y159.332 E.00619
;WIDTH:0.595768
G1 X135.461 Y159.307 E.00568
;WIDTH:0.546082
G1 X135.582 Y159.282 E.00517
;WIDTH:0.496396
G1 X135.703 Y159.258 E.00465
;WIDTH:0.44671
G1 X135.824 Y159.233 E.00415
;WIDTH:0.397024
G1 X135.876 Y159.285 E.00217
;WIDTH:0.44671
G1 X135.933 Y159.377 E.00363
;WIDTH:0.496396
G1 X135.991 Y159.47 E.00413
;WIDTH:0.546081
G1 X136.048 Y159.563 E.00456
;WIDTH:0.595767
G1 X136.106 Y159.655 E.005
;WIDTH:0.645452
G1 X136.132 Y159.697 E.00247
M204 S2000
G1 E-.75
G1 Z.6 F18000
M204 S3000
G1 X131.107 Y159.367
G1 Z.2
G1 E.75 F1800
M204 S1000
;WIDTH:0.66569
G1 X130.967 Y159.437 E.00811
;WIDTH:0.63046
G1 X130.827 Y159.506 E.00763
;WIDTH:0.59523
G1 X130.688 Y159.576 E.00715
;WIDTH:0.559999
G1 X130.425 Y159.778 E.01426
G1 X129.719 Y160.484 E.04293
G1 X129.608 Y160.663 E.00906
;WIDTH:0.515593
G1 X129.496 Y160.842 E.0083
;WIDTH:0.505437
G1 X129.428 Y161.025 E.00751
;WIDTH:0.539687
G1 X129.361 Y161.208 E.00805
;WIDTH:0.573937
G1 X129.294 Y161.391 E.0086
;WIDTH:0.617563
G1 X129.272 Y161.495 E.00508
;WIDTH:0.661189
G1 X129.25 Y161.598 E.00541
;WIDTH:0.704815
G1 X129.228 Y161.702 E.00585
;WIDTH:0.748441
G1 X129.206 Y161.805 E.00618
;WIDTH:0.792067
G1 X129.184 Y161.909 E.00662
G1 X129.184 Y162.284 E.02336
G1 X128.809 Y162.284 E.02336
G1 X128.703 Y162.305 E.00673
;WIDTH:0.748316
G1 X128.598 Y162.327 E.00629
;WIDTH:0.704564
G1 X128.492 Y162.349 E.00596
;WIDTH:0.660813
G1 X128.386 Y162.371 E.00556
;WIDTH:0.617061
G1 X128.281 Y162.393 E.00512
;WIDTH:0.573309
G1 X127.931 Y162.445 E.01561
;WIDTH:0.530018
G1 X127.582 Y162.497 E.01429
;WIDTH:0.486727
G1 X127.232 Y162.55 E.01306
;WIDTH:0.48229
G1 X127.083 Y162.626 E.00611
;WIDTH:0.521145
G1 X126.934 Y162.702 E.00665
;WIDTH:0.559999
G1 X126.785 Y162.778 E.00719
G1 X125.038 Y164.525 E.10623
G1 X124.85 Y164.764 E.01307
G1 X124.734 Y165.007 E.01158
G1 X124.659 Y165.439 E.01885
G1 X124.659 Y168.275 E.12193
G1 X124.679 Y168.498 E.00963
G1 X124.799 Y168.858 E.01632
G1 X125.038 Y169.189 E.01755
G1 X126.735 Y170.886 E.10319
G1 X120.814 Y170.886 E.25458
G1 X120.814 Y162.71 E.35153
G1 X121.21 Y162.314 E.02408
G1 X126.593 Y162.314 E.23144
G1 X126.787 Y162.295 E.00838
;WIDTH:0.521145
G1 X126.981 Y162.275 E.00776
;WIDTH:0.48229
G1 X127.175 Y162.256 E.00712
;WIDTH:0.443435
G1 X127.632 Y162.142 E.01569
;WIDTH:0.440076
G1 X127.748 Y162.092 E.00417
;WIDTH:0.484487
G1 X127.863 Y162.041 E.00462
;WIDTH:0.528898
G1 X127.978 Y161.991 E.00507
