; HEADER_BLOCK_START
; generated by OrcaSlicer 1.6.3 on 2023-07-18 at 06:11:56
; total layer number: 32
; HEADER_BLOCK_END

; THUMBNAIL_BLOCK_START
; THUMBNAIL_BLOCK_END

; external perimeters extrusion width = 0.40mm
; perimeters extrusion width = 0.45mm
; infill extrusion width = 0.45mm
; solid infill extrusion width = 0.40mm
; top infill extrusion width = 0.40mm
; first layer extrusion width = 0.50mm

; EXECUTABLE_BLOCK_START
EXCLUDE_OBJECT_DEFINE NAME=OrcaToleranceTest.stl_id_0_copy_0 CENTER=150,150 POLYGON=[[121.032,146.2],[124.032,143.2],[125.336,142.8],[174.083,142.8],[175.968,143.2],[178.968,146.2],[178.968,154.2],[175.968,157.2],[124.032,157.2],[121.032,154.2],[121.032,146.2]]
M73 P0 R14
;TYPE:Custom
M104 S0 ; Stops OrcaSlicer from sending temp waits separately
M140 S0
print_start EXTRUDER=220 BED=60 


;CHAMBER=0
G90
G21
M83 ; use relative distances for extrusion
; filament start gcode
SET_PRESSURE_ADVANCE ADVANCE=0.032; Override pressure advance value
M106 S0
;LAYER_CHANGE
;Z:0.2
;HEIGHT:0.2
;BEFORE_LAYER_CHANGE
;0.2
G92 E0

G1 E-.8 F1800
G1 Z.4 F21000
;AFTER_LAYER_CHANGE
;0.2
M204 S500
; printing object OrcaToleranceTest.stl id:0 copy 0
EXCLUDE_OBJECT_START NAME=OrcaToleranceTest.stl_id_0_copy_0
G1 X124.514 Y144.664
G1 Z.2
G1 E.8 F1800
;TYPE:Inner wall
;WIDTH:0.499999
G1 F3000
G1 X175.486 Y144.664 E1.91788
G1 X177.504 Y146.682 E.10738
G1 X177.504 Y147.062 E.0143
G1 X177.504 Y150.3 E.12181
G1 X176.18 Y148.007 E.09961
G1 X175.965 Y147.738 E.01299
G1 X175.59 Y147.508 E.01653
G1 X175.191 Y147.436 E.01527
G1 X170.894 Y147.436 E.16169
G1 X170.488 Y147.51 E.01551
G1 X170.155 Y147.707 E.01456
G1 X169.904 Y148.007 E.01473
G1 X168.116 Y151.104 E.13454
G1 X166.386 Y148.107 E.13019
G1 X166.111 Y147.787 E.0159
G1 X165.786 Y147.604 E.01403
G1 X165.397 Y147.536 E.01487
G1 X161.215 Y147.536 E.15734
G1 X160.824 Y147.605 E.01492
G1 X160.498 Y147.788 E.01407
G1 X160.225 Y148.107 E.0158
G1 X158.495 Y151.104 E.13019
G1 X156.823 Y148.207 E.12585
G1 X156.524 Y147.869 E.01698
G1 X156.207 Y147.699 E.01353
G1 X155.833 Y147.636 E.01428
G1 X151.767 Y147.636 E.153
G1 X151.391 Y147.7 E.01436
G1 X151.073 Y147.871 E.0136
G1 X150.777 Y148.207 E.01683
G1 X149.105 Y151.104 E.12585
G1 X147.491 Y148.307 E.1215
G1 X147.169 Y147.952 E.01803
G1 X146.861 Y147.794 E.01304
G1 X146.501 Y147.736 E.01371
G1 X142.55 Y147.736 E.14865
G1 X142.189 Y147.795 E.01378
G1 X141.879 Y147.954 E.01311
G1 X141.561 Y148.307 E.01789
G1 X139.946 Y151.104 E.1215
G1 X138.349 Y148.338 E.12016
G1 X138.029 Y147.994 E.01768
G1 X137.724 Y147.842 E.01283
G1 X137.371 Y147.786 E.01345
G1 X133.478 Y147.786 E.14648
G1 X133.28 Y147.803 E.00746
G1 X132.823 Y147.992 E.01861
G1 X132.595 Y148.202 E.01167
G1 X132.488 Y148.357 E.00708
G1 X130.931 Y151.054 E.11716
G1 X129.336 Y148.305 E.11958
G1 X129.054 Y148.032 E.01475
G1 X128.756 Y147.888 E.01246
G1 X128.414 Y147.836 E.01304
G1 X124.578 Y147.836 E.14431
G1 X124.013 Y147.985 E.02199
G1 X123.589 Y148.407 E.02252
G1 X122.496 Y150.3 E.08223
G1 X122.496 Y146.682 E.13612
G1 X124.472 Y144.707 E.10513
G1 E-.56 F1800
;WIPE_START
G1 F3000
G1 X126.472 Y144.705 E-.228
;WIPE_END
G1 E-.012 F1800
G1 Z.6 F21000
G1 X175.612 Y148.048 Z.2
G1 E.8 F1800
G1 F3000
G1 X175.43 Y147.936 E.00803
G1 X175.191 Y147.893 E.00916
G1 X170.894 Y147.893 E.16169
G1 X170.775 Y147.903 E.00447
G1 X170.45 Y148.055 E.01349
G1 X170.242 Y148.336 E.01314
G1 X168.162 Y151.963 E.15734
;WIDTH:0.474979
G1 X168.139 Y152.104 E.00507
;WIDTH:0.433081
G1 X168.116 Y152.245 E.00458
G1 X168.093 Y152.104 E.00458
;WIDTH:0.474979
G1 X168.07 Y151.963 E.00507
;WIDTH:0.499999
G1 X165.99 Y148.336 E.15734
G1 X165.825 Y148.143 E.00954
G1 X165.63 Y148.034 E.00842
G1 X165.397 Y147.993 E.00892
G1 X161.215 Y147.993 E.15734
G1 X161.096 Y148.003 E.00447
G1 X160.785 Y148.144 E.01287
G1 X160.563 Y148.436 E.01377
G1 X158.541 Y151.963 E.153
;WIDTH:0.474979
G1 X158.518 Y152.104 E.00507
;WIDTH:0.433081
G1 X158.495 Y152.245 E.00458
G1 X158.472 Y152.104 E.00458
;WIDTH:0.474979
G1 X158.449 Y151.963 E.00507
;WIDTH:0.499999
G1 X156.427 Y148.436 E.153
G1 X156.248 Y148.233 E.01019
G1 X156.058 Y148.131 E.00812
G1 X155.833 Y148.093 E.00857
G1 X151.767 Y148.093 E.153
G1 X151.649 Y148.103 E.00447
G1 X151.35 Y148.234 E.01225
G1 X151.116 Y148.536 E.01438
G1 X149.151 Y151.963 E.14865
;WIDTH:0.474979
G1 X149.128 Y152.104 E.00507
;WIDTH:0.433081
G1 X149.105 Y152.245 E.00458
G1 X149.082 Y152.104 E.00458
;WIDTH:0.474979
G1 X149.059 Y151.963 E.00507
;WIDTH:0.499999
G1 X147.095 Y148.536 E.14865
G1 X146.902 Y148.322 E.01082
G1 X146.717 Y148.228 E.00783
G1 X146.501 Y148.193 E.00822
G1 X142.55 Y148.193 E.14865
G1 X142.432 Y148.203 E.00447
G1 X142.147 Y148.324 E.01162
G1 X141.928 Y148.586 E.01287
G1 X139.992 Y151.963 E.14648
;WIDTH:0.474978
G1 X139.969 Y152.104 E.00507
;WIDTH:0.433079
G1 X139.946 Y152.245 E.00458
G1 X139.923 Y152.104 E.00458
;WIDTH:0.474978
G1 X139.9 Y151.963 E.00507
;WIDTH:0.499999
G1 X137.964 Y148.586 E.14648
G1 X137.765 Y148.368 E.0111
G1 X137.583 Y148.276 E.0077
G1 X137.371 Y148.243 E.00807
G1 X133.478 Y148.243 E.14648
G1 X133.359 Y148.253 E.00447
G1 X133.085 Y148.367 E.01117
G1 X132.884 Y148.586 E.01119
G1 X130.937 Y151.957 E.14648
G1 X129.007 Y148.636 E.14454
M73 P1 R14
G1 X128.798 Y148.411 E.01156
G1 X128.619 Y148.324 E.00748
G1 X128.414 Y148.293 E.00782
G1 X124.578 Y148.293 E.14431
G1 X124.239 Y148.383 E.01319
G1 X123.985 Y148.636 E.01351
G1 X122.07 Y151.959 E.14431
;WIDTH:0.492561
G1 X122.039 Y152.13 E.00642
;WIDTH:0.464336
G1 X122.007 Y152.3 E.00601
G1 X122.021 Y152.125 E.0061
;WIDTH:0.492561
G1 X122.035 Y151.95 E.0065
;WIDTH:0.499999
G1 X122.039 Y146.493 E.20532
G1 X124.325 Y144.207 E.12163
G1 X175.675 Y144.207 E1.93213
G1 X177.961 Y146.493 E.12163
G1 X177.961 Y147.062 E.02143
G1 X177.965 Y151.95 E.18389
;WIDTH:0.49256
G1 X177.979 Y152.125 E.0065
;WIDTH:0.464334
G1 X177.993 Y152.3 E.0061
G1 X177.961 Y152.13 E.00601
;WIDTH:0.49256
G1 X177.93 Y151.959 E.00642
;WIDTH:0.499999
G1 X175.785 Y148.236 E.16169
G1 X175.661 Y148.082 E.00742
G1 E-.56 F1800
;WIPE_START
G1 F3000
G1 X175.43 Y147.936 E-.03112
G1 X175.191 Y147.893 E-.02777
G1 X173.707 Y147.893 E-.16912
;WIPE_END
G1 E-.012 F1800
G1 Z.6 F21000
G1 X176.373 Y155.433 Z.2
G1 E.8 F1800
;WIDTH:0.588069
G1 F3000
G1 X177.917 Y152.759 E.13856
G1 X177.917 Y153.889 E.05072
G1 X176.416 Y155.39 E.09529
G1 E-.56 F1800
;WIPE_START
G1 F3000
G1 X177.407 Y153.653 E-.228
;WIPE_END
G1 E-.012 F1800
G1 Z.6 F21000
G1 X168.116 Y153.496 Z.2
G1 E.8 F1800
;WIDTH:0.499999
G1 F3000
G1 X169.409 Y155.736 E.0973
G1 X166.823 Y155.736 E.0973
G1 X168.086 Y153.548 E.09505
G1 E-.56 F1800
;WIPE_START
G1 F3000
G1 X169.121 Y155.26 E-.228
;WIPE_END
G1 E-.012 F1800
G1 Z.6 F21000
G1 X168.116 Y152.355 Z.2
G1 E.8 F1800
;WIDTH:0.433081
G1 F3000
G1 X168.139 Y152.496 E.00458
;WIDTH:0.474979
G1 X168.162 Y152.637 E.00507
;WIDTH:0.499999
G1 X170.201 Y156.193 E.15424
G1 X166.032 Y156.193 E.15688
G1 X168.07 Y152.637 E.15424
;WIDTH:0.474979
G1 X168.093 Y152.496 E.00507
;WIDTH:0.433081
G1 X168.107 Y152.414 E.00265
G1 E-.56 F1800
;WIPE_START
G1 F3000
G1 X168.139 Y152.496 E-.01001
G1 X168.162 Y152.637 E-.01626
G1 X169.042 Y154.172 E-.20173
;WIPE_END
G1 E-.012 F1800
G1 Z.6 F21000
G1 X158.495 Y153.496 Z.2
G1 E.8 F1800
;WIDTH:0.499999
G1 F3000
G1 X159.788 Y155.736 E.0973
G1 X157.202 Y155.736 E.0973
G1 X158.465 Y153.548 E.09505
G1 E-.56 F1800
;WIPE_START
G1 F3000
G1 X159.5 Y155.26 E-.228
;WIPE_END
G1 E-.012 F1800
G1 Z.6 F21000
G1 X158.495 Y152.355 Z.2
G1 E.8 F1800
;WIDTH:0.433081
G1 F3000
G1 X158.518 Y152.496 E.00458
;WIDTH:0.474979
G1 X158.541 Y152.637 E.00507
;WIDTH:0.499999
G1 X160.58 Y156.193 E.15424
G1 X156.386 Y156.193 E.1578
G1 X156.427 Y156.164 E.00188
G1 X158.449 Y152.637 E.153
;WIDTH:0.474979
G1 X158.472 Y152.496 E.00507
;WIDTH:0.433081
G1 X158.486 Y152.414 E.00265
G1 E-.56 F1800
;WIPE_START
G1 F3000
G1 X158.518 Y152.496 E-.01001
G1 X158.541 Y152.637 E-.01626
G1 X159.421 Y154.172 E-.20173
;WIPE_END
G1 E-.012 F1800
G1 Z.6 F21000
G1 X147.812 Y155.736 Z.2
G1 E.8 F1800
;WIDTH:0.499999
G1 F3000
G1 X149.105 Y153.496 E.0973
G1 X150.398 Y155.736 E.0973
G1 X147.872 Y155.736 E.09505
G1 E-.56 F1800
;WIPE_START
G1 F3000
G1 X148.837 Y153.984 E-.228
;WIPE_END
G1 E-.012 F1800
G1 Z.6 F21000
G1 X149.105 Y152.355 Z.2
G1 E.8 F1800
;WIDTH:0.433081
G1 F3000
G1 X149.128 Y152.496 E.00458
;WIDTH:0.474979
G1 X149.151 Y152.637 E.00507
;WIDTH:0.499999
G1 X151.173 Y156.164 E.153
G1 X151.223 Y156.193 E.00216
G1 X146.911 Y156.193 E.16225
G1 X147.095 Y156.064 E.00844
G1 X149.059 Y152.637 E.14865
;WIDTH:0.474979
G1 X149.082 Y152.496 E.00507
;WIDTH:0.433081
G1 X149.095 Y152.414 E.00265
G1 E-.56 F1800
;WIPE_START
G1 F3000
G1 X149.128 Y152.496 E-.01001
G1 X149.151 Y152.637 E-.01626
G1 X150.031 Y154.172 E-.20173
;WIPE_END
G1 E-.012 F1800
G1 Z.6 F21000
G1 X139.946 Y153.496 Z.2
G1 E.8 F1800
;WIDTH:0.499999
G1 F3000
G1 X141.239 Y155.736 E.0973
G1 X138.653 Y155.736 E.0973
M73 P2 R14
G1 X139.916 Y153.548 E.09505
G1 E-.56 F1800
;WIPE_START
G1 F3000
G1 X140.951 Y155.26 E-.228
;WIPE_END
G1 E-.012 F1800
G1 Z.6 F21000
G1 X139.946 Y152.355 Z.2
G1 E.8 F1800
;WIDTH:0.433079
G1 F3000
G1 X139.969 Y152.496 E.00458
;WIDTH:0.474978
G1 X139.992 Y152.637 E.00507
;WIDTH:0.499999
G1 X141.956 Y156.064 E.14865
G1 X142.179 Y156.193 E.00968
G1 X137.709 Y156.193 E.1682
G1 X137.964 Y156.014 E.01173
G1 X139.9 Y152.637 E.14648
;WIDTH:0.474978
G1 X139.923 Y152.496 E.00507
;WIDTH:0.433079
G1 X139.936 Y152.414 E.00265
G1 E-.56 F1800
;WIPE_START
G1 F3000
G1 X139.969 Y152.496 E-.01001
G1 X139.992 Y152.637 E-.01626
G1 X140.872 Y154.172 E-.20173
;WIPE_END
G1 E-.012 F1800
G1 Z.6 F21000
G1 X129.667 Y155.736 Z.2
G1 E.8 F1800
;WIDTH:0.499999
G1 F3000
G1 X130.931 Y153.546 E.09513
G1 X132.195 Y155.736 E.09513
G1 X129.727 Y155.736 E.09287
G1 E-.56 F1800
;WIPE_START
G1 F3000
G1 X130.691 Y153.983 E-.228
;WIPE_END
G1 E-.012 F1800
G1 Z.6 F21000
G1 X128.523 Y156.245 Z.2
G1 E.8 F1800
;WIDTH:0.430244
G1 F3000
G1 X128.684 Y156.152 E.00595
;WIDTH:0.465122
G1 X128.846 Y156.058 E.00649
;WIDTH:0.499999
G1 X129.007 Y155.964 E.00702
G1 X130.937 Y152.643 E.14454
G1 X132.884 Y156.014 E.14648
G1 X133.193 Y156.193 E.01344
G1 X129.139 Y156.193 E.15253
G1 X128.934 Y156.21 E.00776
;WIDTH:0.465122
G1 X128.728 Y156.228 E.00717
;WIDTH:0.430244
G1 X128.583 Y156.24 E.00466
G1 E-.56 F1800
;WIPE_START
G1 F3000
G1 X128.684 Y156.152 E-.01537
G1 X128.846 Y156.058 E-.02128
G1 X129.007 Y155.964 E-.02128
G1 X129.757 Y154.674 E-.17007
;WIPE_END
G1 E-.012 F1800
G1 Z.6 F21000
G1 X122.083 Y152.759 Z.2
G1 E.8 F1800
;WIDTH:0.58807
G1 F3000
G1 X122.592 Y153.64 E.04565
G1 X122.948 Y154.216 E.03041
;WIDTH:0.545994
G1 X123.305 Y154.792 E.02807
;WIDTH:0.503917
G1 X123.662 Y155.368 E.02572
;WIDTH:0.461841
G1 X124.019 Y155.944 E.02337
G1 X123.555 Y155.45 E.02337
;WIDTH:0.503917
G1 X123.091 Y154.956 E.02572
;WIDTH:0.545994
G1 X122.627 Y154.463 E.02807
;WIDTH:0.58807
G1 X122.083 Y153.889 E.03548
G1 X122.083 Y152.819 E.04802
G1 X122.463 Y152.186 F21000
;TYPE:Outer wall
;WIDTH:0.499999
G1 F3000
G1 X124.38 Y148.864 E.14431
G1 X124.465 Y148.78 E.0045
G1 X124.578 Y148.75 E.0044
G1 X128.414 Y148.75 E.14431
G1 X128.587 Y148.83 E.00719
G1 X130.529 Y152.186 E.14589
;WIDTH:0.54762
G1 X130.563 Y152.224 E.00212
;WIDTH:0.59524
G1 X130.597 Y152.262 E.00232
;WIDTH:0.64286
G1 X130.631 Y152.3 E.00252
G1 X130.597 Y152.338 E.00252
;WIDTH:0.59524
G1 X130.563 Y152.376 E.00232
;WIDTH:0.54762
G1 X130.529 Y152.414 E.00212
;WIDTH:0.499999
G1 X128.611 Y155.736 E.14431
G1 X128.414 Y155.85 E.0086
G1 X124.578 Y155.85 E.14431
G1 X124.417 Y155.783 E.00658
G1 X124.38 Y155.736 E.00224
G1 X122.463 Y152.414 E.14431
G1 X122.432 Y152.3 E.00445
G1 X122.447 Y152.244 E.00219
G1 X122.012 Y152.414 F21000
;TYPE:Inner wall
;WIDTH:0.446016
G1 F3000
G1 X122.007 Y152.3 E.00378
G1 E-.56 F1800
;WIPE_START
G1 F3000
G1 X122.012 Y152.414 E-.228
;WIPE_END
G1 E-.012 F1800
G1 Z.6 F21000
G1 X137.569 Y148.814 Z.2
G1 E.8 F1800
;TYPE:Outer wall
;WIDTH:0.499999
G1 F3000
G1 X139.515 Y152.186 E.14648
G1 X139.545 Y152.32 E.00517
G1 X139.515 Y152.414 E.00372
G1 X137.569 Y155.786 E.14648
;WIDTH:0.537758
G1 X137.532 Y155.832 E.0024
;WIDTH:0.575516
G1 X137.496 Y155.878 E.00258
;WIDTH:0.613275
G1 X137.46 Y155.925 E.00276
;WIDTH:0.651033
G1 X137.423 Y155.971 E.00295
G1 X137.371 Y155.973 E.00263
;WIDTH:0.64646
G1 X133.478 Y155.973 E.19342
G1 X133.412 Y155.911 E.00452
;WIDTH:0.59764
G1 X133.346 Y155.848 E.00415
;WIDTH:0.54882
G1 X133.28 Y155.786 E.00378
;WIDTH:0.499999
G1 X131.333 Y152.414 E.14648
;WIDTH:0.54762
G1 X131.299 Y152.376 E.00212
;WIDTH:0.59524
G1 X131.265 Y152.338 E.00232
;WIDTH:0.64286
G1 X131.231 Y152.3 E.00252
G1 X131.265 Y152.262 E.00252
;WIDTH:0.59524
G1 X131.299 Y152.224 E.00232
;WIDTH:0.54762
G1 X131.333 Y152.186 E.00212
;WIDTH:0.499999
G1 X133.28 Y148.814 E.14648
G1 X133.407 Y148.711 E.00618
G1 X137.371 Y148.7 E.14912
G1 X137.502 Y148.742 E.00519
G1 X137.528 Y148.77 E.00144
G1 X137.647 Y148.8
G1 E-.56 F1800
;WIPE_START
G1 F3000
G1 X138.534 Y150.499 E-.228
;WIPE_END
G1 E-.012 F1800
G1 Z.6 F21000
G1 X146.501 Y148.65 Z.2
G1 E.8 F1800
G1 F3000
G1 X146.635 Y148.693 E.00529
G1 X146.699 Y148.764 E.00361
G1 X148.674 Y152.186 E.14865
G1 X148.704 Y152.32 E.00517
G1 X148.674 Y152.414 E.00372
G1 X146.699 Y155.836 E.14865
;WIDTH:0.541948
G1 X146.65 Y155.893 E.00311
;WIDTH:0.583896
G1 X146.6 Y155.951 E.00337
;WIDTH:0.625844
G1 X146.551 Y156.009 E.00363
G1 X146.501 Y156.011 E.00242
;WIDTH:0.62146
G1 X142.55 Y156.011 E.18815
G1 X142.484 Y155.952 E.00419
;WIDTH:0.580973
G1 X142.418 Y155.894 E.0039
;WIDTH:0.540486
G1 X142.352 Y155.836 E.00361
;WIDTH:0.499999
G1 X140.377 Y152.414 E.14865
G1 X140.347 Y152.28 E.00517
G1 X140.377 Y152.186 E.00372
G1 X142.352 Y148.764 E.14865
G1 X142.478 Y148.662 E.0061
G1 X146.441 Y148.65 E.14912
G1 X146.519 Y148.629
G1 E-.56 F1800
;WIPE_START
G1 F3000
G1 X146.635 Y148.693 E-.02262
G1 X146.699 Y148.764 E-.01092
G1 X147.552 Y150.242 E-.19446
;WIPE_END
G1 E-.012 F1800
G1 Z.6 F21000
G1 X155.833 Y148.55 Z.2
G1 E.8 F1800
G1 F3000
G1 X155.972 Y148.597 E.00549
G1 X156.031 Y148.664 E.0034
G1 X158.064 Y152.186 E.153
G1 X158.094 Y152.32 E.00517
G1 X158.064 Y152.414 E.00372
G1 X156.031 Y155.936 E.153
;WIDTH:0.537732
G1 X155.955 Y156.01 E.00432
;WIDTH:0.575465
G1 X155.879 Y156.084 E.00465
G1 X155.833 Y156.086 E.00202
;WIDTH:0.57146
G1 X151.767 Y156.086 E.17692
G1 X151.668 Y156.011 E.0054
;WIDTH:0.53573
G1 X151.569 Y155.936 E.00504
;WIDTH:0.499999
G1 X149.536 Y152.414 E.153
G1 X149.506 Y152.28 E.00517
G1 X149.536 Y152.186 E.00372
G1 X151.576 Y148.653 E.15347
G1 X151.728 Y148.553 E.00684
G1 X151.767 Y148.55 E.00149
G1 X155.773 Y148.55 E.15074
G1 X155.853 Y148.528
G1 E-.56 F1800
;WIPE_START
G1 F3000
G1 X155.972 Y148.597 E-.02321
G1 X156.031 Y148.664 E-.01029
G1 X156.884 Y150.142 E-.1945
;WIPE_END
G1 E-.012 F1800
G1 Z.6 F21000
G1 X149.105 Y152.245 Z.2
G1 E.8 F1800
;TYPE:Inner wall
;WIDTH:0.391182
G1 F3000
G1 X149.105 Y152.355 E.00315
G1 E-.56 F1800
;WIPE_START
G1 F3000
G1 X149.105 Y152.245 E-.228
;WIPE_END
G1 E-.012 F1800
G1 Z.6 F21000
G1 X139.946 Y152.245 Z.2
M73 P3 R14
G1 E.8 F1800
;WIDTH:0.39118
G1 F3000
G1 X139.946 Y152.355 E.00315
G1 E-.56 F1800
;WIPE_START
G1 F3000
G1 X139.946 Y152.245 E-.228
;WIPE_END
G1 E-.012 F1800
G1 Z.6 F21000
G1 X165.594 Y148.564 Z.2
G1 E.8 F1800
;TYPE:Outer wall
;WIDTH:0.499999
G1 F3000
G1 X167.685 Y152.186 E.15734
G1 X167.715 Y152.32 E.00517
G1 X167.685 Y152.414 E.00372
G1 X165.594 Y156.036 E.15734
;WIDTH:0.52146
G1 X165.397 Y156.161 E.00922
G1 X161.215 Y156.161 E.16473
G1 X161.017 Y156.036 E.00922
;WIDTH:0.499999
G1 X158.926 Y152.414 E.15734
G1 X158.896 Y152.28 E.00517
G1 X158.926 Y152.186 E.00372
G1 X161.017 Y148.564 E.15734
G1 X161.137 Y148.464 E.00588
G1 X161.215 Y148.45 E.00298
G1 X165.397 Y148.45 E.15734
G1 X165.539 Y148.5 E.0057
G1 X165.555 Y148.519 E.00092
G1 X165.673 Y148.55
G1 E-.56 F1800
;WIPE_START
G1 F3000
G1 X166.56 Y150.248 E-.228
;WIPE_END
G1 E-.012 F1800
G1 Z.6 F21000
G1 X158.495 Y152.245 Z.2
G1 E.8 F1800
;TYPE:Inner wall
;WIDTH:0.391182
G1 F3000
G1 X158.495 Y152.355 E.00315
G1 E-.56 F1800
;WIPE_START
G1 F3000
G1 X158.495 Y152.245 E-.228
;WIPE_END
G1 E-.012 F1800
G1 Z.6 F21000
G1 X175.346 Y148.41 Z.2
G1 E.8 F1800
