; HEADER_BLOCK_START
; generated by OrcaSlicer 1.6.3 on 2023-07-18 at 05:00:20
; total layer number: 0
; HEADER_BLOCK_END

; THUMBNAIL_BLOCK_START
; THUMBNAIL_BLOCK_END

; external perimeters extrusion width = 0.40mm
; perimeters extrusion width = 0.45mm
; infill extrusion width = 0.45mm
; solid infill extrusion width = 0.40mm
; top infill extrusion width = 0.40mm
; first layer extrusion width = 0.50mm

; EXECUTABLE_BLOCK_START
EXCLUDE_OBJECT_DEFINE NAME=pressure_advance_test.stl_id_0_copy_0 CENTER=150,150 POLYGON=[[116.014,155.014],[116.036,144.686],[116.059,144.32],[116.125,143.969],[116.269,143.645],[116.464,143.337],[116.709,143.133],[116.973,142.978],[117.271,142.9],[117.587,142.867],[150.21,142.939],[171.381,142.985],[181.244,143.007],[181.761,143.024],[182.271,143.077],[182.768,143.199],[183.256,143.368],[183.554,143.561],[183.683,143.67],[183.79,143.794],[183.868,143.937],[183.921,144.097],[183.986,144.443],[183.165,152.23],[183.139,152.449],[183.08,152.655],[180.942,156.21],[180.83,156.367],[180.698,156.513],[180.478,156.681],[180.243,156.814],[179.983,156.886],[179.709,156.92],[132.457,157.133],[117.914,156.868],[117.525,156.848],[117.152,156.782],[116.806,156.634],[116.479,156.427],[116.259,156.111],[116.1,155.773],[116.032,155.402],[116.014,155.014]]
M73 P0 R5
;TYPE:Custom
M104 S0 ; Stops OrcaSlicer from sending temp waits separately
M140 S0
print_start EXTRUDER=220 BED=60 


;CHAMBER=0
G90
G21
M83 ; use relative distances for extrusion
; filament start gcode
M204 S1000
G1 Z.2 F27000
G1 E-.8 F1800
G1 X98 Y223.5 F27000
G1 Z.6 F27000
G1 Z.2 F27000
G1 E.8 F1800
G1 F1200
G1 X98 Y73 E8.91687
SET_PRESSURE_ADVANCE ADVANCE=0; Override pressure advance value
M73 P2 R4
G1 E-.8 F1800
G17
G3 Z.6 I1.195 J.228 P1  F27000
G1 X100 Y62.5 Z.6 F27000
M73 P3 R4
G1 Z.2 F27000
G1 E.8 F1800
G1 F1200
G1 X120 Y62.5 E.92643
G1 F3600
G1 X160 Y62.5 E1.85286
G1 F1200
G1 X180 Y62.5 E.92643
SET_PRESSURE_ADVANCE ADVANCE=0.002; Override pressure advance value
G1 E-.8 F1800
G17
G3 Z.6 I-.053 J-1.216 P1  F27000
M73 P4 R4
G1 X100 Y66 Z.6 F27000
G1 Z.2 F27000
G1 E.8 F1800
G1 F1200
G1 X120 Y66 E.92643
G1 F3600
G1 X160 Y66 E1.85286
G1 F1200
G1 X180 Y66 E.92643
SET_PRESSURE_ADVANCE ADVANCE=0.004; Override pressure advance value
M73 P5 R4
G1 E-.8 F1800
G17
G3 Z.6 I-.053 J-1.216 P1  F27000
G1 X100 Y69.5 Z.6 F27000
G1 Z.2 F27000
G1 E.8 F1800
G1 F1200
G1 X120 Y69.5 E.92643
G1 F3600
G1 X160 Y69.5 E1.85286
M73 P6 R4
G1 F1200
G1 X180 Y69.5 E.92643
SET_PRESSURE_ADVANCE ADVANCE=0.006; Override pressure advance value
G1 E-.8 F1800
G17
G3 Z.6 I-.053 J-1.216 P1  F27000
G1 X100 Y73 Z.6 F27000
G1 Z.2 F27000
G1 E.8 F1800
G1 F1200
G1 X120 Y73 E.92643
M73 P7 R4
G1 F3600
G1 X160 Y73 E1.85286
G1 F1200
G1 X180 Y73 E.92643
SET_PRESSURE_ADVANCE ADVANCE=0.008; Override pressure advance value
G1 E-.8 F1800
G17
G3 Z.6 I-.053 J-1.216 P1  F27000
G1 X100 Y76.5 Z.6 F27000
G1 Z.2 F27000
G1 E.8 F1800
G1 F1200
G1 X120 Y76.5 E.92643
M73 P8 R4
G1 F3600
G1 X160 Y76.5 E1.85286
G1 F1200
G1 X180 Y76.5 E.92643
SET_PRESSURE_ADVANCE ADVANCE=0.01; Override pressure advance value
G1 E-.8 F1800
G17
G3 Z.6 I-.053 J-1.216 P1  F27000
G1 X100 Y80 Z.6 F27000
M73 P9 R4
G1 Z.2 F27000
G1 E.8 F1800
G1 F1200
G1 X120 Y80 E.92643
G1 F3600
G1 X160 Y80 E1.85286
G1 F1200
G1 X180 Y80 E.92643
SET_PRESSURE_ADVANCE ADVANCE=0.012; Override pressure advance value
M73 P10 R4
G1 E-.8 F1800
G17
G3 Z.6 I-.053 J-1.216 P1  F27000
G1 X100 Y83.5 Z.6 F27000
G1 Z.2 F27000
G1 E.8 F1800
G1 F1200
G1 X120 Y83.5 E.92643
G1 F3600
G1 X160 Y83.5 E1.85286
G1 F1200
G1 X180 Y83.5 E.92643
SET_PRESSURE_ADVANCE ADVANCE=0.014; Override pressure advance value
M73 P11 R4
G1 E-.8 F1800
G17
G3 Z.6 I-.053 J-1.216 P1  F27000
G1 X100 Y87 Z.6 F27000
G1 Z.2 F27000
G1 E.8 F1800
G1 F1200
G1 X120 Y87 E.92643
G1 F3600
G1 X160 Y87 E1.85286
M73 P12 R4
G1 F1200
G1 X180 Y87 E.92643
SET_PRESSURE_ADVANCE ADVANCE=0.016; Override pressure advance value
G1 E-.8 F1800
G17
G3 Z.6 I-.053 J-1.216 P1  F27000
G1 X100 Y90.5 Z.6 F27000
G1 Z.2 F27000
G1 E.8 F1800
G1 F1200
G1 X120 Y90.5 E.92643
M73 P13 R4
G1 F3600
G1 X160 Y90.5 E1.85286
G1 F1200
G1 X180 Y90.5 E.92643
SET_PRESSURE_ADVANCE ADVANCE=0.018; Override pressure advance value
G1 E-.8 F1800
G17
G3 Z.6 I-.053 J-1.216 P1  F27000
G1 X100 Y94 Z.6 F27000
G1 Z.2 F27000
G1 E.8 F1800
G1 F1200
G1 X120 Y94 E.92643
M73 P14 R4
G1 F3600
G1 X160 Y94 E1.85286
G1 F1200
G1 X180 Y94 E.92643
SET_PRESSURE_ADVANCE ADVANCE=0.02; Override pressure advance value
G1 E-.8 F1800
G17
G3 Z.6 I-.053 J-1.216 P1  F27000
G1 X100 Y97.5 Z.6 F27000
M73 P15 R4
G1 Z.2 F27000
G1 E.8 F1800
G1 F1200
G1 X120 Y97.5 E.92643
G1 F3600
G1 X160 Y97.5 E1.85286
G1 F1200
G1 X180 Y97.5 E.92643
SET_PRESSURE_ADVANCE ADVANCE=0.022; Override pressure advance value
M73 P16 R4
G1 E-.8 F1800
G17
G3 Z.6 I-.053 J-1.216 P1  F27000
G1 X100 Y101 Z.6 F27000
G1 Z.2 F27000
G1 E.8 F1800
G1 F1200
G1 X120 Y101 E.92643
G1 F3600
G1 X160 Y101 E1.85286
G1 F1200
G1 X180 Y101 E.92643
SET_PRESSURE_ADVANCE ADVANCE=0.024; Override pressure advance value
M73 P17 R4
G1 E-.8 F1800
G17
G3 Z.6 I-.053 J-1.216 P1  F27000
G1 X100 Y104.5 Z.6 F27000
G1 Z.2 F27000
G1 E.8 F1800
G1 F1200
G1 X120 Y104.5 E.92643
G1 F3600
G1 X160 Y104.5 E1.85286
M73 P18 R4
G1 F1200
G1 X180 Y104.5 E.92643
SET_PRESSURE_ADVANCE ADVANCE=0.026; Override pressure advance value
G1 E-.8 F1800
G17
G3 Z.6 I-.053 J-1.216 P1  F27000
G1 X100 Y108 Z.6 F27000
G1 Z.2 F27000
G1 E.8 F1800
G1 F1200
G1 X120 Y108 E.92643
M73 P19 R4
G1 F3600
G1 X160 Y108 E1.85286
G1 F1200
G1 X180 Y108 E.92643
SET_PRESSURE_ADVANCE ADVANCE=0.028; Override pressure advance value
G1 E-.8 F1800
G17
G3 Z.6 I-.053 J-1.216 P1  F27000
G1 X100 Y111.5 Z.6 F27000
G1 Z.2 F27000
G1 E.8 F1800
M73 P20 R4
G1 F1200
G1 X120 Y111.5 E.92643
G1 F3600
G1 X160 Y111.5 E1.85286
G1 F1200
G1 X180 Y111.5 E.92643
SET_PRESSURE_ADVANCE ADVANCE=0.03; Override pressure advance value
G1 E-.8 F1800
G17
M73 P20 R3
G3 Z.6 I-.053 J-1.216 P1  F27000
M73 P21 R3
G1 X100 Y115 Z.6 F27000
G1 Z.2 F27000
G1 E.8 F1800
G1 F1200
G1 X120 Y115 E.92643
G1 F3600
G1 X160 Y115 E1.85286
G1 F1200
G1 X180 Y115 E.92643
SET_PRESSURE_ADVANCE ADVANCE=0.032; Override pressure advance value
M73 P22 R3
G1 E-.8 F1800
G17
G3 Z.6 I-.053 J-1.216 P1  F27000
G1 X100 Y118.5 Z.6 F27000
G1 Z.2 F27000
G1 E.8 F1800
G1 F1200
G1 X120 Y118.5 E.92643
G1 F3600
G1 X160 Y118.5 E1.85286
G1 F1200
G1 X180 Y118.5 E.92643
SET_PRESSURE_ADVANCE ADVANCE=0.034; Override pressure advance value
M73 P23 R3
G1 E-.8 F1800
G17
G3 Z.6 I-.053 J-1.216 P1  F27000
G1 X100 Y122 Z.6 F27000
G1 Z.2 F27000
G1 E.8 F1800
G1 F1200
G1 X120 Y122 E.92643
G1 F3600
G1 X160 Y122 E1.85286
M73 P24 R3
G1 F1200
G1 X180 Y122 E.92643
SET_PRESSURE_ADVANCE ADVANCE=0.036; Override pressure advance value
G1 E-.8 F1800
G17
G3 Z.6 I-.053 J-1.216 P1  F27000
G1 X100 Y125.5 Z.6 F27000
G1 Z.2 F27000
G1 E.8 F1800
G1 F1200
G1 X120 Y125.5 E.92643
M73 P25 R3
G1 F3600
G1 X160 Y125.5 E1.85286
G1 F1200
G1 X180 Y125.5 E.92643
SET_PRESSURE_ADVANCE ADVANCE=0.038; Override pressure advance value
G1 E-.8 F1800
G17
G3 Z.6 I-.053 J-1.216 P1  F27000
G1 X100 Y129 Z.6 F27000
M73 P26 R3
G1 Z.2 F27000
G1 E.8 F1800
G1 F1200
G1 X120 Y129 E.92643
G1 F3600
G1 X160 Y129 E1.85286
G1 F1200
G1 X180 Y129 E.92643
SET_PRESSURE_ADVANCE ADVANCE=0.04; Override pressure advance value
G1 E-.8 F1800
G17
G3 Z.6 I-.053 J-1.216 P1  F27000
M73 P27 R3
G1 X100 Y132.5 Z.6 F27000
G1 Z.2 F27000
G1 E.8 F1800
G1 F1200
G1 X120 Y132.5 E.92643
G1 F3600
G1 X160 Y132.5 E1.85286
G1 F1200
G1 X180 Y132.5 E.92643
SET_PRESSURE_ADVANCE ADVANCE=0.042; Override pressure advance value
M73 P28 R3
G1 E-.8 F1800
G17
G3 Z.6 I-.053 J-1.216 P1  F27000
G1 X100 Y136 Z.6 F27000
G1 Z.2 F27000
G1 E.8 F1800
G1 F1200
G1 X120 Y136 E.92643
G1 F3600
G1 X160 Y136 E1.85286
M73 P29 R3
G1 F1200
G1 X180 Y136 E.92643
SET_PRESSURE_ADVANCE ADVANCE=0.044; Override pressure advance value
G1 E-.8 F1800
G17
G3 Z.6 I-.053 J-1.216 P1  F27000
G1 X100 Y139.5 Z.6 F27000
G1 Z.2 F27000
G1 E.8 F1800
G1 F1200
G1 X120 Y139.5 E.92643
M73 P30 R3
G1 F3600
G1 X160 Y139.5 E1.85286
G1 F1200
G1 X180 Y139.5 E.92643
SET_PRESSURE_ADVANCE ADVANCE=0.046; Override pressure advance value
G1 E-.8 F1800
G17
G3 Z.6 I-.053 J-1.216 P1  F27000
G1 X100 Y143 Z.6 F27000
G1 Z.2 F27000
G1 E.8 F1800
G1 F1200
G1 X120 Y143 E.92643
M73 P31 R3
G1 F3600
G1 X160 Y143 E1.85286
G1 F1200
G1 X180 Y143 E.92643
SET_PRESSURE_ADVANCE ADVANCE=0.048; Override pressure advance value
G1 E-.8 F1800
G17
G3 Z.6 I-.053 J-1.216 P1  F27000
G1 X100 Y146.5 Z.6 F27000
M73 P32 R3
G1 Z.2 F27000
G1 E.8 F1800
G1 F1200
G1 X120 Y146.5 E.92643
G1 F3600
G1 X160 Y146.5 E1.85286
G1 F1200
G1 X180 Y146.5 E.92643
SET_PRESSURE_ADVANCE ADVANCE=0.05; Override pressure advance value
M73 P33 R3
G1 E-.8 F1800
G17
G3 Z.6 I-.053 J-1.216 P1  F27000
G1 X100 Y150 Z.6 F27000
G1 Z.2 F27000
G1 E.8 F1800
G1 F1200
G1 X120 Y150 E.92643
G1 F3600
G1 X160 Y150 E1.85286
G1 F1200
G1 X180 Y150 E.92643
SET_PRESSURE_ADVANCE ADVANCE=0.052; Override pressure advance value
M73 P34 R3
G1 E-.8 F1800
G17
G3 Z.6 I-.053 J-1.216 P1  F27000
G1 X100 Y153.5 Z.6 F27000
G1 Z.2 F27000
G1 E.8 F1800
G1 F1200
G1 X120 Y153.5 E.92643
G1 F3600
G1 X160 Y153.5 E1.85286
M73 P35 R3
G1 F1200
G1 X180 Y153.5 E.92643
SET_PRESSURE_ADVANCE ADVANCE=0.054; Override pressure advance value
G1 E-.8 F1800
G17
G3 Z.6 I-.053 J-1.216 P1  F27000
G1 X100 Y157 Z.6 F27000
G1 Z.2 F27000
G1 E.8 F1800
G1 F1200
G1 X120 Y157 E.92643
M73 P36 R3
G1 F3600
G1 X160 Y157 E1.85286
G1 F1200
G1 X180 Y157 E.92643
SET_PRESSURE_ADVANCE ADVANCE=0.056; Override pressure advance value
G1 E-.8 F1800
G17
G3 Z.6 I-.053 J-1.216 P1  F27000
G1 X100 Y160.5 Z.6 F27000
G1 Z.2 F27000
G1 E.8 F1800
G1 F1200
G1 X120 Y160.5 E.92643
M73 P37 R3
G1 F3600
G1 X160 Y160.5 E1.85286
G1 F1200
G1 X180 Y160.5 E.92643
SET_PRESSURE_ADVANCE ADVANCE=0.058; Override pressure advance value
G1 E-.8 F1800
G17
G3 Z.6 I-.053 J-1.216 P1  F27000
G1 X100 Y164 Z.6 F27000
M73 P38 R3
G1 Z.2 F27000
G1 E.8 F1800
G1 F1200
G1 X120 Y164 E.92643
G1 F3600
G1 X160 Y164 E1.85286
G1 F1200
G1 X180 Y164 E.92643
SET_PRESSURE_ADVANCE ADVANCE=0.06; Override pressure advance value
M73 P39 R3
G1 E-.8 F1800
G17
G3 Z.6 I-.053 J-1.216 P1  F27000
G1 X100 Y167.5 Z.6 F27000
G1 Z.2 F27000
G1 E.8 F1800
G1 F1200
G1 X120 Y167.5 E.92643
G1 F3600
G1 X160 Y167.5 E1.85286
G1 F1200
G1 X180 Y167.5 E.92643
SET_PRESSURE_ADVANCE ADVANCE=0.062; Override pressure advance value
M73 P40 R3
G1 E-.8 F1800
G17
G3 Z.6 I-.053 J-1.216 P1  F27000
G1 X100 Y171 Z.6 F27000
G1 Z.2 F27000
G1 E.8 F1800
G1 F1200
G1 X120 Y171 E.92643
M73 P40 R2
G1 F3600
G1 X160 Y171 E1.85286
M73 P41 R2
G1 F1200
G1 X180 Y171 E.92643
SET_PRESSURE_ADVANCE ADVANCE=0.064; Override pressure advance value
G1 E-.8 F1800
G17
G3 Z.6 I-.053 J-1.216 P1  F27000
G1 X100 Y174.5 Z.6 F27000
G1 Z.2 F27000
G1 E.8 F1800
G1 F1200
G1 X120 Y174.5 E.92643
M73 P42 R2
G1 F3600
G1 X160 Y174.5 E1.85286
G1 F1200
G1 X180 Y174.5 E.92643
SET_PRESSURE_ADVANCE ADVANCE=0.066; Override pressure advance value
G1 E-.8 F1800
G17
G3 Z.6 I-.053 J-1.216 P1  F27000
G1 X100 Y178 Z.6 F27000
G1 Z.2 F27000
G1 E.8 F1800
G1 F1200
G1 X120 Y178 E.92643
M73 P43 R2
G1 F3600
G1 X160 Y178 E1.85286
G1 F1200
G1 X180 Y178 E.92643
SET_PRESSURE_ADVANCE ADVANCE=0.068; Override pressure advance value
G1 E-.8 F1800
G17
G3 Z.6 I-.053 J-1.216 P1  F27000
G1 X100 Y181.5 Z.6 F27000
M73 P44 R2
G1 Z.2 F27000
G1 E.8 F1800
G1 F1200
G1 X120 Y181.5 E.92643
G1 F3600
G1 X160 Y181.5 E1.85286
G1 F1200
G1 X180 Y181.5 E.92643
SET_PRESSURE_ADVANCE ADVANCE=0.07; Override pressure advance value
M73 P45 R2
G1 E-.8 F1800
G17
G3 Z.6 I-.053 J-1.216 P1  F27000
G1 X100 Y185 Z.6 F27000
G1 Z.2 F27000
G1 E.8 F1800
G1 F1200
G1 X120 Y185 E.92643
G1 F3600
G1 X160 Y185 E1.85286
G1 F1200
G1 X180 Y185 E.92643
SET_PRESSURE_ADVANCE ADVANCE=0.072; Override pressure advance value
M73 P46 R2
G1 E-.8 F1800
G17
G3 Z.6 I-.053 J-1.216 P1  F27000
G1 X100 Y188.5 Z.6 F27000
G1 Z.2 F27000
G1 E.8 F1800
G1 F1200
G1 X120 Y188.5 E.92643
G1 F3600
G1 X160 Y188.5 E1.85286
M73 P47 R2
G1 F1200
G1 X180 Y188.5 E.92643
SET_PRESSURE_ADVANCE ADVANCE=0.074; Override pressure advance value
G1 E-.8 F1800
G17
G3 Z.6 I-.053 J-1.216 P1  F27000
G1 X100 Y192 Z.6 F27000
G1 Z.2 F27000
G1 E.8 F1800
G1 F1200
G1 X120 Y192 E.92643
M73 P48 R2
G1 F3600
G1 X160 Y192 E1.85286
G1 F1200
G1 X180 Y192 E.92643
SET_PRESSURE_ADVANCE ADVANCE=0.076; Override pressure advance value
G1 E-.8 F1800
G17
G3 Z.6 I-.053 J-1.216 P1  F27000
G1 X100 Y195.5 Z.6 F27000
M73 P49 R2
G1 Z.2 F27000
G1 E.8 F1800
G1 F1200
G1 X120 Y195.5 E.92643
G1 F3600
G1 X160 Y195.5 E1.85286
G1 F1200
G1 X180 Y195.5 E.92643
SET_PRESSURE_ADVANCE ADVANCE=0.078; Override pressure advance value
G1 E-.8 F1800
G17
G3 Z.6 I-.053 J-1.216 P1  F27000
M73 P50 R2
G1 X100 Y199 Z.6 F27000
G1 Z.2 F27000
G1 E.8 F1800
G1 F1200
G1 X120 Y199 E.92643
G1 F3600
G1 X160 Y199 E1.85286
G1 F1200
G1 X180 Y199 E.92643
SET_PRESSURE_ADVANCE ADVANCE=0.08; Override pressure advance value
M73 P51 R2
G1 E-.8 F1800
G17
G3 Z.6 I-.053 J-1.216 P1  F27000
G1 X100 Y202.5 Z.6 F27000
G1 Z.2 F27000
G1 E.8 F1800
G1 F1200
G1 X120 Y202.5 E.92643
G1 F3600
G1 X160 Y202.5 E1.85286
M73 P52 R2
G1 F1200
G1 X180 Y202.5 E.92643
SET_PRESSURE_ADVANCE ADVANCE=0.082; Override pressure advance value
G1 E-.8 F1800
G17
G3 Z.6 I-.053 J-1.216 P1  F27000
G1 X100 Y206 Z.6 F27000
G1 Z.2 F27000
G1 E.8 F1800
G1 F1200
G1 X120 Y206 E.92643
M73 P53 R2
G1 F3600
G1 X160 Y206 E1.85286
G1 F1200
G1 X180 Y206 E.92643
SET_PRESSURE_ADVANCE ADVANCE=0.084; Override pressure advance value
G1 E-.8 F1800
G17
G3 Z.6 I-.053 J-1.216 P1  F27000
G1 X100 Y209.5 Z.6 F27000
G1 Z.2 F27000
G1 E.8 F1800
G1 F1200
G1 X120 Y209.5 E.92643
M73 P54 R2
G1 F3600
G1 X160 Y209.5 E1.85286
G1 F1200
G1 X180 Y209.5 E.92643
SET_PRESSURE_ADVANCE ADVANCE=0.086; Override pressure advance value
G1 E-.8 F1800
G17
G3 Z.6 I-.053 J-1.216 P1  F27000
G1 X100 Y213 Z.6 F27000
M73 P55 R2
G1 Z.2 F27000
G1 E.8 F1800
G1 F1200
G1 X120 Y213 E.92643
G1 F3600
G1 X160 Y213 E1.85286
G1 F1200
G1 X180 Y213 E.92643
SET_PRESSURE_ADVANCE ADVANCE=0.088; Override pressure advance value
G1 E-.8 F1800
G17
M73 P56 R2
G3 Z.6 I-.053 J-1.216 P1  F27000
G1 X100 Y216.5 Z.6 F27000
G1 Z.2 F27000
G1 E.8 F1800
G1 F1200
G1 X120 Y216.5 E.92643
G1 F3600
G1 X160 Y216.5 E1.85286
G1 F1200
G1 X180 Y216.5 E.92643
SET_PRESSURE_ADVANCE ADVANCE=0.09; Override pressure advance value
M73 P57 R2
G1 E-.8 F1800
G17
G3 Z.6 I-.053 J-1.216 P1  F27000
G1 X100 Y220 Z.6 F27000
G1 Z.2 F27000
G1 E.8 F1800
G1 F1200
G1 X120 Y220 E.92643
G1 F3600
G1 X160 Y220 E1.85286
M73 P58 R2
G1 F1200
G1 X180 Y220 E.92643
SET_PRESSURE_ADVANCE ADVANCE=0.092; Override pressure advance value
G1 E-.8 F1800
G17
G3 Z.6 I-.053 J-1.216 P1  F27000
G1 X100 Y223.5 Z.6 F27000
G1 Z.2 F27000
G1 E.8 F1800
G1 F1200
G1 X120 Y223.5 E.92643
M73 P59 R2
G1 F3600
G1 X160 Y223.5 E1.85286
G1 F1200
G1 X180 Y223.5 E.92643
SET_PRESSURE_ADVANCE ADVANCE=0.094; Override pressure advance value
G1 E-.8 F1800
G17
G3 Z.6 I-.053 J-1.216 P1  F27000
G1 X100 Y227 Z.6 F27000
G1 Z.2 F27000
G1 E.8 F1800
G1 F1200
G1 X120 Y227 E.92643
M73 P60 R2
G1 F3600
G1 X160 Y227 E1.85286
G1 F1200
G1 X180 Y227 E.92643
SET_PRESSURE_ADVANCE ADVANCE=0.096; Override pressure advance value
M73 P60 R1
G1 E-.8 F1800
G17
G3 Z.6 I-.053 J-1.216 P1  F27000
G1 X100 Y230.5 Z.6 F27000
M73 P61 R1
G1 Z.2 F27000
G1 E.8 F1800
G1 F1200
G1 X120 Y230.5 E.92643
G1 F3600
G1 X160 Y230.5 E1.85286
G1 F1200
G1 X180 Y230.5 E.92643
SET_PRESSURE_ADVANCE ADVANCE=0.098; Override pressure advance value
M73 P62 R1
G1 E-.8 F1800
G17
G3 Z.6 I-.053 J-1.216 P1  F27000
G1 X100 Y234 Z.6 F27000
G1 Z.2 F27000
G1 E.8 F1800
G1 F1200
G1 X120 Y234 E.92643
G1 F3600
G1 X160 Y234 E1.85286
G1 F1200
G1 X180 Y234 E.92643
SET_PRESSURE_ADVANCE ADVANCE=0; Override pressure advance value
M73 P63 R1
G1 F3600
G1 E-.8 F1800
G17
G3 Z.6 I-.041 J-1.216 P1  F27000
G1 X120 Y236 Z.6 F27000
G1 Z.2 F27000
G1 E.8 F1800
G1 X120 Y241 E.23112
G1 E-.8 F1800
G17
G3 Z.6 I0 J1.217 P1  F27000
G1 X160 Y241 Z.6 F27000
G1 Z.2 F27000
G1 E.8 F1800
G1 X160 Y236 E.23112
G1 F3600
G1 E-.8 F1800
G17
G3 Z.6 I1.206 J.162 P1  F27000
M73 P64 R1
G1 X183 Y64.25 Z.6 F27000
G1 Z.2 F27000
G1 E.8 F1800
G1 X185 Y64.25 E.07269
