; HEADER_BLOCK_START
; generated by OrcaSlicer 1.6.3 on 2023-07-11 at 22:55:50
; total layer number: 107
; HEADER_BLOCK_END

; THUMBNAIL_BLOCK_START
; THUMBNAIL_BLOCK_END

; external perimeters extrusion width = 0.40mm
; perimeters extrusion width = 0.45mm
; infill extrusion width = 0.45mm
; solid infill extrusion width = 0.40mm
; top infill extrusion width = 0.40mm
; first layer extrusion width = 0.50mm

; EXECUTABLE_BLOCK_START
EXCLUDE_OBJECT_DEFINE NAME=retraction_tower.stl_id_0_copy_0 CENTER=150,150 POLYGON=[[130,145.5],[130.102,144.724],[130.402,144],[130.879,143.379],[131.5,142.902],[132.224,142.602],[133,142.5],[167,142.5],[167.776,142.602],[168.5,142.902],[169.121,143.379],[169.598,144],[169.898,144.724],[170,145.5],[170,154.5],[169.898,155.276],[169.598,156],[169.121,156.621],[168.5,157.098],[167.776,157.398],[167,157.5],[133,157.5],[132.224,157.398],[131.5,157.098],[130.879,156.621],[130.402,156],[130.102,155.276],[130,154.5],[130,145.5]]
M73 P0 R13
;TYPE:Custom
M104 S0 ; Stops OrcaSlicer from sending temp waits separately
M140 S0
print_start EXTRUDER=215 BED=60 


;CHAMBER=0
G90
G21
M83 ; use relative distances for extrusion
; filament start gcode
SET_PRESSURE_ADVANCE ADVANCE=0.025; Override pressure advance value
M106 S0
;LAYER_CHANGE
;Z:0.2
;HEIGHT:0.2
;BEFORE_LAYER_CHANGE
;0.2
G92 E0

; Calib_Retraction_tower: Z_HEIGHT: 0.2, length:0
;AFTER_LAYER_CHANGE
;0.2
M204 S2000
; printing object retraction_tower.stl id:0 copy 0
EXCLUDE_OBJECT_START NAME=retraction_tower.stl_id_0_copy_0
G1 X169.209 Y144.908 F27000
G1 Z.2
G1 E0 F1800
;TYPE:Inner wall
;WIDTH:0.499999
G1 X169.293 Y145.71 E.03005
G1 X169.293 Y154.454 E.32565
G1 X169.209 Y155.092 E.02398
G1 X168.98 Y155.643 E.02224
G1 X168.617 Y156.117 E.02224
G1 X168.143 Y156.48 E.02223
G1 X167.592 Y156.709 E.02224
G1 X166.954 Y156.793 E.02398
G1 X133.046 Y156.793 E1.26292
G1 X132.408 Y156.709 E.02398
G1 X131.857 Y156.48 E.02224
G1 X131.383 Y156.117 E.02223
G1 X131.02 Y155.643 E.02224
G1 X130.791 Y155.092 E.02224
G1 X130.707 Y154.454 E.02398
G1 X130.707 Y145.546 E.33176
G1 X130.791 Y144.908 E.02398
G1 X131.02 Y144.357 E.02224
G1 X131.383 Y143.883 E.02223
G1 X131.857 Y143.52 E.02223
G1 X132.408 Y143.291 E.02224
G1 X133.046 Y143.207 E.02398
G1 X166.954 Y143.207 E1.26292
G1 X167.592 Y143.291 E.02398
G1 X168.143 Y143.52 E.02224
G1 X168.617 Y143.883 E.02224
G1 X168.98 Y144.357 E.02223
G1 X169.186 Y144.853 E.02
G1 X169.654 Y144.789 F27000
;TYPE:Outer wall
G1 F1800
G1 X169.75 Y145.71 E.03451
G1 X169.75 Y154.484 E.32677
G1 X169.654 Y155.211 E.02733
G1 X169.38 Y155.874 E.02672
G1 X168.943 Y156.443 E.02672
G1 X168.374 Y156.88 E.02672
G1 X167.711 Y157.154 E.02672
G1 X166.984 Y157.25 E.02733
G1 X133.016 Y157.25 E1.26515
G1 X132.289 Y157.154 E.02733
G1 X131.626 Y156.88 E.02672
G1 X131.057 Y156.443 E.02672
G1 X130.62 Y155.874 E.02672
G1 X130.346 Y155.211 E.02672
G1 X130.25 Y154.484 E.02733
G1 X130.25 Y145.516 E.33399
G1 X130.346 Y144.789 E.02733
G1 X130.62 Y144.126 E.02672
G1 X131.057 Y143.557 E.02672
G1 X131.626 Y143.12 E.02672
G1 X132.289 Y142.846 E.02672
G1 X133.016 Y142.75 E.02733
G1 X166.984 Y142.75 E1.26515
G1 X167.711 Y142.846 E.02733
G1 X168.374 Y143.12 E.02672
G1 X168.943 Y143.557 E.02672
G1 X169.38 Y144.126 E.02672
G1 X169.631 Y144.733 E.02448
G1 X169.597 Y144.844
;WIPE_START
G1 X169.75 Y145.71
G1 X169.75 Y146.726
;WIPE_END
G1 X166.945 Y143.344 F27000
;TYPE:Bottom surface
;WIDTH:0.50014
G1 F3600
G1 X168.917 Y145.316 E.10388
G1 X168.95 Y145.569 E.00951
G1 X168.95 Y145.996 E.0159
G1 X166.504 Y143.55 E.12887
G1 X165.858 Y143.55 E.02409
G1 X168.95 Y146.642 E.16294
G1 X168.95 Y147.289 E.02409
G1 X165.211 Y143.55 E.19701
M73 P1 R13
G1 X164.565 Y143.55 E.02409
G1 X168.95 Y147.935 E.23108
G1 X168.95 Y148.582 E.02409
G1 X163.918 Y143.55 E.26515
G1 X163.271 Y143.55 E.02409
G1 X168.95 Y149.229 E.29922
G1 X168.95 Y149.875 E.02409
G1 X162.625 Y143.55 E.33329
G1 X161.978 Y143.55 E.02409
G1 X168.95 Y150.522 E.36736
G1 X168.95 Y151.168 E.02409
G1 X161.332 Y143.55 E.40143
G1 X160.685 Y143.55 E.02409
G1 X168.95 Y151.815 E.4355
G1 X168.95 Y152.462 E.02409
G1 X160.038 Y143.55 E.46957
G1 X159.392 Y143.55 E.02409
G1 X168.95 Y153.108 E.50364
G1 X168.95 Y153.755 E.02409
G1 X158.745 Y143.55 E.53771
G1 X158.098 Y143.55 E.02409
G1 X168.95 Y154.402 E.57178
G1 X168.878 Y154.976 E.02158
G1 X157.452 Y143.55 E.60206
G1 X156.805 Y143.55 E.02409
G1 X168.694 Y155.439 E.62643
G1 X168.42 Y155.811 E.01723
G1 X156.159 Y143.55 E.64604
G1 X155.512 Y143.55 E.02409
G1 X168.068 Y156.106 E.66159
G1 X167.971 Y156.181 E.00459
G1 X167.635 Y156.32 E.01352
G1 X154.865 Y143.55 E.67285
G1 X154.219 Y143.55 E.02409
G1 X167.097 Y156.428 E.67857
G1 X166.931 Y156.45 E.00624
G1 X166.472 Y156.45 E.01709
G1 X153.572 Y143.55 E.67972
G1 X152.926 Y143.55 E.02409
G1 X165.826 Y156.45 E.67972
G1 X165.179 Y156.45 E.02409
G1 X152.279 Y143.55 E.67972
G1 X151.632 Y143.55 E.02409
G1 X164.533 Y156.45 E.67972
G1 X163.886 Y156.45 E.02409
G1 X150.986 Y143.55 E.67972
G1 X150.339 Y143.55 E.02409
G1 X163.239 Y156.45 E.67972
G1 X162.593 Y156.45 E.02409
G1 X149.693 Y143.55 E.67972
G1 X149.046 Y143.55 E.02409
G1 X161.946 Y156.45 E.67972
G1 X161.3 Y156.45 E.02409
G1 X148.399 Y143.55 E.67972
G1 X147.753 Y143.55 E.02409
G1 X160.653 Y156.45 E.67972
G1 X160.006 Y156.45 E.02409
G1 X147.106 Y143.55 E.67972
M73 P2 R13
G1 X146.46 Y143.55 E.02409
G1 X159.36 Y156.45 E.67972
G1 X158.713 Y156.45 E.02409
G1 X145.813 Y143.55 E.67972
G1 X145.166 Y143.55 E.02409
G1 X158.067 Y156.45 E.67972
G1 X157.42 Y156.45 E.02409
G1 X144.52 Y143.55 E.67972
G1 X143.873 Y143.55 E.02409
G1 X156.773 Y156.45 E.67972
G1 X156.127 Y156.45 E.02409
G1 X143.227 Y143.55 E.67972
G1 X142.58 Y143.55 E.02409
G1 X155.48 Y156.45 E.67972
G1 X154.834 Y156.45 E.02409
G1 X141.933 Y143.55 E.67972
G1 X141.287 Y143.55 E.02409
G1 X154.187 Y156.45 E.67972
G1 X153.54 Y156.45 E.02409
G1 X140.64 Y143.55 E.67972
G1 X139.993 Y143.55 E.02409
G1 X152.894 Y156.45 E.67972
G1 X152.247 Y156.45 E.02409
G1 X139.347 Y143.55 E.67972
G1 X138.7 Y143.55 E.02409
G1 X151.601 Y156.45 E.67972
G1 X150.954 Y156.45 E.02409
G1 X138.054 Y143.55 E.67972
G1 X137.407 Y143.55 E.02409
G1 X150.307 Y156.45 E.67972
G1 X149.661 Y156.45 E.02409
G1 X136.76 Y143.55 E.67972
G1 X136.114 Y143.55 E.02409
G1 X149.014 Y156.45 E.67972
G1 X148.367 Y156.45 E.02409
G1 X135.467 Y143.55 E.67972
G1 X134.821 Y143.55 E.02409
G1 X147.721 Y156.45 E.67972
G1 X147.074 Y156.45 E.02409
G1 X134.174 Y143.55 E.67972
G1 X133.527 Y143.55 E.02409
G1 X146.428 Y156.45 E.67972
G1 X145.781 Y156.45 E.02409
G1 X132.903 Y143.572 E.67856
G1 X132.498 Y143.625 E.01522
G1 X132.365 Y143.68 E.00537
G1 X145.134 Y156.45 E.67285
M73 P3 R13
G1 X144.488 Y156.45 E.02409
G1 X131.932 Y143.894 E.66159
G1 X131.627 Y144.127 E.01429
G1 X131.58 Y144.189 E.00289
G1 X143.841 Y156.45 E.64604
G1 X143.195 Y156.45 E.02409
G1 X131.306 Y144.561 E.62643
G1 X131.122 Y145.024 E.01855
G1 X142.548 Y156.45 E.60206
G1 X141.901 Y156.45 E.02409
G1 X131.05 Y145.599 E.57177
G1 X131.05 Y146.245 E.02409
G1 X141.255 Y156.45 E.5377
G1 X140.608 Y156.45 E.02409
G1 X131.05 Y146.892 E.50363
G1 X131.05 Y147.538 E.02409
G1 X139.962 Y156.45 E.46956
G1 X139.315 Y156.45 E.02409
G1 X131.05 Y148.185 E.43549
G1 X131.05 Y148.832 E.02409
G1 X138.668 Y156.45 E.40142
G1 X138.022 Y156.45 E.02409
G1 X131.05 Y149.478 E.36735
G1 X131.05 Y150.125 E.02409
G1 X137.375 Y156.45 E.33328
G1 X136.729 Y156.45 E.02409
G1 X131.05 Y150.771 E.29921
G1 X131.05 Y151.418 E.02409
G1 X136.082 Y156.45 E.26514
G1 X135.435 Y156.45 E.02409
G1 X131.05 Y152.065 E.23107
G1 X131.05 Y152.711 E.02409
G1 X134.789 Y156.45 E.197
G1 X134.142 Y156.45 E.02409
G1 X131.05 Y153.358 E.16293
G1 X131.05 Y154.004 E.02409
G1 X133.496 Y156.45 E.12886
G1 X133.069 Y156.45 E.0159
G1 X132.816 Y156.417 E.00952
G1 X130.844 Y154.446 E.10387
; stop printing object retraction_tower.stl id:0 copy 0
EXCLUDE_OBJECT_END NAME=retraction_tower.stl_id_0_copy_0
M106 S255
;LAYER_CHANGE
;Z:0.4
;HEIGHT:0.2
;BEFORE_LAYER_CHANGE
;0.4
G92 E0

; Calib_Retraction_tower: Z_HEIGHT: 0.4, length:0
;WIPE_START
G1 F3600
G1 X132.259 Y155.86
;WIPE_END
;AFTER_LAYER_CHANGE
;0.4
M204 S3000
M104 S220 ; set nozzle temperature
M140 S60 ; set bed temperature
; printing object retraction_tower.stl id:0 copy 0
EXCLUDE_OBJECT_START NAME=retraction_tower.stl_id_0_copy_0
M204 S7000
G1 X169.331 Y144.876 Z.4 F27000
M204 S3000
;TYPE:Inner wall
;WIDTH:0.449999
G1 F7369.576
G1 X169.418 Y145.71 E.02782
G1 X169.418 Y154.462 E.29032
G1 X169.331 Y155.125 E.02218
G1 X169.09 Y155.706 E.02087
G1 X168.706 Y156.206 E.02091
G1 X168.206 Y156.59 E.02091
G1 X167.624 Y156.831 E.0209
G1 X166.962 Y156.918 E.02215
G1 X133.038 Y156.918 E1.12532
G1 X132.376 Y156.831 E.02215
G1 X131.794 Y156.59 E.0209
G1 X131.294 Y156.206 E.02091
G1 X130.91 Y155.706 E.02091
G1 X130.669 Y155.125 E.02087
G1 X130.582 Y154.462 E.02218
G1 X130.582 Y145.538 E.29603
G1 X130.669 Y144.876 E.02215
G1 X130.91 Y144.294 E.0209
G1 X131.294 Y143.794 E.02091
G1 X131.794 Y143.41 E.02091
G1 X132.376 Y143.169 E.0209
G1 X133.038 Y143.082 E.02215
G1 X166.962 Y143.082 E1.12532
G1 X167.625 Y143.169 E.02218
G1 X168.206 Y143.41 E.02087
G1 X168.706 Y143.794 E.02091
G1 X169.09 Y144.294 E.02091
M73 P3 R12
G1 X169.308 Y144.82 E.01889
M204 S7000
G1 X169.703 Y144.776 F27000
M204 S1000
;TYPE:Outer wall
;WIDTH:0.399999
G1 F3600
G1 X169.8 Y145.71 E.02734
G1 X169.8 Y154.487 E.25537
G1 X169.703 Y155.224 E.02164
G1 X169.423 Y155.899 E.02126
G1 X168.979 Y156.479 E.02126
G1 X168.399 Y156.923 E.02126
G1 X167.724 Y157.203 E.02126
G1 X166.987 Y157.3 E.02164
G1 X133.013 Y157.3 E.98855
G1 X132.276 Y157.203 E.02164
G1 X131.601 Y156.923 E.02126
G1 X131.021 Y156.479 E.02126
G1 X130.577 Y155.899 E.02126
G1 X130.297 Y155.224 E.02126
G1 X130.2 Y154.487 E.02164
G1 X130.2 Y145.513 E.26111
G1 X130.297 Y144.776 E.02164
G1 X130.577 Y144.101 E.02126
G1 X131.021 Y143.521 E.02126
G1 X131.601 Y143.077 E.02126
G1 X132.276 Y142.797 E.02126
G1 X133.013 Y142.7 E.02164
G1 X166.987 Y142.7 E.98855
G1 X167.724 Y142.797 E.02164
G1 X168.399 Y143.077 E.02126
G1 X168.979 Y143.521 E.02126
G1 X169.423 Y144.101 E.02126
G1 X169.68 Y144.72 E.01951
G1 X169.645 Y144.831
M204 S3000
M204 S7000
;WIPE_START
G1 X169.8 Y145.71
G1 X169.8 Y146.713
;WIPE_END
G1 X167.25 Y156.759 F27000
M204 S3000
;TYPE:Internal solid infill
;WIDTH:0.400329
G1 F8393.745
G1 X169.073 Y154.936 E.07509
G1 X169.138 Y154.366 E.01672
G1 X166.866 Y156.638 E.09357
G1 X166.36 Y156.638 E.01472
G1 X169.138 Y153.86 E.11439
G1 X169.138 Y153.355 E.01472
G1 X165.855 Y156.638 E.13521
M73 P4 R12
G1 X165.35 Y156.638 E.01472
G1 X169.138 Y152.85 E.15602
G1 X169.138 Y152.344 E.01472
G1 X164.844 Y156.638 E.17684
G1 X164.339 Y156.638 E.01472
G1 X169.138 Y151.839 E.19766
G1 X169.138 Y151.333 E.01472
G1 X163.833 Y156.638 E.21848
G1 X163.328 Y156.638 E.01472
G1 X169.138 Y150.828 E.2393
G1 X169.138 Y150.322 E.01472
G1 X162.822 Y156.638 E.26012
G1 X162.317 Y156.638 E.01472
G1 X169.138 Y149.817 E.28094
G1 X169.138 Y149.311 E.01472
G1 X161.811 Y156.638 E.30175
G1 X161.306 Y156.638 E.01472
G1 X169.138 Y148.806 E.32257
G1 X169.138 Y148.3 E.01472
G1 X160.8 Y156.638 E.34339
G1 X160.295 Y156.638 E.01472
G1 X169.138 Y147.795 E.36421
G1 X169.138 Y147.29 E.01472
G1 X159.79 Y156.638 E.38503
G1 X159.284 Y156.638 E.01472
G1 X169.138 Y146.784 E.40585
G1 X169.138 Y146.279 E.01472
G1 X158.779 Y156.638 E.42667
G1 X158.273 Y156.638 E.01472
G1 X169.138 Y145.773 E.44748
G1 X169.138 Y145.557 E.00631
G1 X169.104 Y145.301 E.0075
G1 X157.768 Y156.638 E.46692
G1 X157.262 Y156.638 E.01472
G1 X169.026 Y144.873 E.48454
G1 X168.878 Y144.516 E.01127
G1 X156.757 Y156.638 E.49926
G1 X156.251 Y156.638 E.01472
G1 X168.675 Y144.214 E.51171
G1 X168.506 Y143.994 E.00808
G1 X168.44 Y143.943 E.00242
G1 X155.746 Y156.638 E.52286
G1 X155.24 Y156.638 E.01472
G1 X168.154 Y143.724 E.5319
G1 X168.065 Y143.655 E.00328
G1 X167.819 Y143.553 E.00775
G1 X154.735 Y156.638 E.53891
G1 X154.23 Y156.638 E.01472
G1 X167.439 Y143.428 E.54409
G1 X166.993 Y143.369 E.01312
G1 X153.724 Y156.638 E.54651
G1 X153.219 Y156.638 E.01472
G1 X166.494 Y143.362 E.54678
G1 X165.988 Y143.362 E.01472
G1 X152.713 Y156.638 E.54678
G1 X152.208 Y156.638 E.01472
G1 X165.483 Y143.362 E.54678
G1 X164.978 Y143.362 E.01472
G1 X151.702 Y156.638 E.54678
G1 X151.197 Y156.638 E.01472
G1 X164.472 Y143.362 E.54678
G1 X163.967 Y143.362 E.01472
G1 X150.691 Y156.638 E.54678
G1 X150.186 Y156.638 E.01472
G1 X163.461 Y143.362 E.54678
G1 X162.956 Y143.362 E.01472
G1 X149.68 Y156.638 E.54678
G1 X149.175 Y156.638 E.01472
G1 X162.45 Y143.362 E.54678
G1 X161.945 Y143.362 E.01472
G1 X148.67 Y156.638 E.54678
G1 X148.164 Y156.638 E.01472
G1 X161.439 Y143.362 E.54678
G1 X160.934 Y143.362 E.01472
G1 X147.659 Y156.638 E.54678
G1 X147.153 Y156.638 E.01472
G1 X160.428 Y143.362 E.54678
G1 X159.923 Y143.362 E.01472
G1 X146.648 Y156.638 E.54678
G1 X146.142 Y156.638 E.01472
G1 X159.418 Y143.362 E.54678
G1 X158.912 Y143.362 E.01472
G1 X145.637 Y156.638 E.54678
G1 X145.131 Y156.638 E.01472
G1 X158.407 Y143.362 E.54678
G1 X157.901 Y143.362 E.01472
G1 X144.626 Y156.638 E.54678
G1 X144.12 Y156.638 E.01472
G1 X157.396 Y143.362 E.54678
G1 X156.89 Y143.362 E.01472
G1 X143.615 Y156.638 E.54678
G1 X143.11 Y156.638 E.01472
G1 X156.385 Y143.362 E.54678
G1 X155.879 Y143.362 E.01472
G1 X142.604 Y156.638 E.54678
G1 X142.099 Y156.638 E.01472
M73 P5 R12
G1 X155.374 Y143.362 E.54678
G1 X154.868 Y143.362 E.01472
G1 X141.593 Y156.638 E.54678
G1 X141.088 Y156.638 E.01472
G1 X154.363 Y143.362 E.54678
G1 X153.858 Y143.362 E.01472
G1 X140.582 Y156.638 E.54678
G1 X140.077 Y156.638 E.01472
G1 X153.352 Y143.362 E.54678
G1 X152.847 Y143.362 E.01472
G1 X139.571 Y156.638 E.54678
G1 X139.066 Y156.638 E.01472
G1 X152.341 Y143.362 E.54678
G1 X151.836 Y143.362 E.01472
G1 X138.561 Y156.638 E.54678
G1 X138.055 Y156.638 E.01472
G1 X151.33 Y143.362 E.54678
G1 X150.825 Y143.362 E.01472
G1 X137.55 Y156.638 E.54678
G1 X137.044 Y156.638 E.01472
G1 X150.319 Y143.362 E.54678
G1 X149.814 Y143.362 E.01472
G1 X136.539 Y156.638 E.54678
G1 X136.033 Y156.638 E.01472
G1 X149.308 Y143.362 E.54678
G1 X148.803 Y143.362 E.01472
G1 X135.528 Y156.638 E.54678
G1 X135.022 Y156.638 E.01472
G1 X148.298 Y143.362 E.54678
G1 X147.792 Y143.362 E.01472
G1 X134.517 Y156.638 E.54678
G1 X134.011 Y156.638 E.01472
G1 X147.287 Y143.362 E.54678
G1 X146.781 Y143.362 E.01472
G1 X133.506 Y156.638 E.54678
G1 X133.007 Y156.631 E.01453
G1 X146.276 Y143.362 E.54651
G1 X145.77 Y143.362 E.01472
G1 X132.56 Y156.572 E.54409
G1 X132.449 Y156.558 E.00328
G1 X132.181 Y156.447 E.00845
G1 X145.265 Y143.362 E.53891
G1 X144.759 Y143.362 E.01472
G1 X131.846 Y156.276 E.5319
G1 X131.56 Y156.057 E.0105
G1 X144.254 Y143.362 E.52286
G1 X143.749 Y143.362 E.01472
G1 X131.325 Y155.786 E.51171
G1 X131.155 Y155.565 E.00811
G1 X131.122 Y155.484 E.00256
G1 X143.243 Y143.362 E.49926
G1 X142.738 Y143.362 E.01472
G1 X130.974 Y155.126 E.48454
G1 X130.942 Y155.051 E.00237
G1 X130.896 Y154.699 E.01036
G1 X142.232 Y143.362 E.46691
G1 X141.727 Y143.362 E.01472
G1 X130.862 Y154.227 E.44748
G1 X130.862 Y153.721 E.01472
G1 X141.221 Y143.362 E.42666
G1 X140.716 Y143.362 E.01472
G1 X130.862 Y153.216 E.40584
G1 X130.862 Y152.71 E.01472
G1 X140.21 Y143.362 E.38502
G1 X139.705 Y143.362 E.01472
G1 X130.862 Y152.205 E.3642
G1 X130.862 Y151.699 E.01472
G1 X139.199 Y143.362 E.34339
G1 X138.694 Y143.362 E.01472
G1 X130.862 Y151.194 E.32257
G1 X130.862 Y150.689 E.01472
G1 X138.189 Y143.362 E.30175
G1 X137.683 Y143.362 E.01472
G1 X130.862 Y150.183 E.28093
G1 X130.862 Y149.678 E.01472
G1 X137.178 Y143.362 E.26011
G1 X136.672 Y143.362 E.01472
G1 X130.862 Y149.172 E.23929
G1 X130.862 Y148.667 E.01472
G1 X136.167 Y143.362 E.21847
G1 X135.661 Y143.362 E.01472
G1 X130.862 Y148.161 E.19766
G1 X130.862 Y147.656 E.01472
G1 X135.156 Y143.362 E.17684
G1 X134.65 Y143.362 E.01472
G1 X130.862 Y147.15 E.15602
G1 X130.862 Y146.645 E.01472
G1 X134.145 Y143.362 E.1352
G1 X133.639 Y143.362 E.01472
G1 X130.862 Y146.139 E.11438
G1 X130.862 Y145.634 E.01472
G1 X133.134 Y143.362 E.09356
G1 X132.564 Y143.427 E.01672
G1 X130.741 Y145.25 E.07509
; stop printing object retraction_tower.stl id:0 copy 0
