; HEADER_BLOCK_START
; generated by OrcaSlicer 1.6.3 on 2023-07-11 at 23:18:27
; total layer number: 100
; HEADER_BLOCK_END

; THUMBNAIL_BLOCK_START
; THUMBNAIL_BLOCK_END

; external perimeters extrusion width = 0.70mm
; perimeters extrusion width = 0.45mm
; infill extrusion width = 0.45mm
; solid infill extrusion width = 0.40mm
; top infill extrusion width = 0.40mm
; first layer extrusion width = 0.50mm

; EXECUTABLE_BLOCK_START
EXCLUDE_OBJECT_DEFINE NAME=SpeedTestStructure.step_id_0_copy_0 CENTER=150,150 POLYGON=[[60,120],[60.0015,119.762],[60.0049,119.558],[60.006,119.517],[60.0185,119.143],[60.0196,119.115],[60.0213,119.08],[60.041,118.72],[60.044,118.674],[60.0452,118.656],[60.0695,118.336],[60.0728,118.297],[60.0783,118.232],[60.0993,118.011],[60.1008,117.996],[60.1222,117.792],[60.1283,117.739],[60.1427,117.615],[60.1532,117.529],[60.1586,117.486],[60.1726,117.378],[60.1782,117.336],[60.1913,117.241],[60.1919,117.236],[60.201,117.171],[60.2024,117.162],[60.2074,117.127],[60.2091,117.116],[60.2129,117.089],[60.2157,117.071],[60.2169,117.063],[60.2171,117.061],[60.2329,116.957],[60.2394,116.915],[60.3124,116.479],[60.3219,116.429],[60.3952,116.044],[60.4875,115.611],[60.5893,115.181],[60.7007,114.752],[60.7145,114.704],[60.8215,114.327],[60.8364,114.278],[60.9517,113.904],[60.9677,113.856],[61.0912,113.484],[61.24,113.067],[61.398,112.654],[61.565,112.244],[61.7411,111.838],[61.9261,111.436],[61.9483,111.391],[62.12,111.039],[62.1432,110.994],[62.3226,110.645],[62.3468,110.601],[62.5339,110.257],[62.7537,109.873],[62.982,109.493],[63.2186,109.12],[63.4634,108.751],[63.4923,108.71],[63.7163,108.388],[63.9771,108.031],[64.0078,107.99],[64.2458,107.679],[64.2774,107.64],[64.5223,107.334],[64.8063,106.994],[64.8396,106.956],[65.0977,106.661],[65.3964,106.335],[65.4314,106.298],[65.7023,106.015],[66.0152,105.702],[66.0517,105.667],[66.3349,105.396],[66.6613,105.098],[66.9942,104.806],[67.3335,104.522],[67.679,104.246],[68.0306,103.977],[68.0714,103.947],[68.3879,103.716],[68.4294,103.687],[68.751,103.463],[69.1196,103.219],[69.4935,102.982],[69.8725,102.754],[69.9164,102.729],[70.2565,102.534],[70.301,102.51],[70.6453,102.323],[71.0387,102.12],[71.4364,101.926],[71.8383,101.741],[72.2442,101.565],[72.654,101.398],[72.7012,101.38],[73.0673,101.24],[73.1149,101.223],[73.484,101.091],[73.9039,100.952],[73.9522,100.937],[74.3268,100.822],[74.7524,100.701],[75.1806,100.589],[75.2299,100.578],[75.6112,100.487],[76.044,100.395],[76.4786,100.312],[76.915,100.239],[76.9651,100.232],[77.3529,100.176],[77.7921,100.122],[78.2324,100.078],[78.6735,100.044],[78.724,100.041],[79.1153,100.02],[79.1659,100.018],[79.5576,100.005],[80,100],[230,100],[230.314,100.005],[230.35,100.007],[230.628,100.02],[230.664,100.023],[230.941,100.044],[231.253,100.079],[231.289,100.084],[231.564,100.123],[231.874,100.177],[231.909,100.184],[232.181,100.241],[232.487,100.314],[232.79,100.397],[232.824,100.408],[233.09,100.489],[233.124,100.501],[233.387,100.591],[233.681,100.702],[233.971,100.822],[234.004,100.837],[234.258,100.952],[234.29,100.968],[234.54,101.09],[234.572,101.107],[234.818,101.237],[234.849,101.255],[235.09,101.393],[235.358,101.557],[235.388,101.576],[235.621,101.729],[235.878,101.91],[236.129,102.098],[236.374,102.295],[236.402,102.318],[236.613,102.499],[236.845,102.71],[237.071,102.929],[237.29,103.155],[237.501,103.387],[237.705,103.626],[237.902,103.871],[237.923,103.9],[238.09,104.122],[238.271,104.379],[238.291,104.409],[238.443,104.642],[238.607,104.91],[238.625,104.941],[238.763,105.182],[238.91,105.46],[239.048,105.742],[239.063,105.775],[239.178,106.029],[239.191,106.062],[239.298,106.319],[239.31,106.352],[239.409,106.613],[239.511,106.91],[239.521,106.944],[239.603,107.21],[239.612,107.245],[239.686,107.513],[239.694,107.548],[239.759,107.819],[239.823,108.126],[239.877,108.436],[239.882,108.471],[239.921,108.747],[239.925,108.782],[239.956,109.059],[239.98,109.372],[239.982,109.408],[239.995,109.686],[239.996,109.722],[240,110],[240,190],[239.995,190.314],[239.98,190.628],[239.977,190.664],[239.956,190.941],[239.921,191.253],[239.916,191.289],[239.877,191.564],[239.823,191.874],[239.759,192.181],[239.686,192.487],[239.676,192.522],[239.603,192.79],[239.511,193.09],[239.409,193.387],[239.396,193.421],[239.298,193.681],[239.178,193.971],[239.048,194.258],[238.91,194.54],[238.763,194.818],[238.745,194.849],[238.607,195.09],[238.443,195.358],[238.271,195.621],[238.09,195.878],[237.902,196.129],[237.879,196.157],[237.705,196.374],[237.501,196.613],[237.29,196.845],[237.071,197.071],[236.845,197.29],[236.613,197.501],[236.586,197.524],[236.374,197.705],[236.346,197.728],[236.129,197.902],[236.1,197.923],[235.878,198.09],[235.621,198.271],[235.358,198.443],[235.328,198.462],[235.09,198.607],[234.818,198.763],[234.54,198.91],[234.508,198.926],[234.258,199.048],[234.225,199.063],[233.971,199.178],[233.938,199.191],[233.681,199.298],[233.387,199.409],[233.09,199.511],[233.056,199.521],[232.79,199.603],[232.755,199.612],[232.487,199.686],[232.452,199.694],[232.181,199.759],[232.146,199.766],[231.874,199.823],[231.838,199.829],[231.564,199.877],[231.253,199.921],[231.218,199.925],[230.941,199.956],[230.905,199.958],[230.628,199.98],[230.592,199.982],[230.314,199.995],[230.278,199.996],[230,200],[80,200],[79.9895,200],[79.5576,199.995],[79.1153,199.98],[79.0648,199.978],[78.6735,199.956],[78.6231,199.952],[78.2324,199.922],[77.7921,199.878],[77.3529,199.824],[77.3029,199.817],[76.915,199.761],[76.8652,199.752],[76.4786,199.688],[76.429,199.678],[76.044,199.605],[75.9945,199.594],[75.6112,199.513],[75.562,199.501],[75.1806,199.411],[74.7524,199.299],[74.3268,199.178],[73.9039,199.048],[73.484,198.909],[73.0673,198.76],[72.654,198.602],[72.2442,198.435],[71.8383,198.259],[71.4364,198.074],[71.3909,198.052],[71.0387,197.88],[70.9937,197.857],[70.6453,197.677],[70.2565,197.466],[70.2126,197.441],[69.8725,197.246],[69.8292,197.22],[69.4935,197.018],[69.1196,196.781],[68.751,196.537],[68.7095,196.508],[68.3879,196.284],[68.0305,196.023],[67.679,195.754],[67.3335,195.478],[66.9942,195.194],[66.6613,194.902],[66.3349,194.604],[66.0152,194.298],[65.9794,194.262],[65.7023,193.985],[65.3964,193.665],[65.0977,193.339],[64.8063,193.006],[64.7738,192.967],[64.5223,192.666],[64.4907,192.627],[64.2458,192.321],[63.9771,191.969],[63.9473,191.929],[63.7163,191.612],[63.4634,191.249],[63.4354,191.207],[63.2186,190.88],[62.982,190.507],[62.7537,190.127],[62.5339,189.743],[62.5097,189.699],[62.3226,189.355],[62.12,188.961],[61.9261,188.564],[61.7411,188.162],[61.721,188.115],[61.565,187.756],[61.5459,187.709],[61.398,187.346],[61.3799,187.299],[61.24,186.933],[61.0912,186.516],[61.0753,186.468],[60.9517,186.096],[60.8215,185.673],[60.8077,185.625],[60.7007,185.248],[60.688,185.199],[60.5893,184.819],[60.4875,184.389],[60.4769,184.339],[60.3952,183.956],[60.3124,183.521],[60.2394,183.085],[60.2171,182.939],[60.2151,182.926],[60.2132,182.912],[60.211,182.898],[60.2091,182.885],[60.2074,182.873],[60.2007,182.827],[60.1986,182.812],[60.1917,182.762],[60.1867,182.726],[60.176,182.647],[60.173,182.625],[60.1586,182.514],[60.1553,182.487],[60.1361,182.329],[60.1285,182.264],[60.1222,182.208],[60.1081,182.076],[60.1004,182],[60.0783,181.768],[60.0706,181.678],[60.0523,181.445],[60.044,181.326],[60.0419,181.294],[60.0268,181.035],[60.0196,180.885],[60.0191,180.871],[60.0092,180.603],[60.0049,180.442],[60.0023,180.296],[60,180],[60,120]]
M73 P0 R41
;TYPE:Custom
M104 S0 ; Stops OrcaSlicer from sending temp waits separately
M140 S0
print_start EXTRUDER=215 BED=60 


;CHAMBER=0
G90
G21
M83 ; use relative distances for extrusion
; filament start gcode
SET_PRESSURE_ADVANCE ADVANCE=0.025; Override pressure advance value
M106 S0
;LAYER_CHANGE
;Z:0.32
;HEIGHT:0.32
;BEFORE_LAYER_CHANGE
;0.32
G92 E0

G1 Z.32 F27000
;AFTER_LAYER_CHANGE
;0.32
M204 S2000
; printing object SpeedTestStructure.step id:0 copy 0
EXCLUDE_OBJECT_START NAME=SpeedTestStructure.step_id_0_copy_0
G1 E-.8 F1800
G1 Z.72 F27000
G1 X67.852 Y101.213
G1 Z.32
G1 E.8 F1800
;TYPE:Brim
;WIDTH:0.5
G1 X69.124 Y100.45 E.08343
G1 X70.395 Y99.795 E.08041
G1 X71.757 Y99.202 E.08351
G1 X73.155 Y98.701 E.08353
G1 X74.157 Y98.405 E.05874
G1 X75.547 Y98.076 E.08035
G1 X77.011 Y97.829 E.0835
G1 X78.487 Y97.679 E.08344
G1 X79.534 Y97.633 E.05892
G1 X229.995 Y97.628 E8.46141
G1 X231.127 Y97.679 E.06371
G1 X231.589 Y97.731 E.02615
G1 X232.28 Y97.84 E.03931
G1 X232.737 Y97.935 E.02626
G1 X233.414 Y98.108 E.03933
G1 X233.86 Y98.246 E.02624
G1 X234.518 Y98.483 E.03933
G1 X234.949 Y98.661 E.02624
G1 X235.582 Y98.959 E.03931
G1 X235.994 Y99.177 E.02625
G1 X236.596 Y99.533 E.03933
G1 X236.986 Y99.789 E.02624
G1 X237.55 Y100.199 E.03922
G1 X238.212 Y100.747 E.0483
G1 X238.721 Y101.224 E.03923
G1 X239.045 Y101.559 E.02624
G1 X239.508 Y102.084 E.03933
G1 X239.8 Y102.448 E.02624
G1 X240.21 Y103.013 E.03924
G1 X240.466 Y103.402 E.02622
G1 X241.007 Y104.35 E.06137
G1 X241.211 Y104.767 E.02613
G1 X241.489 Y105.409 E.03934
G1 X241.654 Y105.846 E.02624
G1 X241.869 Y106.509 E.03922
G1 X242.083 Y107.341 E.04828
G1 X242.214 Y108.026 E.03923
G1 X242.279 Y108.488 E.02624
G1 X242.345 Y109.184 E.03932
G1 X242.367 Y109.65 E.02625
G1 X242.367 Y110.35 E.03932
G1 X242.345 Y110.812 E.02605
G1 X242.225 Y111.899 E.06146
G1 X242.145 Y112.357 E.02614
G1 X241.994 Y113.036 E.03915
G1 X241.754 Y113.862 E.04835
G1 X241.517 Y114.518 E.03925
G1 X241.339 Y114.949 E.02624
G1 X241.041 Y115.582 E.03932
G1 X240.823 Y115.994 E.02624
G1 X240.467 Y116.596 E.03933
G1 X240.211 Y116.986 E.02624
G1 X239.8 Y117.552 E.03932
G1 X239.509 Y117.915 E.02614
G1 X238.775 Y118.722 E.06137
G1 X238.441 Y119.045 E.02614
G1 X237.916 Y119.508 E.03932
G1 X237.552 Y119.8 E.02624
G1 X236.986 Y120.211 E.03933
G1 X236.596 Y120.467 E.02624
G1 X235.994 Y120.823 E.03933
G1 X235.582 Y121.041 E.02624
G1 X234.949 Y121.339 E.03934
G1 X234.518 Y121.517 E.02624
G1 X233.86 Y121.754 E.03933
G1 X233.414 Y121.892 E.02624
G1 X232.738 Y122.065 E.03925
G1 X232.28 Y122.16 E.0263
G1 X231.511 Y122.279 E.04378
G1 X230.737 Y122.35 E.04372
G1 X229.997 Y122.372 E.04163
G1 X90.02 Y122.372 E7.87176
G1 X89.528 Y122.387 E.0277
G1 X88.797 Y122.468 E.04138
G1 X88.093 Y122.615 E.04041
G1 X87.407 Y122.827 E.0404
G1 X86.743 Y123.103 E.0404
G1 X86.112 Y123.438 E.04022
G1 X85.718 Y123.688 E.02619
G1 X85.332 Y123.968 E.02688
G1 X84.771 Y124.447 E.04143
G1 X84.272 Y124.964 E.04042
G1 X83.823 Y125.525 E.04042
G1 X83.431 Y126.123 E.04021
G1 X83.207 Y126.531 E.02619
G1 X83.003 Y126.965 E.02694
G1 X82.749 Y127.633 E.04022
G1 X82.555 Y128.343 E.04137
G1 X82.466 Y128.812 E.02687
G1 X82.407 Y129.275 E.02625
G1 X82.373 Y129.99 E.04022
G1 X82.406 Y130.708 E.04041
G1 X82.506 Y131.419 E.04041
G1 X82.673 Y132.118 E.04042
G1 X82.827 Y132.593 E.02808
G1 X83.103 Y133.257 E.0404
G1 X83.44 Y133.891 E.04041
G1 X83.824 Y134.475 E.03927
G1 X84.272 Y135.036 E.04041
G1 X84.771 Y135.553 E.0404
G1 X85.316 Y136.02 E.04034
G1 X85.904 Y136.434 E.04047
G1 X86.528 Y136.791 E.04042
G1 X87.182 Y137.087 E.04034
G1 X87.653 Y137.257 E.02816
G1 X88.346 Y137.446 E.04041
G1 X89.054 Y137.568 E.0404
G1 X89.75 Y137.623 E.03928
G1 X229.997 Y137.628 E7.88695
G1 X230.737 Y137.65 E.04163
G1 X231.203 Y137.687 E.02631
G1 X231.897 Y137.774 E.03933
G1 X232.355 Y137.854 E.02614
G1 X233.413 Y138.108 E.06119
G1 X234.227 Y138.373 E.04816
G1 X235.232 Y138.789 E.06117
G1 X235.994 Y139.177 E.04809
G1 X236.922 Y139.746 E.06117
G1 X237.614 Y140.248 E.04809
G1 X238.441 Y140.955 E.06117
G1 X239.045 Y141.559 E.04808
G1 X239.752 Y142.386 E.06118
G1 X240.254 Y143.078 E.04809
G1 X240.823 Y144.006 E.06117
G1 X241.211 Y144.768 E.04808
G1 X241.627 Y145.772 E.06117
G1 X241.892 Y146.587 E.04817
G1 X242.082 Y147.339 E.04362
G1 X242.269 Y148.411 E.06119
G1 X242.35 Y149.26 E.04799
G1 X242.367 Y150.35 E.06127
G1 X242.313 Y151.203 E.04809
G1 X242.16 Y152.28 E.06117
G1 X241.973 Y153.115 E.04809
G1 X241.654 Y154.154 E.06116
G1 X241.339 Y154.949 E.0481
G1 X240.86 Y155.926 E.06117
G1 X240.467 Y156.595 E.04364
G1 X239.986 Y157.303 E.04816
G1 X239.306 Y158.152 E.06117
G1 X238.721 Y158.776 E.04809
G1 X237.916 Y159.508 E.06117
G1 X237.24 Y160.032 E.04809
G1 X236.331 Y160.629 E.06117
G1 X235.581 Y161.042 E.04816
G1 X234.877 Y161.37 E.04369
G1 X234.153 Y161.654 E.04373
G1 X233.49 Y161.869 E.03918
G1 X232.737 Y162.066 E.0438
G1 X232.28 Y162.16 E.0262
G1 X231.511 Y162.279 E.04378
G1 X230.737 Y162.35 E.04373
G1 X230.037 Y162.372 E.03935
G1 X90.02 Y162.372 E7.87404
G1 X89.528 Y162.387 E.0277
G1 X88.797 Y162.468 E.04138
G1 X88.093 Y162.615 E.0404
G1 X87.407 Y162.827 E.04042
G1 X86.743 Y163.103 E.04041
G1 X86.112 Y163.438 E.04022
G1 X85.718 Y163.688 E.02619
G1 X85.332 Y163.968 E.02688
G1 X84.786 Y164.433 E.04029
G1 X84.285 Y164.949 E.04042
G1 X83.835 Y165.509 E.04041
G1 X83.431 Y166.123 E.04135
G1 X83.207 Y166.531 E.02618
G1 X83.003 Y166.965 E.02694
G1 X82.749 Y167.633 E.04022
G1 X82.559 Y168.326 E.04042
G1 X82.434 Y169.034 E.04041
G1 X82.377 Y169.75 E.0404
G1 X82.387 Y170.469 E.04041
G1 X82.465 Y171.183 E.04042
G1 X82.61 Y171.886 E.04033
G1 X82.82 Y172.574 E.04048
G1 X83.094 Y173.238 E.0404
G1 X83.43 Y173.874 E.04042
G1 X83.824 Y174.475 E.04041
G1 X84.272 Y175.036 E.04041
G1 X84.602 Y175.389 E.02714
G1 X85.13 Y175.87 E.04021
G1 X85.705 Y176.303 E.04041
G1 X86.317 Y176.679 E.04041
G1 X86.962 Y176.996 E.04041
G1 X87.426 Y177.18 E.02809
G1 X88.113 Y177.39 E.04041
G1 X88.817 Y177.535 E.04041
G1 X89.528 Y177.613 E.04023
G1 X90.02 Y177.628 E.0277
G1 X229.997 Y177.628 E7.87176
M73 P1 R41
G1 X230.738 Y177.65 E.04171
G1 X231.203 Y177.687 E.02623
G1 X231.897 Y177.774 E.03933
G1 X232.355 Y177.854 E.02614
G1 X233.414 Y178.109 E.06127
G1 X234.229 Y178.373 E.04817
G1 X234.949 Y178.661 E.04361
G1 X235.926 Y179.14 E.06119
G1 X236.661 Y179.574 E.04798
G1 X237.552 Y180.2 E.06127
G1 X238.211 Y180.746 E.04809
G1 X238.992 Y181.503 E.06117
G1 X239.557 Y182.144 E.04808
G1 X240.211 Y183.014 E.06117
G1 X240.668 Y183.734 E.048
G1 X241.178 Y184.697 E.06127
G1 X241.517 Y185.482 E.04808
G1 X241.87 Y186.511 E.06119
G1 X242.065 Y187.262 E.04362
G1 X242.226 Y188.103 E.04816
G1 X242.345 Y189.183 E.06109
G1 X242.372 Y190.039 E.04817
G1 X242.321 Y191.126 E.06118
G1 X242.213 Y191.974 E.04809
G1 X241.993 Y193.038 E.06111
G1 X241.779 Y193.785 E.0437
G1 X241.489 Y194.59 E.04815
G1 X241.042 Y195.581 E.06112
G1 X240.67 Y196.263 E.04369
G1 X240.211 Y196.986 E.04817
G1 X239.557 Y197.856 E.06117
G1 X238.992 Y198.497 E.04809
G1 X238.211 Y199.255 E.06118
G1 X237.552 Y199.8 E.04808
G1 X236.662 Y200.425 E.06119
G1 X235.995 Y200.822 E.04363
G1 X235.304 Y201.177 E.04371
G1 X234.591 Y201.488 E.04371
G1 X233.861 Y201.754 E.04371
G1 X233.115 Y201.973 E.0437
G1 X232.357 Y202.145 E.04371
G1 X231.59 Y202.269 E.04371
G1 X230.817 Y202.345 E.0437
G1 X230.037 Y202.372 E.04389
G1 X80.004 Y202.372 E8.43732
G1 X78.545 Y202.325 E.0821
G1 X77.067 Y202.179 E.08349
G1 X75.602 Y201.935 E.08354
G1 X74.583 Y201.706 E.05874
G1 X73.154 Y201.299 E.08355
G1 X71.809 Y200.819 E.08029
G1 X70.446 Y200.23 E.08349
G1 X69.126 Y199.551 E.08349
G1 X67.854 Y198.788 E.08344
G1 X66.988 Y198.199 E.05886
G1 X65.809 Y197.295 E.08355
G1 X64.693 Y196.316 E.08348
G1 X63.684 Y195.306 E.08031
G1 X62.705 Y194.191 E.08348
G1 X61.801 Y193.012 E.08349
G1 X60.978 Y191.776 E.08353
G1 X60.449 Y190.875 E.05875
G1 X59.794 Y189.604 E.08041
G1 X59.368 Y188.65 E.05874
G1 X58.839 Y187.262 E.08355
G1 X58.419 Y185.897 E.08028
G1 X58.075 Y184.452 E.08356
G1 X57.891 Y183.423 E.05876
G1 X57.717 Y181.995 E.08091
G1 X57.648 Y180.96 E.05837
G1 X57.628 Y179.998 E.05411
G1 X57.628 Y120.002 E3.37391
G1 X57.651 Y118.979 E.05759
G1 X57.72 Y117.974 E.05663
G1 X57.9 Y116.521 E.08232
G1 X58.167 Y115.117 E.08036
G1 X58.419 Y114.104 E.05874
G1 X58.858 Y112.684 E.08354
G1 X59.39 Y111.298 E.08349
G1 X59.987 Y110 E.08036
G1 X60.476 Y109.077 E.05873
G1 X61.243 Y107.807 E.08343
G1 X62.06 Y106.634 E.08041
G1 X62.986 Y105.473 E.08349
G1 X63.987 Y104.376 E.08355
G1 X64.734 Y103.646 E.05874
G1 X65.809 Y102.705 E.08035
G1 X66.988 Y101.801 E.08355
G1 X67.802 Y101.247 E.05536
G1 X68.045 Y101.604 F27000
G1 F1800
