; HEADER_BLOCK_START
; generated by OrcaSlicer 1.6.3 on 2023-07-18 at 15:26:53
; total layer number: 69
; HEADER_BLOCK_END

; THUMBNAIL_BLOCK_START
; THUMBNAIL_BLOCK_END

; external perimeters extrusion width = 0.70mm
; perimeters extrusion width = 0.45mm
; infill extrusion width = 0.45mm
; solid infill extrusion width = 0.40mm
; top infill extrusion width = 0.40mm
; first layer extrusion width = 0.50mm

; EXECUTABLE_BLOCK_START
EXCLUDE_OBJECT_DEFINE NAME=SpeedTestStructure.step_id_0_copy_0 CENTER=150,150 POLYGON=[[60,120],[60.0015,119.762],[60.0049,119.558],[60.006,119.517],[60.0185,119.143],[60.0196,119.115],[60.0213,119.08],[60.041,118.72],[60.044,118.674],[60.0452,118.656],[60.0695,118.336],[60.0728,118.297],[60.0783,118.232],[60.0993,118.011],[60.1008,117.996],[60.1222,117.792],[60.1283,117.739],[60.1427,117.615],[60.1532,117.529],[60.1586,117.486],[60.1726,117.378],[60.1782,117.336],[60.1913,117.241],[60.1919,117.236],[60.201,117.171],[60.2024,117.162],[60.2074,117.127],[60.2091,117.116],[60.2129,117.089],[60.2157,117.071],[60.2169,117.063],[60.2171,117.061],[60.2394,116.915],[60.3124,116.479],[60.3952,116.044],[60.4875,115.611],[60.4955,115.577],[60.5893,115.181],[60.7007,114.752],[60.7102,114.719],[60.8215,114.327],[60.9517,113.904],[61.0912,113.484],[61.1029,113.451],[61.24,113.067],[61.398,112.654],[61.565,112.244],[61.5789,112.212],[61.7411,111.838],[61.9261,111.436],[62.12,111.039],[62.1359,111.008],[62.3226,110.645],[62.5339,110.257],[62.7537,109.873],[62.982,109.493],[63.0006,109.464],[63.2186,109.12],[63.4634,108.751],[63.4832,108.722],[63.7163,108.388],[63.9771,108.031],[63.9982,108.003],[64.2458,107.679],[64.2676,107.652],[64.5223,107.334],[64.8063,106.994],[64.8292,106.968],[65.0977,106.661],[65.3964,106.335],[65.7023,106.015],[66.0152,105.702],[66.3349,105.396],[66.6613,105.098],[66.9942,104.806],[67.0209,104.784],[67.3335,104.522],[67.679,104.246],[68.0306,103.977],[68.0586,103.957],[68.3879,103.716],[68.751,103.463],[69.1196,103.219],[69.4935,102.982],[69.5233,102.964],[69.8725,102.754],[69.9027,102.736],[70.2565,102.534],[70.2871,102.517],[70.6453,102.323],[71.0387,102.12],[71.4364,101.926],[71.468,101.912],[71.8383,101.741],[72.2442,101.565],[72.654,101.398],[72.6864,101.386],[73.0673,101.24],[73.1,101.228],[73.484,101.091],[73.517,101.08],[73.9039,100.952],[73.9371,100.941],[74.3268,100.822],[74.7524,100.701],[75.1806,100.589],[75.6112,100.487],[76.044,100.395],[76.0781,100.389],[76.4786,100.312],[76.915,100.239],[77.3529,100.176],[77.3874,100.172],[77.7921,100.122],[78.2324,100.078],[78.6735,100.044],[78.7083,100.042],[79.1153,100.02],[79.1501,100.018],[79.5576,100.005],[80,100],[230,100],[230.314,100.005],[230.628,100.02],[230.653,100.022],[230.941,100.044],[230.966,100.047],[231.253,100.079],[231.278,100.082],[231.564,100.123],[231.874,100.177],[231.898,100.182],[232.181,100.241],[232.205,100.247],[232.487,100.314],[232.79,100.397],[232.814,100.404],[233.09,100.489],[233.387,100.591],[233.681,100.702],[233.704,100.712],[233.971,100.822],[233.994,100.833],[234.258,100.952],[234.28,100.963],[234.54,101.09],[234.562,101.101],[234.818,101.237],[235.09,101.393],[235.358,101.557],[235.379,101.57],[235.621,101.729],[235.878,101.91],[236.129,102.098],[236.148,102.114],[236.374,102.295],[236.393,102.311],[236.613,102.499],[236.845,102.71],[237.071,102.929],[237.29,103.155],[237.501,103.387],[237.705,103.626],[237.902,103.871],[237.916,103.891],[238.09,104.122],[238.271,104.379],[238.284,104.4],[238.443,104.642],[238.607,104.91],[238.62,104.931],[238.763,105.182],[238.775,105.204],[238.91,105.46],[239.048,105.742],[239.178,106.029],[239.187,106.051],[239.298,106.319],[239.306,106.342],[239.409,106.613],[239.417,106.636],[239.511,106.91],[239.603,107.21],[239.609,107.234],[239.686,107.513],[239.692,107.537],[239.759,107.819],[239.823,108.126],[239.877,108.436],[239.88,108.46],[239.921,108.747],[239.956,109.059],[239.98,109.372],[239.981,109.397],[239.995,109.686],[239.995,109.711],[240,110],[240,190],[239.995,190.314],[239.994,190.339],[239.98,190.628],[239.956,190.941],[239.921,191.253],[239.877,191.564],[239.873,191.589],[239.823,191.874],[239.759,192.181],[239.753,192.205],[239.686,192.487],[239.679,192.511],[239.603,192.79],[239.596,192.814],[239.511,193.09],[239.409,193.387],[239.4,193.41],[239.298,193.681],[239.178,193.971],[239.167,193.994],[239.048,194.258],[239.037,194.28],[238.91,194.54],[238.763,194.818],[238.607,195.09],[238.595,195.111],[238.443,195.358],[238.271,195.621],[238.257,195.641],[238.09,195.878],[237.902,196.129],[237.705,196.374],[237.501,196.613],[237.29,196.845],[237.273,196.863],[237.071,197.071],[236.845,197.29],[236.827,197.306],[236.613,197.501],[236.374,197.705],[236.355,197.721],[236.129,197.902],[236.109,197.916],[235.878,198.09],[235.621,198.271],[235.358,198.443],[235.337,198.456],[235.09,198.607],[234.818,198.763],[234.54,198.91],[234.258,199.048],[234.235,199.058],[233.971,199.178],[233.949,199.187],[233.681,199.298],[233.387,199.409],[233.09,199.511],[232.79,199.603],[232.766,199.609],[232.487,199.686],[232.181,199.759],[231.874,199.823],[231.564,199.877],[231.54,199.88],[231.253,199.921],[231.229,199.924],[230.941,199.956],[230.916,199.958],[230.628,199.98],[230.314,199.995],[230.289,199.995],[230,200],[80,200],[79.5576,199.995],[79.1153,199.98],[79.0806,199.979],[78.6735,199.956],[78.2324,199.922],[77.7921,199.878],[77.3529,199.824],[77.3185,199.819],[76.915,199.761],[76.8807,199.755],[76.4786,199.688],[76.044,199.605],[76.01,199.598],[75.6112,199.513],[75.1806,199.411],[74.7524,199.299],[74.3268,199.178],[73.9039,199.048],[73.484,198.909],[73.4512,198.897],[73.0673,198.76],[72.654,198.602],[72.6218,198.589],[72.2442,198.435],[72.2124,198.421],[71.8383,198.259],[71.4364,198.074],[71.0387,197.88],[70.6453,197.677],[70.6148,197.661],[70.2565,197.466],[70.2264,197.449],[69.8725,197.246],[69.8428,197.228],[69.4935,197.018],[69.1196,196.781],[69.0906,196.762],[68.751,196.537],[68.3879,196.284],[68.3599,196.263],[68.0305,196.023],[67.679,195.754],[67.3335,195.478],[66.9942,195.194],[66.9681,195.171],[66.6613,194.902],[66.3349,194.604],[66.0152,194.298],[65.9906,194.273],[65.7023,193.985],[65.3964,193.665],[65.0977,193.339],[64.8063,193.006],[64.7839,192.979],[64.5223,192.666],[64.2458,192.321],[64.2247,192.293],[63.9771,191.969],[63.7163,191.612],[63.4634,191.249],[63.4441,191.22],[63.2186,190.88],[62.982,190.507],[62.7537,190.127],[62.5339,189.743],[62.5173,189.713],[62.3226,189.355],[62.3067,189.324],[62.12,188.961],[62.1048,188.93],[61.9261,188.564],[61.7411,188.162],[61.565,187.756],[61.5519,187.724],[61.398,187.346],[61.24,186.933],[61.0912,186.516],[61.0803,186.483],[60.9517,186.096],[60.9415,186.063],[60.8215,185.673],[60.7007,185.248],[60.5893,184.819],[60.5813,184.786],[60.4875,184.389],[60.4802,184.355],[60.3952,183.956],[60.3124,183.521],[60.2394,183.085],[60.2171,182.939],[60.2151,182.926],[60.2132,182.912],[60.211,182.898],[60.2091,182.885],[60.2074,182.873],[60.2007,182.827],[60.1986,182.812],[60.1917,182.762],[60.1867,182.726],[60.176,182.647],[60.173,182.625],[60.1586,182.514],[60.1553,182.487],[60.1361,182.329],[60.1285,182.264],[60.1222,182.208],[60.1081,182.076],[60.1004,182],[60.0783,181.768],[60.0706,181.678],[60.0523,181.445],[60.044,181.326],[60.0419,181.294],[60.0268,181.035],[60.0196,180.885],[60.0191,180.871],[60.0092,180.603],[60.0049,180.442],[60.0023,180.296],[60,180],[60,120]]
M73 P0 R18
;TYPE:Custom
M104 S0 ; Stops OrcaSlicer from sending temp waits separately
M140 S0
print_start EXTRUDER=220 BED=60 


;CHAMBER=0
G90
G21
M83 ; use relative distances for extrusion
; filament start gcode
SET_PRESSURE_ADVANCE ADVANCE=0.032; Override pressure advance value
M106 S0
;LAYER_CHANGE
;Z:0.32
;HEIGHT:0.32
;BEFORE_LAYER_CHANGE
;0.32
G92 E0

G1 Z.32 F21000
;AFTER_LAYER_CHANGE
;0.32
M204 S500
; printing object SpeedTestStructure.step id:0 copy 0
EXCLUDE_OBJECT_START NAME=SpeedTestStructure.step_id_0_copy_0
G1 E-.8 F1800
G1 Z.72 F21000
G1 X67.551 Y101.426
G1 Z.32
G1 E.8 F1800
;TYPE:Brim
;WIDTH:0.5
G1 F3000
G1 X68.224 Y100.978 E.04596
G1 X69.125 Y100.449 E.05934
G1 X70.447 Y99.77 E.08441
G1 X71.757 Y99.202 E.08112
G1 X73.155 Y98.701 E.08439
G1 X74.156 Y98.405 E.05934
G1 X75.547 Y98.076 E.08117
G1 X77.011 Y97.829 E.08434
G1 X78.486 Y97.679 E.08423
G1 X79.534 Y97.633 E.05958
G1 X229.995 Y97.628 E8.54775
G1 X231.127 Y97.68 E.06438
G1 X231.589 Y97.731 E.0264
G1 X232.279 Y97.84 E.0397
G1 X232.737 Y97.935 E.02653
G1 X233.414 Y98.108 E.03973
G1 X233.86 Y98.246 E.02651
G1 X234.518 Y98.483 E.03973
G1 X234.949 Y98.661 E.0265
G1 X235.582 Y98.959 E.03973
G1 X235.994 Y99.177 E.0265
G1 X236.594 Y99.532 E.0396
G1 X237.305 Y100.015 E.0488
G1 X237.856 Y100.442 E.03963
G1 X238.211 Y100.745 E.0265
G1 X238.72 Y101.224 E.0397
G1 X239.045 Y101.559 E.02654
G1 X239.507 Y102.082 E.03961
G1 X239.799 Y102.447 E.02653
G1 X240.426 Y103.339 E.06199
G1 X240.669 Y103.736 E.02641
G1 X241.006 Y104.349 E.03973
G1 X241.211 Y104.767 E.0265
G1 X241.489 Y105.409 E.03971
G1 X241.654 Y105.846 E.02654
G1 X241.869 Y106.509 E.03962
G1 X242.083 Y107.341 E.04877
G1 X242.214 Y108.026 E.03963
G1 X242.279 Y108.488 E.0265
G1 X242.345 Y109.184 E.03972
G1 X242.367 Y109.648 E.02637
G1 X242.367 Y110.35 E.03987
G1 X242.345 Y110.811 E.02627
G1 X242.225 Y111.899 E.06214
G1 X242.145 Y112.357 E.02641
G1 X241.993 Y113.039 E.03973
G1 X241.87 Y113.489 E.02651
G1 X241.654 Y114.152 E.03963
G1 X241.338 Y114.951 E.04878
G1 X241.041 Y115.582 E.03963
G1 X240.823 Y115.994 E.0265
G1 X240.467 Y116.596 E.03974
G1 X240.211 Y116.986 E.02651
G1 X239.801 Y117.55 E.0396
G1 X239.508 Y117.916 E.02663
G1 X239.045 Y118.441 E.03973
G1 X238.721 Y118.776 E.02651
G1 X238.211 Y119.255 E.03973
G1 X237.859 Y119.555 E.02626
G1 X236.985 Y120.212 E.06214
G1 X236.596 Y120.467 E.02641
G1 X235.994 Y120.823 E.03973
G1 X235.582 Y121.041 E.02651
G1 X234.949 Y121.339 E.03974
G1 X234.518 Y121.517 E.02651
G1 X233.862 Y121.754 E.03961
G1 X233.414 Y121.892 E.02663
G1 X232.739 Y122.065 E.03961
G1 X232.28 Y122.16 E.02661
G1 X231.511 Y122.279 E.04423
G1 X230.737 Y122.35 E.04417
G1 X229.997 Y122.372 E.04206
G1 X90.02 Y122.372 E7.95208
G1 X89.528 Y122.387 E.02799
G1 X88.817 Y122.465 E.04064
G1 X88.097 Y122.614 E.04178
G1 X87.637 Y122.748 E.02722
G1 X87.199 Y122.906 E.02645
G1 X86.546 Y123.2 E.04063
G1 X85.922 Y123.555 E.04082
G1 X85.333 Y123.967 E.04082
G1 X84.786 Y124.433 E.04084
G1 X84.272 Y124.964 E.04197
G1 X83.824 Y125.525 E.04081
G1 X83.43 Y126.126 E.04083
G1 X83.096 Y126.759 E.04065
G1 X82.911 Y127.186 E.02643
G1 X82.749 Y127.635 E.02712
G1 X82.559 Y128.326 E.04073
G1 X82.432 Y129.051 E.04179
G1 X82.387 Y129.526 E.02712
G1 X82.373 Y129.993 E.02656
G1 X82.406 Y130.708 E.04063
G1 X82.468 Y131.203 E.02839
G1 X82.615 Y131.907 E.0408
G1 X82.827 Y132.593 E.04082
G1 X83.103 Y133.257 E.04082
G1 X83.44 Y133.891 E.04082
G1 X83.835 Y134.491 E.04082
G1 X84.272 Y135.036 E.03967
G1 X84.771 Y135.553 E.04082
G1 X85.316 Y136.019 E.04072
G1 X85.904 Y136.434 E.04092
G1 X86.528 Y136.791 E.04083
G1 X87.183 Y137.088 E.04082
G1 X87.862 Y137.321 E.04082
G1 X88.561 Y137.49 E.04082
G1 X89.272 Y137.592 E.04082
G1 X89.754 Y137.623 E.02741
G1 X229.997 Y137.628 E7.96724
M73 P1 R17
G1 X230.736 Y137.65 E.04202
G1 X231.203 Y137.687 E.02662
G1 X231.897 Y137.774 E.03973
G1 X232.355 Y137.854 E.02641
G1 X233.412 Y138.108 E.06177
G1 X234.227 Y138.373 E.0487
G1 X235.232 Y138.789 E.0618
G1 X235.994 Y139.177 E.04858
G1 X236.92 Y139.744 E.06167
G1 X237.614 Y140.248 E.0487
G1 X238.439 Y140.953 E.06167
G1 X239.045 Y141.559 E.04869
G1 X239.752 Y142.386 E.06181
G1 X240.254 Y143.078 E.04858
G1 X240.823 Y144.006 E.06179
G1 X241.211 Y144.767 E.04857
G1 X241.626 Y145.77 E.06168
G1 X241.892 Y146.587 E.04878
G1 X242.082 Y147.339 E.04406
G1 X242.269 Y148.411 E.06181
G1 X242.35 Y149.262 E.04858
G1 X242.367 Y150.35 E.06179
G1 X242.313 Y151.203 E.04858
G1 X242.16 Y152.28 E.0618
G1 X241.973 Y153.115 E.04858
G1 X241.654 Y154.154 E.06179
G1 X241.338 Y154.951 E.04867
G1 X241.006 Y155.651 E.04405
G1 X240.467 Y156.596 E.06182
G1 X239.986 Y157.303 E.04857
G1 X239.306 Y158.152 E.0618
G1 X238.721 Y158.776 E.04858
G1 X237.916 Y159.508 E.0618
G1 X237.24 Y160.032 E.04858
G1 X236.331 Y160.629 E.06179
G1 X235.581 Y161.042 E.04865
G1 X234.877 Y161.37 E.04414
G1 X234.153 Y161.654 E.04415
G1 X233.413 Y161.892 E.04418
G1 X232.737 Y162.065 E.03965
G1 X232.28 Y162.16 E.02649
G1 X231.511 Y162.279 E.04425
G1 X230.817 Y162.345 E.03958
G1 X230.037 Y162.372 E.04435
G1 X90.02 Y162.372 E7.95437
G1 X89.528 Y162.387 E.02799
G1 X88.797 Y162.468 E.04179
G1 X88.097 Y162.614 E.04063
G1 X87.638 Y162.748 E.02712
G1 X87.199 Y162.906 E.02656
G1 X86.546 Y163.2 E.04063
G1 X85.922 Y163.555 E.04082
G1 X85.333 Y163.967 E.04082
G1 X84.786 Y164.433 E.04084
G1 X84.285 Y164.949 E.04082
G1 X83.835 Y165.509 E.04081
G1 X83.43 Y166.126 E.04197
G1 X83.096 Y166.759 E.04065
G1 X82.911 Y167.186 E.02643
G1 X82.749 Y167.635 E.02712
G1 X82.559 Y168.326 E.04073
G1 X82.434 Y169.034 E.04083
G1 X82.377 Y169.751 E.04084
G1 X82.387 Y170.469 E.04081
G1 X82.465 Y171.183 E.04082
G1 X82.61 Y171.887 E.04082
G1 X82.749 Y172.367 E.02837
G1 X83.004 Y173.038 E.04083
G1 X83.321 Y173.683 E.04082
G1 X83.686 Y174.279 E.03967
G1 X84.117 Y174.854 E.04084
G1 X84.6 Y175.386 E.04081
G1 X85.13 Y175.87 E.04083
G1 X85.705 Y176.303 E.04082
G1 X86.317 Y176.679 E.04082
G1 X86.96 Y176.995 E.04072
G1 X87.426 Y177.18 E.02848
G1 X88.113 Y177.39 E.04084
G1 X88.817 Y177.535 E.0408
G1 X89.528 Y177.613 E.04064
G1 X90.02 Y177.628 E.02798
G1 X229.997 Y177.628 E7.95209
G1 X230.738 Y177.65 E.04214
G1 X231.203 Y177.687 E.0265
G1 X231.897 Y177.774 E.03973
G1 X232.355 Y177.854 E.02641
G1 X233.414 Y178.109 E.06189
G1 X234.228 Y178.373 E.04858
G1 X235.232 Y178.789 E.06179
G1 X235.994 Y179.177 E.04857
G1 X236.922 Y179.746 E.06179
G1 X237.614 Y180.248 E.04858
G1 X238.439 Y180.953 E.0617
G1 X238.991 Y181.502 E.04418
G1 X239.557 Y182.144 E.04865
G1 X240.211 Y183.014 E.06179
G1 X240.67 Y183.737 E.04866
G1 X241.041 Y184.418 E.04406
G1 X241.489 Y185.409 E.06182
G1 X241.778 Y186.214 E.04857
G1 X242.065 Y187.263 E.0618
G1 X242.226 Y188.103 E.04857
G1 X242.345 Y189.182 E.06167
G1 X242.372 Y190.039 E.0487
G1 X242.321 Y191.126 E.0618
G1 X242.213 Y191.974 E.04858
G1 X241.993 Y193.039 E.06179
G1 X241.754 Y193.86 E.04857
G1 X241.37 Y194.876 E.0617
G1 X241.042 Y195.581 E.04418
G1 X240.629 Y196.331 E.04866
G1 X240.032 Y197.24 E.06179
G1 X239.558 Y197.855 E.04409
G1 X238.993 Y198.497 E.04858
G1 X238.441 Y199.045 E.04421
G1 X237.614 Y199.752 E.06181
G1 X236.922 Y200.254 E.04858
G1 X235.994 Y200.823 E.06182
G1 X235.304 Y201.177 E.04408
G1 X234.591 Y201.488 E.04416
G1 X233.861 Y201.754 E.04415
G1 X233.115 Y201.973 E.04415
G1 X232.358 Y202.145 E.04416
G1 X231.59 Y202.269 E.04416
G1 X230.817 Y202.345 E.04415
G1 X230.037 Y202.372 E.04434
G1 X80.004 Y202.372 E8.52342
M73 P2 R17
G1 X78.545 Y202.325 E.08293
G1 X77.067 Y202.179 E.08434
G1 X75.602 Y201.935 E.0844
G1 X74.583 Y201.706 E.05934
G1 X73.154 Y201.299 E.0844
G1 X71.809 Y200.819 E.08111
G1 X70.446 Y200.23 E.08435
G1 X69.126 Y199.551 E.08434
G1 X67.852 Y198.787 E.08438
G1 X66.989 Y198.199 E.05935
G1 X65.809 Y197.295 E.0844
G1 X64.693 Y196.316 E.08435
G1 X63.683 Y195.306 E.08117
G1 X62.986 Y194.528 E.05934
G1 X62.06 Y193.366 E.0844
G1 X61.213 Y192.147 E.08434
G1 X60.45 Y190.877 E.08416
G1 X59.794 Y189.604 E.08136
G1 X59.368 Y188.65 E.05934
G1 X58.84 Y187.265 E.08422
G1 X58.419 Y185.896 E.08135
G1 X58.167 Y184.883 E.05935
G1 X57.892 Y183.425 E.08425
G1 X57.717 Y181.995 E.08184
G1 X57.648 Y180.96 E.05897
G1 X57.628 Y179.998 E.05466
G1 X57.628 Y120.002 E3.40834
G1 X57.651 Y118.979 E.05818
G1 X57.72 Y117.974 E.05721
G1 X57.9 Y116.521 E.08316
G1 X58.167 Y115.119 E.08112
G1 X58.539 Y113.68 E.08439
G1 X58.857 Y112.685 E.05935
G1 X59.39 Y111.298 E.08441
G1 X59.987 Y110.001 E.08112
G1 X60.694 Y108.695 E.08437
G1 X61.243 Y107.806 E.05936
G1 X62.094 Y106.588 E.08441
G1 X62.986 Y105.473 E.0811
G1 X63.987 Y104.376 E.08439
G1 X64.734 Y103.646 E.05936
G1 X65.853 Y102.669 E.08441
G1 X66.988 Y101.802 E.0811
G1 X67.501 Y101.46 E.03504
G1 X67.74 Y101.819 F21000
G1 F3000
