; HEADER_BLOCK_START
; generated by OrcaSlicer 1.6.3 on 2023-07-11 at 04:34:23
; total layer number: 450
; HEADER_BLOCK_END

; THUMBNAIL_BLOCK_START
; THUMBNAIL_BLOCK_END

; external perimeters extrusion width = 0.40mm
; perimeters extrusion width = 0.45mm
; infill extrusion width = 0.45mm
; solid infill extrusion width = 0.40mm
; top infill extrusion width = 0.40mm
; first layer extrusion width = 0.50mm

; EXECUTABLE_BLOCK_START
EXCLUDE_OBJECT_DEFINE NAME=temperature_tower.stl_id_0_copy_0 CENTER=150,150 POLYGON=[[127.756,145],[167.785,145],[167.895,145.002],[167.995,145.006],[168.081,145.011],[168.145,145.016],[168.154,145.016],[168.21,145.021],[168.251,145.025],[168.276,145.028],[168.298,145.03],[168.314,145.032],[168.336,145.035],[168.364,145.038],[168.396,145.042],[168.432,145.047],[168.473,145.053],[168.503,145.057],[168.535,145.062],[168.627,145.078],[168.792,145.11],[168.857,145.124],[169.04,145.17],[169.133,145.195],[169.309,145.25],[169.361,145.267],[169.444,145.296],[169.511,145.321],[169.55,145.336],[169.663,145.381],[169.684,145.389],[169.752,145.418],[169.762,145.423],[169.785,145.433],[169.943,145.507],[169.987,145.529],[170.167,145.624],[170.246,145.668],[170.375,145.745],[170.517,145.836],[170.746,145.998],[171.063,146.257],[171.334,146.516],[171.508,146.704],[171.566,146.772],[171.76,147.017],[171.877,147.18],[171.916,147.238],[172.009,147.383],[172.036,147.427],[172.11,147.555],[172.125,147.582],[172.151,147.63],[172.185,147.694],[172.19,147.704],[172.212,147.746],[172.23,147.783],[172.24,147.803],[172.244,147.811],[172.243,152.19],[172.235,152.208],[172.22,152.237],[172.197,152.282],[172.166,152.342],[172.165,152.344],[172.124,152.42],[172.074,152.508],[172.021,152.597],[171.943,152.72],[171.895,152.794],[171.777,152.962],[171.744,153.006],[171.575,153.218],[171.353,153.465],[171.334,153.484],[171.055,153.75],[170.877,153.9],[170.738,154.008],[170.382,154.25],[170.369,154.258],[170.162,154.379],[170.135,154.394],[169.939,154.495],[169.891,154.518],[169.785,154.567],[169.762,154.577],[169.752,154.582],[169.684,154.611],[169.663,154.619],[169.55,154.664],[169.519,154.676],[169.458,154.699],[169.444,154.704],[169.361,154.733],[169.32,154.746],[169.273,154.762],[169.112,154.811],[169.04,154.83],[168.857,154.876],[168.792,154.89],[168.627,154.922],[168.535,154.938],[168.503,154.943],[168.473,154.947],[168.432,154.953],[168.396,154.958],[168.364,154.962],[168.336,154.965],[168.314,154.968],[168.298,154.97],[168.276,154.972],[168.251,154.975],[168.21,154.979],[168.154,154.984],[168.145,154.984],[168.081,154.989],[167.995,154.994],[167.895,154.998],[167.785,155],[127.756,155],[127.756,145]]
M73 P0 R79
;TYPE:Custom
M104 S0 ; Stops OrcaSlicer from sending temp waits separately
M140 S0
print_start EXTRUDER=230 BED=60 


;CHAMBER=0
G90
G21
M83 ; use relative distances for extrusion
; filament start gcode
M106 S0
;LAYER_CHANGE
;Z:0.2
;HEIGHT:0.2
;BEFORE_LAYER_CHANGE
;0.2
G92 E0

M104 S230 ; set nozzle temperature
G1 E-.8 F1800
G1 Z.4 F21000
;AFTER_LAYER_CHANGE
;0.2
M204 S500
; printing object temperature_tower.stl id:0 copy 0
EXCLUDE_OBJECT_START NAME=temperature_tower.stl_id_0_copy_0
G1 X134.407 Y142.239
G1 Z.2
G1 E.8 F1800
;TYPE:Brim
;WIDTH:0.5
G1 F3000
G1 X134.731 Y141.932 E.01664
G1 X135.258 Y141.565 E.0239
G1 X135.832 Y141.28 E.0239
G1 X136.443 Y141.082 E.0239
G1 X137.079 Y140.976 E.02402
G1 X137.477 Y140.958 E.01484
G1 X167.906 Y140.959 E1.13335
G1 X168.644 Y141.003 E.02755
G1 X169.19 Y141.077 E.02053
G1 X169.905 Y141.261 E.02748
G1 X170.493 Y141.515 E.02386
G1 X171.038 Y141.855 E.0239
G1 X171.526 Y142.27 E.0239
G1 X171.949 Y142.754 E.0239
G1 X172.295 Y143.294 E.0239
G1 X172.558 Y143.879 E.0239
G1 X172.731 Y144.494 E.02379
G1 X172.819 Y145.372 E.03288
G1 X172.819 Y154.631 E.34485
G1 X172.771 Y155.279 E.02422
G1 X172.63 Y155.905 E.0239
G1 X172.398 Y156.504 E.0239
G1 X172.08 Y157.061 E.0239
G1 X171.684 Y157.566 E.0239
G1 X171.217 Y158.007 E.0239
G1 X170.691 Y158.374 E.0239
G1 X170.12 Y158.658 E.02375
G1 X169.189 Y158.923 E.03607
G1 X168.451 Y159.015 E.02767
G1 X167.779 Y159.042 E.02505
G1 X137.48 Y159.042 E1.12852
G1 X136.832 Y158.994 E.02422
G1 X136.206 Y158.853 E.0239
G1 X135.608 Y158.621 E.0239
G1 X135.05 Y158.303 E.0239
G1 X134.545 Y157.907 E.0239
G1 X134.104 Y157.441 E.0239
G1 X133.737 Y156.914 E.0239
G1 X133.452 Y156.34 E.0239
G1 X133.254 Y155.729 E.0239
G1 X133.148 Y155.093 E.02402
G1 X133.13 Y154.695 E.01484
G1 X133.13 Y145.308 E.34961
G1 X133.178 Y144.66 E.02422
G1 X133.319 Y144.034 E.0239
G1 X133.551 Y143.436 E.0239
G1 X133.869 Y142.878 E.0239
G1 X134.265 Y142.373 E.0239
G1 X134.363 Y142.28 E.00503
G1 X134.676 Y142.614 F21000
G1 F3000
G1 X135.029 Y142.282 E.01803
G1 X135.483 Y141.965 E.02062
G1 X135.996 Y141.709 E.02137
G1 X136.562 Y141.526 E.02213
G1 X137.119 Y141.433 E.02106
G1 X137.491 Y141.415 E.01385
G1 X167.888 Y141.417 E1.13219
G1 X168.595 Y141.458 E.02637
G1 X169.094 Y141.525 E.01878
G1 X169.746 Y141.692 E.02503
G1 X170.271 Y141.917 E.02128
G1 X170.759 Y142.219 E.02138
G1 X171.197 Y142.59 E.02138
G1 X171.588 Y143.037 E.02213
G1 X171.896 Y143.521 E.02137
G1 X172.123 Y144.026 E.02062
G1 X172.281 Y144.591 E.02186
G1 X172.362 Y145.402 E.03035
G1 X172.362 Y154.609 E.34292
G1 X172.315 Y155.222 E.02289
G1 X172.188 Y155.781 E.02138
G1 X171.988 Y156.297 E.02062
G1 X171.693 Y156.814 E.02213
G1 X171.351 Y157.249 E.02062
G1 X170.935 Y157.644 E.02138
G1 X170.466 Y157.974 E.02137
G1 X169.965 Y158.224 E.02083
G1 X169.087 Y158.475 E.03404
G1 X168.419 Y158.558 E.02505
G1 X167.767 Y158.585 E.02432
G1 X137.492 Y158.585 E1.12762
G1 X136.91 Y158.542 E.02176
G1 X136.349 Y158.417 E.02138
G1 X135.814 Y158.211 E.02137
G1 X135.314 Y157.928 E.02138
G1 X134.862 Y157.575 E.02137
G1 X134.467 Y157.159 E.02138
G1 X134.137 Y156.689 E.02138
G1 X133.881 Y156.176 E.02137
G1 X133.698 Y155.61 E.02213
G1 X133.605 Y155.053 E.02106
G1 X133.587 Y154.681 E.01385
G1 X133.587 Y145.33 E.34829
G1 X133.63 Y144.738 E.02214
G1 X133.761 Y144.158 E.02213
G1 X133.97 Y143.624 E.02137
G1 X134.255 Y143.126 E.02138
G1 X134.611 Y142.675 E.02137
G1 X134.633 Y142.655 E.00111
G1 X134.956 Y142.978 F21000
G1 F3000
G1 X135.311 Y142.645 E.01812
G1 X135.709 Y142.365 E.01814
G1 X136.161 Y142.137 E.01883
G1 X136.68 Y141.969 E.02034
G1 X137.16 Y141.889 E.01812
G1 X137.505 Y141.872 E.01286
G1 X167.871 Y141.874 E1.13101
G1 X168.546 Y141.913 E.02519
G1 X168.999 Y141.973 E.01704
G1 X169.588 Y142.123 E.02261
G1 X170.05 Y142.32 E.01871
G1 X170.481 Y142.585 E.01885
G1 X170.882 Y142.924 E.01958
G1 X171.226 Y143.321 E.01956
G1 X171.487 Y143.73 E.01809
G1 X171.688 Y144.173 E.0181
G1 X171.832 Y144.688 E.01992
G1 X171.905 Y145.432 E.02782
G1 X171.905 Y154.586 E.34098
G1 X171.86 Y155.163 E.02154
G1 X171.752 Y155.637 E.01812
G1 X171.577 Y156.091 E.01811
G1 X171.307 Y156.566 E.02035
G1 X171.005 Y156.947 E.01811
G1 X170.653 Y157.283 E.01812
G1 X170.239 Y157.574 E.01885
G1 X169.81 Y157.791 E.01788
G1 X168.985 Y158.027 E.032
G1 X168.376 Y158.102 E.02284
G1 X167.755 Y158.128 E.02317
G1 X137.504 Y158.127 E1.12671
G1 X136.987 Y158.089 E.01933
G1 X136.492 Y157.98 E.01886
G1 X136.019 Y157.8 E.01885
G1 X135.578 Y157.552 E.01885
G1 X135.178 Y157.242 E.01885
G1 X134.829 Y156.876 E.01885
G1 X134.537 Y156.462 E.01885
G1 X134.309 Y156.011 E.01882
G1 X134.141 Y155.492 E.02034
G1 X134.061 Y155.012 E.01812
G1 X134.044 Y154.667 E.01286
G1 X134.044 Y145.352 E.34695
G1 X134.083 Y144.815 E.02005
G1 X134.203 Y144.283 E.02033
G1 X134.388 Y143.813 E.01882
G1 X134.641 Y143.374 E.01885
G1 X134.919 Y143.025 E.01661
G1 X135.277 Y143.311 F21000
G1 F3000
G1 X135.301 Y143.282 E.00142
G1 X135.608 Y142.995 E.01566
G1 X135.953 Y142.754 E.01569
G1 X136.345 Y142.558 E.0163
G1 X136.799 Y142.413 E.01775
G1 X137.201 Y142.346 E.0152
G1 X137.52 Y142.329 E.01187
G1 X167.853 Y142.331 E1.12982
G1 X168.497 Y142.368 E.02401
G1 X168.904 Y142.422 E.0153
G1 X169.431 Y142.555 E.02021
G1 X169.83 Y142.723 E.01614
G1 X170.203 Y142.951 E.01628
G1 X170.552 Y143.244 E.01698
G1 X170.865 Y143.604 E.01775
G1 X171.079 Y143.94 E.01488
G1 X171.253 Y144.32 E.01555
G1 X171.382 Y144.785 E.01795
G1 X171.448 Y145.461 E.02531
G1 X171.448 Y154.563 E.33903
G1 X171.408 Y155.084 E.01945
G1 X171.316 Y155.494 E.01566
G1 X171.167 Y155.885 E.01558
G1 X170.92 Y156.318 E.01854
G1 X170.66 Y156.645 E.01558
G1 X170.369 Y156.921 E.01494
G1 X170.011 Y157.176 E.01634
G1 X169.655 Y157.357 E.01491
G1 X168.882 Y157.579 E.02992
G1 X168.333 Y157.647 E.02062
G1 X167.742 Y157.671 E.02203
G1 X137.516 Y157.67 E1.12581
G1 X137.063 Y157.636 E.01693
G1 X136.633 Y157.543 E.01637
G1 X136.223 Y157.389 E.01632
G1 X135.84 Y157.175 E.01632
G1 X135.493 Y156.908 E.01632
G1 X135.19 Y156.592 E.01632
G1 X134.925 Y156.217 E.01707
G1 X134.73 Y155.827 E.01626
G1 X134.585 Y155.373 E.01775
G1 X134.518 Y154.971 E.0152
G1 X134.501 Y154.652 E.01187
G1 X134.501 Y145.374 E.34559
G1 X134.536 Y144.893 E.01796
G1 X134.645 Y144.408 E.01852
G1 X134.806 Y144.003 E.01623
G1 X135.027 Y143.624 E.01632
G1 X135.239 Y143.358 E.01268
G1 X135.596 Y143.646 F21000
G1 F3000
G1 X135.644 Y143.586 E.00285
G1 X135.904 Y143.345 E.0132
G1 X136.196 Y143.143 E.01324
G1 X136.528 Y142.98 E.01377
G1 X136.917 Y142.857 E.01519
G1 X137.244 Y142.802 E.01234
G1 X137.535 Y142.786 E.01089
G1 X167.836 Y142.788 E1.12859
G1 X168.449 Y142.823 E.02285
G1 X168.81 Y142.871 E.01358
G1 X169.275 Y142.987 E.01784
G1 X169.611 Y143.127 E.01358
G1 X169.927 Y143.317 E.01371
G1 X170.238 Y143.579 E.01513
G1 X170.503 Y143.886 E.01513
G1 X170.681 Y144.168 E.01241
G1 X170.818 Y144.468 E.01227
G1 X170.932 Y144.881 E.01596
G1 X170.991 Y145.49 E.02279
G1 X170.991 Y154.54 E.3371
G1 X170.955 Y155.006 E.0174
G1 X170.879 Y155.353 E.01321
G1 X170.756 Y155.68 E.01302
G1 X170.534 Y156.069 E.01669
G1 X170.315 Y156.342 E.01304
G1 X170.07 Y156.573 E.01255
G1 X169.765 Y156.788 E.01389
G1 X169.474 Y156.934 E.01213
G1 X168.78 Y157.131 E.02686
G1 X168.29 Y157.191 E.01838
G1 X167.73 Y157.214 E.02089
G1 X137.528 Y157.213 E1.12491
G1 X137.119 Y157.181 E.01528
G1 X136.753 Y157.1 E.01394
G1 X136.407 Y156.968 E.0138
G1 X136.085 Y156.786 E.01379
G1 X135.792 Y156.559 E.01379
G1 X135.537 Y156.291 E.01377
G1 X135.314 Y155.973 E.01449
G1 X135.152 Y155.644 E.01366
G1 X135.029 Y155.255 E.01518
G1 X134.974 Y154.928 E.01234
G1 X134.958 Y154.637 E.01089
G1 X134.958 Y145.395 E.34421
G1 X134.988 Y144.97 E.01587
G1 X135.087 Y144.533 E.01668
G1 X135.223 Y144.195 E.0136
G1 X135.411 Y143.875 E.01379
G1 X135.558 Y143.693 E.00874
G1 X135.922 Y143.982 F21000
G1 F3000
G1 X135.996 Y143.889 E.00442
G1 X136.25 Y143.67 E.0125
G1 X136.59 Y143.47 E.01471
G1 X137.108 Y143.298 E.02033
G1 X137.513 Y143.243 E.01522
G1 X167.77 Y143.243 E1.12694
G1 X168.426 Y143.279 E.02448
G1 X168.779 Y143.33 E.01329
G1 X169.063 Y143.403 E.01093
G1 X169.622 Y143.676 E.02317
G1 X169.726 Y143.746 E.00465
G1 X169.921 Y143.916 E.00966
G1 X170.108 Y144.134 E.0107
G1 X170.252 Y144.369 E.01023
G1 X170.4 Y144.705 E.0137
G1 X170.515 Y145.199 E.0189
G1 X170.534 Y154.595 E.34996
G1 X170.436 Y155.204 E.02298
G1 X170.401 Y155.318 E.00443
G1 X170.246 Y155.657 E.01387
G1 X170.027 Y155.967 E.01416
G1 X169.809 Y156.18 E.01134
G1 X169.465 Y156.418 E.01558
G1 X169.204 Y156.544 E.01081
G1 X168.775 Y156.669 E.01664
G1 X168.317 Y156.731 E.01721
G1 X167.853 Y156.755 E.01727
G1 X137.517 Y156.757 E1.12991
G1 X136.795 Y156.626 E.02734
G1 X136.559 Y156.526 E.00955
G1 X136.364 Y156.417 E.00832
G1 X135.973 Y156.083 E.01916
G1 X135.898 Y155.998 E.00423
G1 X135.733 Y155.751 E.01104
G1 X135.583 Y155.442 E.01281
G1 X135.464 Y155.047 E.01535
G1 X135.425 Y154.81 E.00896
G1 X135.415 Y145.348 E.35241
G1 X135.508 Y144.772 E.02172
G1 X135.61 Y144.466 E.01204
G1 X135.759 Y144.186 E.01178
G1 X135.884 Y144.029 E.00749
G1 X136.231 Y144.32 F21000
G1 F3000
G1 X136.351 Y144.176 E.007
G1 X136.544 Y144.019 E.00925
G1 X136.823 Y143.864 E.0119
G1 X137.252 Y143.732 E.0167
G1 X137.504 Y143.7 E.00946
G1 X167.773 Y143.7 E1.12742
G1 X168.362 Y143.732 E.02194
G1 X168.658 Y143.771 E.01113
G1 X168.963 Y143.849 E.01173
G1 X169.419 Y144.085 E.01911
G1 X169.628 Y144.267 E.01034
G1 X169.758 Y144.428 E.00769
G1 X169.83 Y144.546 E.00515
G1 X169.988 Y144.902 E.01452
G1 X170.069 Y145.302 E.01521
G1 X170.077 Y154.606 E.34655
G1 X169.984 Y155.132 E.01987
G1 X169.87 Y155.398 E.01079
G1 X169.715 Y155.632 E.01043
G1 X169.481 Y155.862 E.01223
G1 X169.208 Y156.04 E.01214
G1 X169.008 Y156.131 E.00819
G1 X168.646 Y156.23 E.01399
G1 X168.258 Y156.278 E.01457
G1 X167.828 Y156.299 E.01602
G1 X137.505 Y156.3 E1.12942
G1 X136.978 Y156.207 E.01994
G1 X136.789 Y156.131 E.00757
G1 X136.576 Y156.011 E.0091
G1 X136.275 Y155.74 E.01512
G1 X136.148 Y155.56 E.00819
G1 X135.989 Y155.232 E.01357
G1 X135.904 Y154.921 E.01202
G1 X135.876 Y154.734 E.00704
G1 X135.872 Y145.337 E.35
G1 X135.96 Y144.843 E.01867
G1 X136.043 Y144.614 E.0091
G1 X136.162 Y144.402 E.00904
G1 X136.192 Y144.366 E.00175
G1 X136.559 Y144.628 F21000
G1 F3000
G1 X136.696 Y144.476 E.00763
G1 X136.822 Y144.382 E.00586
G1 X137.049 Y144.261 E.00956
G1 X137.38 Y144.17 E.0128
G1 X137.495 Y144.157 E.00432
G1 X167.777 Y144.157 E1.12788
G1 X168.297 Y144.184 E.01938
G1 X168.606 Y144.225 E.01164
G1 X168.848 Y144.291 E.00932
G1 X169.128 Y144.437 E.01177
G1 X169.265 Y144.546 E.00652
G1 X169.408 Y144.722 E.00847
G1 X169.574 Y145.095 E.01519
G1 X169.62 Y145.385 E.01092
G1 X169.62 Y154.617 E.34384
G1 X169.563 Y154.956 E.01281
G1 X169.481 Y155.159 E.00818
G1 X169.39 Y155.312 E.00662
G1 X169.234 Y155.477 E.00847
G1 X169.01 Y155.629 E.01004
G1 X168.886 Y155.691 E.00519
G1 X168.601 Y155.775 E.01107
G1 X168.197 Y155.825 E.01513
G1 X167.805 Y155.842 E.01465
G1 X137.495 Y155.843 E1.12893
G1 X137.156 Y155.786 E.01281
G1 X136.952 Y155.704 E.00818
G1 X136.8 Y155.613 E.00659
G1 X136.648 Y155.476 E.00763
G1 X136.554 Y155.35 E.00586
G1 X136.433 Y155.123 E.00956
G1 X136.342 Y154.792 E.0128
G1 X136.329 Y154.677 E.00432
G1 X136.329 Y145.325 E.34832
G1 X136.409 Y144.924 E.01521
G1 X136.468 Y144.78 E.0058
G1 X136.528 Y144.68 E.00436
G1 X136.921 Y144.914 F21000
G1 F3000
G1 X136.958 Y144.851 E.00274
G1 X137.103 Y144.742 E.00674
G1 X137.258 Y144.667 E.00639
G1 X137.487 Y144.614 E.00878
G1 X167.781 Y144.614 E1.1283
G1 X168.231 Y144.637 E.01681
G1 X168.556 Y144.68 E.01219
G1 X168.723 Y144.731 E.00652
G1 X168.833 Y144.786 E.0046
G1 X168.993 Y144.913 E.00758
G1 X169.124 Y145.176 E.01095
G1 X169.163 Y145.374 E.00751
G1 X169.162 Y154.628 E.34467
G1 X169.134 Y154.799 E.00647
G1 X169.093 Y154.916 E.0046
G1 X168.989 Y155.091 E.00758
G1 X168.746 Y155.256 E.01095
G1 X168.554 Y155.321 E.00754
G1 X168.182 Y155.368 E.01397
G1 X167.781 Y155.386 E.01496
G1 X137.483 Y155.386 E1.12847
G1 X137.312 Y155.357 E.00647
G1 X137.195 Y155.317 E.0046
G1 X137.023 Y155.214 E.00749
G1 X136.914 Y155.069 E.00674
G1 X136.839 Y154.914 E.00639
G1 X136.786 Y154.685 E.00878
G1 X136.786 Y145.311 E.34912
G1 X136.855 Y145.023 E.01103
G1 X136.89 Y144.965 E.00252
G1 X137.292 Y145.159 F21000
G1 F3000
G1 X137.472 Y145.071 E.00745
G1 X167.784 Y145.071 E1.12901
G1 X168.166 Y145.089 E.01425
G1 X168.507 Y145.134 E.01283
G1 X168.641 Y145.201 E.00555
G1 X168.706 Y145.361 E.00641
G1 X168.705 Y154.639 E.34559
G1 X168.657 Y154.78 E.00555
G1 X168.507 Y154.866 E.00641
G1 X168.166 Y154.911 E.01282
G1 X167.784 Y154.929 E.01425
G1 X137.472 Y154.929 E1.12901
G1 X137.331 Y154.88 E.00555
G1 X137.243 Y154.7 E.00745
G1 X137.243 Y145.3 E.35012
G1 X137.272 Y145.216 E.00332
G1 E-.56 F1800
;WIPE_START
G1 F3000
G1 X137.472 Y145.071 E-.02807
G1 X139.226 Y145.071 E-.19993
;WIPE_END
G1 E-.012 F1800
G1 Z.6 F21000
G1 X167.313 Y153.536 Z.2
G1 E.8 F1800
;TYPE:Inner wall
;WIDTH:0.499999
G1 F3000
G1 X138.636 Y153.536 E1.0681
G1 X138.636 Y146.464 E.2634
G1 X167.313 Y146.468 E1.0681
G1 X167.313 Y153.476 E.26102
G1 X167.77 Y153.976 F21000
G1 F3000
G1 X167.754 Y153.993 E.00086
G1 X138.179 Y153.993 E1.10155
G1 X138.179 Y146.007 E.29745
G1 X167.77 Y146.011 E1.10215
G1 X167.77 Y153.916 E.29445
G1 X168.227 Y154.411 F21000
;TYPE:Outer wall
G1 F3000
G1 X167.774 Y154.45 E.01694
G1 X137.722 Y154.45 E1.11931
G1 X137.722 Y145.55 E.3315
G1 X167.895 Y145.554 E1.12383
G1 X168.227 Y145.586 E.01243
G1 X168.227 Y145.886 E.01116
