; HEADER_BLOCK_START
; generated by OrcaSlicer 1.6.3 on 2023-07-18 at 15:58:27
; total layer number: 425
; HEADER_BLOCK_END

; THUMBNAIL_BLOCK_START
; THUMBNAIL_BLOCK_END

; external perimeters extrusion width = 0.40mm
; perimeters extrusion width = 0.45mm
; infill extrusion width = 0.45mm
; solid infill extrusion width = 0.40mm
; top infill extrusion width = 0.40mm
; first layer extrusion width = 0.50mm

; EXECUTABLE_BLOCK_START
EXCLUDE_OBJECT_DEFINE NAME=VFA.stl_id_0_copy_0 CENTER=150,150 POLYGON=[[93.5599,124.429],[93.5654,124.366],[93.582,124.304],[93.6091,124.246],[93.6458,124.193],[93.6911,124.148],[93.7436,124.111],[143.338,93.3761],[148.073,93.3761],[206.354,153.507],[206.391,153.56],[206.418,153.618],[206.435,153.68],[206.44,153.744],[206.435,153.807],[206.418,153.869],[189.092,196.433],[189.06,196.488],[189.019,196.538],[188.97,196.579],[188.914,196.611],[188.854,196.633],[188.791,196.644],[116.455,206.618],[116.391,206.624],[116.327,206.618],[116.265,206.602],[116.207,206.575],[116.155,206.538],[116.109,206.493],[116.073,206.44],[116.046,206.382],[93.582,124.555],[93.5654,124.493],[93.5599,124.429]]
M73 P0 R47
;TYPE:Custom
M104 S0 ; Stops OrcaSlicer from sending temp waits separately
M140 S0
print_start EXTRUDER=220 BED=60 


;CHAMBER=0
G90
G21
M83 ; use relative distances for extrusion
; filament start gcode
SET_PRESSURE_ADVANCE ADVANCE=0.032; Override pressure advance value
M106 S0
;LAYER_CHANGE
;Z:0.2
;HEIGHT:0.2
;BEFORE_LAYER_CHANGE
;0.2
G92 E0

G1 Z.2 F21000
;AFTER_LAYER_CHANGE
;0.2
M204 S500
; printing object VFA.stl id:0 copy 0
EXCLUDE_OBJECT_START NAME=VFA.stl_id_0_copy_0
G1 E-.8 F1800
G1 Z.6 F21000
G1 X92.56 Y122.134
G1 Z.2
G1 E.8 F1800
;TYPE:Brim
;WIDTH:0.5
G1 F3000
G1 X92.964 Y121.875 E.01803
G1 X93.409 Y121.698 E.01803
G1 X93.88 Y121.609 E.01803
G1 X94.359 Y121.611 E.01803
G1 X94.827 Y121.703 E.01794
G1 X95.38 Y121.941 E.02263
G1 X112.413 Y131.775 E.74006
G1 X112.56 Y131.803 E.00561
G1 X112.725 Y131.691 E.00753
G1 X115.257 Y127.307 E.19048
G1 X115.541 Y126.908 E.01845
G1 X115.888 Y126.578 E.01803
G1 X116.292 Y126.319 E.01803
G1 X116.737 Y126.142 E.01803
G1 X117.208 Y126.052 E.01803
G1 X117.688 Y126.054 E.01803
G1 X118.155 Y126.146 E.01794
G1 X118.708 Y126.384 E.02263
G1 X131.154 Y133.57 E.54076
G1 X131.554 Y133.855 E.01845
G1 X131.884 Y134.202 E.01803
G1 X132.142 Y134.606 E.01803
G1 X132.32 Y135.051 E.01803
G1 X132.409 Y135.522 E.01803
G1 X132.407 Y136.001 E.01803
G1 X132.315 Y136.469 E.01794
G1 X132.077 Y137.021 E.02263
G1 X129.547 Y141.403 E.19039
G1 X129.519 Y141.55 E.00561
G1 X129.631 Y141.716 E.00753
G1 X141.755 Y148.715 E.52675
G1 X141.912 Y148.791 E.00656
G1 X142.099 Y148.825 E.00714
G1 X142.266 Y148.795 E.00638
G1 X142.47 Y148.684 E.00875
G1 X142.641 Y148.558 E.00799
G1 X142.734 Y148.453 E.00527
G1 X142.798 Y148.308 E.00597
G1 X142.824 Y148.076 E.00879
G1 X142.824 Y96.738 E1.93163
G1 X142.775 Y96.597 E.00561
G1 X142.66 Y96.519 E.00524
G1 X142.401 Y96.443 E.01016
G1 X141.975 Y96.223 E.01803
G1 X141.599 Y95.925 E.01803
G1 X141.286 Y95.562 E.01803
G1 X141.048 Y95.146 E.01803
G1 X140.894 Y94.695 E.01794
G1 X140.824 Y94.098 E.02263
G1 X140.824 Y93.387 E.02674
G1 X140.87 Y92.899 E.01845
G1 X141.006 Y92.439 E.01803
G1 X141.226 Y92.014 E.01803
G1 X141.523 Y91.637 E.01803
G1 X141.886 Y91.325 E.01803
G1 X142.302 Y91.086 E.01803
G1 X142.754 Y90.932 E.01794
G1 X143.351 Y90.862 E.02263
G1 X148.062 Y90.862 E.17725
G1 X148.55 Y90.909 E.01845
G1 X149.01 Y91.044 E.01803
G1 X149.435 Y91.265 E.01803
G1 X149.811 Y91.562 E.01803
G1 X150.124 Y91.925 E.01803
G1 X150.362 Y92.341 E.01803
G1 X150.516 Y92.792 E.01794
G1 X150.587 Y93.389 E.02263
G1 X150.587 Y94.1 E.02674
G1 X150.54 Y94.588 E.01845
G1 X150.404 Y95.048 E.01803
G1 X150.184 Y95.474 E.01803
G1 X149.887 Y95.85 E.01803
G1 X149.524 Y96.163 E.01803
G1 X149.108 Y96.401 E.01803
G1 X148.741 Y96.526 E.01458
G1 X148.624 Y96.618 E.00561
G1 X148.587 Y96.742 E.00489
G1 X148.587 Y117.935 E.79741
G1 X148.635 Y118.076 E.00561
G1 X148.815 Y118.164 E.00753
G1 X154.705 Y118.164 E.22163
G1 X155.193 Y118.21 E.01845
G1 X155.653 Y118.346 E.01803
G1 X156.079 Y118.566 E.01803
G1 X156.455 Y118.863 E.01803
G1 X156.768 Y119.226 E.01803
G1 X157.006 Y119.642 E.01803
G1 X157.16 Y120.094 E.01794
G1 X157.23 Y120.691 E.02263
G1 X157.23 Y134.567 E.52209
G1 X157.183 Y135.055 E.01845
G1 X157.048 Y135.514 E.01803
G1 X156.828 Y135.94 E.01803
G1 X156.531 Y136.316 E.01803
G1 X156.168 Y136.629 E.01803
G1 X155.752 Y136.867 E.01803
G1 X155.3 Y137.021 E.01794
G1 X154.703 Y137.092 E.02263
G1 X148.815 Y137.092 E.22154
G1 X148.674 Y137.14 E.00561
G1 X148.587 Y137.32 E.00753
G1 X148.587 Y144.893 E.28495
G1 X148.637 Y145.699 E.03036
G1 X148.76 Y146.37 E.02568
G1 X148.969 Y147.049 E.02672
G1 X149.259 Y147.697 E.02672
G1 X149.625 Y148.305 E.02672
G1 X150.08 Y148.886 E.02776
G1 X150.583 Y149.387 E.02672
G1 X151.143 Y149.824 E.02672
G1 X151.728 Y150.177 E.02568
G1 X152.374 Y150.47 E.02672
G1 X153.052 Y150.683 E.02672
G1 X153.75 Y150.812 E.02672
G1 X154.542 Y150.862 E.02984
G1 X206.062 Y150.862 E1.93851
G1 X206.55 Y150.909 E.01845
G1 X207.01 Y151.044 E.01803
G1 X207.435 Y151.265 E.01803
G1 X207.811 Y151.562 E.01803
G1 X208.124 Y151.925 E.01803
G1 X208.362 Y152.341 E.01803
G1 X208.516 Y152.792 E.01794
G1 X208.587 Y153.389 E.02263
G1 X208.587 Y154.1 E.02674
G1 X208.54 Y154.588 E.01845
G1 X208.404 Y155.048 E.01803
G1 X208.184 Y155.474 E.01803
G1 X207.887 Y155.85 E.01803
G1 X207.524 Y156.163 E.01803
G1 X207.108 Y156.401 E.01803
G1 X206.657 Y156.555 E.01794
G1 X206.059 Y156.625 E.02263
G1 X184.493 Y156.625 E.81146
G1 X184.352 Y156.674 E.00561
G1 X184.264 Y156.854 E.00753
G1 X184.264 Y164.182 E.27575
G1 X184.218 Y164.67 E.01845
G1 X184.082 Y165.13 E.01803
G1 X183.862 Y165.556 E.01803
G1 X183.565 Y165.932 E.01803
G1 X183.202 Y166.245 E.01803
G1 X182.786 Y166.483 E.01803
G1 X182.334 Y166.637 E.01794
G1 X181.737 Y166.707 E.02263
G1 X170.562 Y166.707 E.42045
G1 X170.074 Y166.66 E.01845
G1 X169.615 Y166.525 E.01803
G1 X169.189 Y166.304 E.01803
G1 X168.813 Y166.007 E.01803
G1 X168.5 Y165.644 E.01803
G1 X168.262 Y165.228 E.01803
G1 X168.108 Y164.777 E.01794
G1 X168.038 Y164.18 E.02263
G1 X168.038 Y156.854 E.27565
G1 X167.989 Y156.713 E.00561
G1 X167.809 Y156.625 E.00753
G1 X154.47 Y156.625 E.50189
G1 X154.294 Y156.639 E.00665
G1 X154.159 Y156.679 E.00528
G1 X154.027 Y156.767 E.00598
G1 X153.932 Y156.895 E.00598
G1 X153.885 Y157.046 E.00598
G1 X153.89 Y157.205 E.00598
G1 X153.947 Y157.354 E.00598
G1 X154.093 Y157.536 E.0088
G1 X190.789 Y194.232 E1.95265
G1 X191.101 Y194.611 E.01845
G1 X191.33 Y195.032 E.01803
G1 X191.475 Y195.488 E.01803
G1 X191.531 Y195.964 E.01803
G1 X191.496 Y196.442 E.01803
G1 X191.37 Y196.905 E.01803
G1 X191.16 Y197.333 E.01794
G1 X190.787 Y197.805 E.02263
G1 X190.284 Y198.307 E.02674
G1 X189.906 Y198.619 E.01845
G1 X189.485 Y198.849 E.01803
G1 X189.029 Y198.994 E.01803
G1 X188.553 Y199.05 E.01803
G1 X188.075 Y199.014 E.01803
G1 X187.612 Y198.889 E.01803
G1 X187.184 Y198.679 E.01794
G1 X186.712 Y198.306 E.02263
G1 X174.713 Y186.307 E.63846
G1 X174.579 Y186.242 E.00561
G1 X174.39 Y186.307 E.00753
G1 X167.966 Y192.731 E.34184
G1 X167.588 Y193.043 E.01845
G1 X167.167 Y193.273 E.01803
G1 X166.71 Y193.418 E.01803
G1 X166.234 Y193.474 E.01803
G1 X165.756 Y193.438 E.01803
G1 X165.294 Y193.313 E.01803
G1 X164.866 Y193.102 E.01794
G1 X164.394 Y192.73 E.02263
G1 X151.822 Y180.158 E.66894
G1 X151.51 Y179.78 E.01845
G1 X151.281 Y179.359 E.01803
G1 X151.136 Y178.902 E.01803
G1 X151.08 Y178.426 E.01803
G1 X151.115 Y177.948 E.01803
G1 X151.241 Y177.486 E.01803
G1 X151.451 Y177.058 E.01794
G1 X151.824 Y176.586 E.02263
G1 X158.246 Y170.163 E.34175
G1 X158.312 Y170.029 E.00561
G1 X158.246 Y169.84 E.00753
G1 X149.778 Y161.373 E.45057
G1 X149.375 Y161.031 E.0199
G1 X149.045 Y160.825 E.01464
G1 X148.656 Y160.657 E.01594
G1 X148.212 Y160.543 E.01725
G1 X147.79 Y160.504 E.01594
G1 X147.367 Y160.53 E.01594
G1 X146.987 Y160.61 E.01464
G1 X146.589 Y160.756 E.01594
G1 X146.19 Y160.981 E.01725
G1 X145.884 Y161.221 E.01464
G1 X145.592 Y161.529 E.01594
G1 X145.282 Y161.979 E.02055
G1 X118.892 Y207.688 E1.98592
G1 X118.607 Y208.087 E.01845
G1 X118.26 Y208.417 E.01803
G1 X117.856 Y208.676 E.01803
G1 X117.411 Y208.853 E.01803
G1 X116.94 Y208.942 E.01803
G1 X116.461 Y208.941 E.01803
G1 X115.993 Y208.849 E.01794
G1 X115.441 Y208.611 E.02263
G1 X114.825 Y208.255 E.02674
G1 X114.426 Y207.971 E.01845
G1 X114.095 Y207.624 E.01803
G1 X113.837 Y207.22 E.01803
G1 X113.66 Y206.775 E.01803
G1 X113.57 Y206.304 E.01803
G1 X113.572 Y205.824 E.01803
G1 X113.664 Y205.357 E.01794
G1 X113.902 Y204.804 E.02263
G1 X124.15 Y187.054 E.77121
G1 X124.179 Y186.907 E.00561
G1 X124.067 Y186.741 E.00753
G1 X118.609 Y183.59 E.23714
G1 X118.209 Y183.306 E.01845
G1 X117.879 Y182.958 E.01803
G1 X117.62 Y182.555 E.01803
G1 X117.443 Y182.109 E.01803
G1 X117.354 Y181.639 E.01803
G1 X117.356 Y181.159 E.01803
G1 X117.448 Y180.691 E.01794
G1 X117.686 Y180.139 E.02263
G1 X124.643 Y168.088 E.52356
G1 X124.928 Y167.689 E.01845
G1 X125.275 Y167.359 E.01803
G1 X125.678 Y167.1 E.01803
G1 X126.124 Y166.923 E.01803
G1 X126.595 Y166.834 E.01803
G1 X127.074 Y166.835 E.01803
G1 X127.542 Y166.927 E.01794
G1 X128.094 Y167.165 E.02263
G1 X133.223 Y170.126 E.22281
G1 X133.369 Y170.155 E.00561
G1 X133.502 Y170.087 E.00561
G1 X133.551 Y170.009 E.00345
G1 X133.632 Y169.791 E.00875
G1 X134.068 Y168.302 E.0584
G1 X134.396 Y166.758 E.05939
G1 X134.604 Y165.198 E.05921
G1 X134.694 Y163.627 E.05922
G1 X134.663 Y162.053 E.05922
G1 X134.514 Y160.491 E.05905
G1 X134.245 Y158.936 E.05939
G1 X133.859 Y157.41 E.05921
G1 X133.358 Y155.918 E.05922
G1 X132.745 Y154.468 E.05922
G1 X132.024 Y153.069 E.05922
G1 X131.199 Y151.729 E.05922
G1 X130.274 Y150.456 E.05922
G1 X129.255 Y149.257 E.05922
G1 X128.135 Y148.126 E.05987
G1 X126.945 Y147.096 E.05922
G1 X125.68 Y146.16 E.05922
G1 X124.311 Y145.299 E.06086
G1 X92.496 Y126.93 E1.38227
G1 X92.097 Y126.646 E.01845
G1 X91.766 Y126.299 E.01803
G1 X91.508 Y125.895 E.01803
G1 X91.331 Y125.45 E.01803
G1 X91.241 Y124.979 E.01803
G1 X91.243 Y124.499 E.01803
G1 X91.335 Y124.032 E.01794
G1 X91.573 Y123.479 E.02263
G1 X91.929 Y122.864 E.02674
G1 X92.213 Y122.464 E.01845
G1 X92.517 Y122.175 E.01578
G1 X92.834 Y122.508 F21000
G1 F3000
G1 X92.855 Y122.488 E.0011
G1 X93.162 Y122.291 E.01375
G1 X93.525 Y122.144 E.01473
G1 X93.909 Y122.069 E.01473
G1 X94.327 Y122.07 E.01571
G1 X94.705 Y122.148 E.01451
G1 X95.181 Y122.354 E.01954
G1 X112.175 Y132.165 E.73833
G1 X112.459 Y132.249 E.01115
G1 X112.66 Y132.247 E.00757
G1 X112.826 Y132.175 E.00681
G1 X112.968 Y132.079 E.00646
G1 X113.129 Y131.906 E.00887
G1 X115.638 Y127.56 E.18882
G1 X115.88 Y127.22 E.01573
G1 X116.162 Y126.948 E.01473
G1 X116.491 Y126.735 E.01473
G1 X116.853 Y126.588 E.01473
G1 X117.264 Y126.51 E.01571
G1 X117.629 Y126.511 E.01375
G1 X118.005 Y126.583 E.0144
G1 X118.495 Y126.79 E.02003
G1 X130.901 Y133.952 E.53899
G1 X131.242 Y134.194 E.01573
G1 X131.53 Y134.496 E.01571
G1 X131.739 Y134.827 E.01473
G1 X131.881 Y135.192 E.01473
G1 X131.952 Y135.577 E.01473
G1 X131.95 Y135.943 E.01375
G1 X131.879 Y136.318 E.0144
G1 X131.664 Y136.823 E.02063
G1 X129.157 Y141.165 E.18865
G1 X129.073 Y141.449 E.01115
G1 X129.076 Y141.65 E.00757
G1 X129.147 Y141.816 E.00681
G1 X129.243 Y141.959 E.00646
G1 X129.416 Y142.119 E.00887
G1 X141.559 Y149.128 E.52754
G1 X141.844 Y149.243 E.01157
G1 X142.005 Y149.272 E.00615
G1 X142.191 Y149.272 E.00699
G1 X142.492 Y149.192 E.01175
G1 X142.678 Y149.092 E.00793
G1 X142.987 Y148.854 E.01468
G1 X143.158 Y148.624 E.01078
G1 X143.253 Y148.349 E.01095
G1 X143.281 Y148.069 E.01059
G1 X143.281 Y96.75 E1.93094
G1 X143.212 Y96.462 E.01115
G1 X143.108 Y96.288 E.0076
G1 X142.922 Y96.145 E.00884
G1 X142.779 Y96.078 E.00595
G1 X142.56 Y96.011 E.0086
G1 X142.214 Y95.829 E.01473
G1 X141.908 Y95.584 E.01473
G1 X141.654 Y95.286 E.01473
G1 X141.462 Y94.945 E.01473
G1 X141.34 Y94.579 E.01451
G1 X141.281 Y94.063 E.01954
G1 X141.281 Y93.402 E.02486
G1 X141.325 Y92.974 E.01622
G1 X141.438 Y92.599 E.01473
G1 X141.62 Y92.252 E.01473
G1 X141.847 Y91.965 E.01375
G1 X142.142 Y91.708 E.01473
G1 X142.48 Y91.511 E.01473
G1 X142.841 Y91.385 E.0144
G1 X143.386 Y91.319 E.02063
G1 X148.046 Y91.32 E.17536
G1 X148.449 Y91.358 E.01524
G1 X148.826 Y91.467 E.01473
G1 X149.175 Y91.644 E.01473
G1 X149.502 Y91.903 E.01571
G1 X149.756 Y92.201 E.01473
G1 X149.948 Y92.542 E.01473
G1 X150.07 Y92.908 E.01451
G1 X150.129 Y93.424 E.01954
G1 X150.129 Y94.072 E.02437
G1 X150.09 Y94.488 E.01573
G1 X149.982 Y94.864 E.01473
G1 X149.804 Y95.213 E.01473
G1 X149.564 Y95.522 E.01473
G1 X149.269 Y95.779 E.01473
G1 X148.93 Y95.976 E.01473
G1 X148.604 Y96.09 E.01299
G1 X148.354 Y96.248 E.01115
G1 X148.223 Y96.403 E.00764
G1 X148.151 Y96.606 E.00811
G1 X148.129 Y96.752 E.00555
G1 X148.129 Y117.924 E.79661
G1 X148.158 Y118.095 E.00654
G1 X148.199 Y118.212 E.00465
G1 X148.301 Y118.385 E.00757
G1 X148.447 Y118.493 E.00681
G1 X148.601 Y118.568 E.00646
G1 X148.831 Y118.621 E.00887
G1 X154.677 Y118.621 E.21997
G1 X155.093 Y118.66 E.01573
G1 X155.469 Y118.768 E.01473
G1 X155.818 Y118.946 E.01473
G1 X156.127 Y119.187 E.01473
G1 X156.399 Y119.503 E.01571
G1 X156.581 Y119.82 E.01375
G1 X156.707 Y120.181 E.0144
G1 X156.773 Y120.726 E.02063
G1 X156.773 Y134.538 E.51971
G1 X156.729 Y134.98 E.01671
G1 X156.616 Y135.355 E.01473
G1 X156.448 Y135.679 E.01375
G1 X156.207 Y135.988 E.01473
G1 X155.912 Y136.246 E.01473
G1 X155.55 Y136.453 E.01571
G1 X155.184 Y136.575 E.01451
G1 X154.668 Y136.634 E.01954
G1 X148.827 Y136.634 E.2198
G1 X148.538 Y136.703 E.01115
G1 X148.366 Y136.806 E.00757
G1 X148.258 Y136.952 E.00681
G1 X148.182 Y137.106 E.00646
G1 X148.129 Y137.336 E.00887
G1 X148.129 Y144.889 E.2842
G1 X148.188 Y145.788 E.03393
G1 X148.325 Y146.512 E.02772
G1 X148.53 Y147.176 E.02613
G1 X148.839 Y147.876 E.02879
G1 X149.27 Y148.594 E.0315
G1 X149.763 Y149.215 E.02985
G1 X150.309 Y149.752 E.0288
G1 X150.856 Y150.179 E.02613
G1 X151.485 Y150.564 E.02773
G1 X152.179 Y150.883 E.02873
G1 X152.976 Y151.133 E.03146
G1 X153.729 Y151.269 E.02879
G1 X154.509 Y151.318 E.02938
G1 X206.046 Y151.32 E1.93917
G1 X206.475 Y151.363 E.01622
G1 X206.85 Y151.477 E.01473
G1 X207.175 Y151.644 E.01375
G1 X207.483 Y151.885 E.01473
G1 X207.756 Y152.201 E.01571
G1 X207.948 Y152.542 E.01473
G1 X208.07 Y152.908 E.01451
G1 X208.129 Y153.424 E.01954
G1 X208.129 Y154.072 E.02437
G1 X208.085 Y154.514 E.01671
G1 X207.972 Y154.888 E.01473
G1 X207.804 Y155.213 E.01375
G1 X207.564 Y155.522 E.01473
G1 X207.269 Y155.779 E.01473
G1 X206.93 Y155.976 E.01473
G1 X206.569 Y156.102 E.0144
G1 X206.041 Y156.167 E.02003
G1 X184.504 Y156.168 E.81033
G1 X184.216 Y156.237 E.01115
G1 X184.043 Y156.34 E.00757
G1 X183.935 Y156.485 E.00681
G1 X183.86 Y156.639 E.00646
G1 X183.807 Y156.869 E.00887
G1 X183.807 Y164.154 E.27409
G1 X183.763 Y164.596 E.01671
G1 X183.65 Y164.97 E.01473
G1 X183.482 Y165.295 E.01375
G1 X183.241 Y165.604 E.01473
G1 X182.946 Y165.861 E.01473
G1 X182.608 Y166.058 E.01473
G1 X182.247 Y166.184 E.0144
G1 X181.702 Y166.25 E.02063
G1 X170.591 Y166.25 E.41808
G1 X170.149 Y166.206 E.01671
G1 X169.774 Y166.093 E.01473
G1 X169.428 Y165.911 E.01473
G1 X169.122 Y165.666 E.01473
G1 X168.868 Y165.368 E.01473
G1 X168.676 Y165.027 E.01473
G1 X168.554 Y164.661 E.01451
G1 X168.495 Y164.145 E.01954
G1 X168.495 Y156.865 E.27392
G1 X168.426 Y156.577 E.01115
G1 X168.323 Y156.404 E.00757
G1 X168.178 Y156.296 E.00681
G1 X168.023 Y156.221 E.00646
G1 X167.793 Y156.168 E.00887
G1 X154.431 Y156.17 E.50277
G1 X154.161 Y156.203 E.01026
G1 X153.891 Y156.308 E.01087
G1 X153.782 Y156.382 E.00498
G1 X153.654 Y156.503 E.00662
G1 X153.573 Y156.612 E.00511
G1 X153.493 Y156.768 E.00662
G1 X153.452 Y156.898 E.00511
G1 X153.428 Y157.072 E.00662
G1 X153.432 Y157.208 E.00511
G1 X153.467 Y157.381 E.00662
G1 X153.596 Y157.646 E.01111
G1 X153.774 Y157.864 E.01061
G1 X190.454 Y194.545 E1.95182
G1 X190.727 Y194.879 E.01622
G1 X190.912 Y195.224 E.01473
G1 X191.022 Y195.573 E.01375
G1 X191.07 Y195.961 E.01473
G1 X191.04 Y196.377 E.01571
G1 X190.934 Y196.755 E.01473
G1 X190.762 Y197.099 E.01451
G1 X190.439 Y197.506 E.01954
