
; ### Ellis' Pressure Advance / Linear Advance Calibration Tool ###
;
; Original Marlin linear advance calibration tool by Sineos [https://github.com/Sineos]
; Heavily modified/rewritten by Andrew Ellis [https://github.com/AndrewEllis93]
;
; -------------------------------------------
; Generated: Tue Jul 18 2023 16:44:56 GMT-0500 (Central Daylight Time)
; -------------------------------------------
;
; Advanced Mode: true
;
; Printer:
;  - Firmware: klipper
;  - Bed Shape: Rect
;  - Bed Size X: 300 mm
;  - Bed Size Y: 300 mm
;  - Origin Bed Center: false
;  - Extruder Name: Disabled
;  - Travel Speed: 400 mm/s
;  - Nozzle Diameter: 0.4 mm
;  - Filament Diameter: 1.75 mm
;  - Extrusion Multiplier: 0.99
;
; Retraction / Z Hop:
;  - Firmware Retraction: false
;  - Retraction Distance: 0.5 mm
;  - Retract Speed: 35 mm/s
;  - Unretract Speed: 35 mm/s
;  - Z Hop Enable: true
;  - Z Hop Height: 0.1mm
;
; First Layer Settings:
;  - First Layer Height: 0.2 mm
;  - First Layer Printing Speed: 30 mm/s
;  - First Layer Fan Speed: 0%
;  - Anchor Option: anchor_frame
;  - Anchor Frame Perimeters: 4
;  - Anchor Line Width: 140 %
;
; Print Settings:
;  - Line Width: 112.5 %
;  - Layer Count: 4
;  - Layer Height: 0.2 mm
;  - Print Speed: 100 mm/s
;  - Acceleration: 5000 mm/s^2
;  - Fan Speed: 100%
;
; Pattern Settings (Using defaults):
;  - Wall Count: 3
;  - Side Length: 30 mm
;  - Spacing: 2 mm
;  - Corner Angle: 90 degrees 
;  - Printing Direction: 0 degree
;
; Pressure Advance Stepping:
;  - PA Start Value: 0
;  - PA End Value: 0.08
;  - PA Increment: 0.005
;  - Increment Smooth Time Instead: false
;  - Show on LCD: true
;  - Number Tab: true
;  - No Leading Zeroes: false
;
; Start / End G-code:
;  - Hotend Temp: 220C
;  - Bed Temp: 60C
;  - Don't Add G28: false
;  - Don't Add Heating G-Codes: true
;
; Calculated Values:
;  - Print Size X: 84.76 mm
;  - Print Size Y: 53.99 mm
;  - Number of Patterns to Print: 17
;  - PA Values: 0, 0.005, 0.01, 0.015, 0.02, 0.025, 0.03, 0.035, 0.04, 0.045, 0.05, 0.055, 0.06, 0.065, 0.07, 0.075, 0.08
;
; Prepare printing
;
G28 ; Home all axes
print_start EXTRUDER=215 BED=60
G21 ; Millimeter units
G90 ; Absolute XYZ
M83 ; Relative E
G92 E0 ; Reset extruder distance
;
;  Begin printing
;
M106 S0 ; Set fan speed
SET_VELOCITY_LIMIT ACCEL=5000 ; Set printing acceleration
G1 E-0.5 F2100 ; Retract
G0 Z5 F24000 ; Z raise
G0 X107.6202 Y123.0068 F24000 ; Move to start position
G0 Z0.2 F24000 ; Move to start layer height
G1 E0.5 F2100 ; Un-retract
SET_PRESSURE_ADVANCE ADVANCE=0 ; Set pressure advance to start value
M117 PA 0
G1 X107.6202 Y165.4332 E1.8059 F1800 ; Draw perimeter (up)
G1 X192.3798 Y165.4332 E3.60782 F1800 ; Draw perimeter (right)
G1 X192.3798 Y123.0068 E1.8059 F1800 ; Draw perimeter (down)
G1 X107.6202 Y123.0068 E3.60782 F1800 ; Draw perimeter (left)
G0 X108.1373 Y123.5239 F24000 ; Step inwards to print next perimeter
G1 X108.1373 Y164.9161 E1.76188 F1800 ; Draw perimeter (up)
G1 X191.8627 Y164.9161 E3.5638 F1800 ; Draw perimeter (right)
G1 X191.8627 Y123.5239 E1.76188 F1800 ; Draw perimeter (down)
G1 X108.1373 Y123.5239 E3.5638 F1800 ; Draw perimeter (left)
G0 X108.6544 Y124.041 F24000 ; Step inwards to print next perimeter
G1 X108.6544 Y164.399 E1.71786 F1800 ; Draw perimeter (up)
G1 X191.3456 Y164.399 E3.51978 F1800 ; Draw perimeter (right)
G1 X191.3456 Y124.041 E1.71786 F1800 ; Draw perimeter (down)
G1 X108.6544 Y124.041 E3.51978 F1800 ; Draw perimeter (left)
G0 X109.1715 Y124.558 F24000 ; Step inwards to print next perimeter
G1 X109.1715 Y163.882 E1.67384 F1800 ; Draw perimeter (up)
G1 X190.8285 Y163.882 E3.47576 F1800 ; Draw perimeter (right)
G1 X190.8285 Y124.558 E1.67384 F1800 ; Draw perimeter (down)
G1 X109.1715 Y124.558 E3.47576 F1800 ; Draw perimeter (left)
G1 E-0.5 F2100 ; Retract
G1 Z0.3 F24000 ; Z hop
G0 X107.6202 Y165.9503 F24000 ; Move to box start
G1 Z0.2 F24000 ; Z hop return
G1 E0.5 F2100 ; Un-retract
G1 X107.6202 Y177.4674 E0.49023 F1800 ; Draw perimeter (up)
G1 X171.8747 Y177.4674 E2.73502 F1800 ; Draw perimeter (right)
G1 X171.8747 Y165.9503 E0.49023 F1800 ; Draw perimeter (down)
G1 X107.6202 Y165.9503 E2.73502 F1800 ; Draw perimeter (left)
G0 X108.1373 Y166.4674 F24000 ; Step inwards to print next perimeter
G1 X108.1373 Y176.9503 E0.44621 F1800 ; Draw perimeter (up)
G1 X171.3576 Y176.9503 E2.691 F1800 ; Draw perimeter (right)
G1 X171.3576 Y166.4674 E0.44621 F1800 ; Draw perimeter (down)
G1 X108.1373 Y166.4674 E2.691 F1800 ; Draw perimeter (left)
G0 X108.6544 Y166.9844 F24000 ; Step inwards to print next perimeter
G1 X108.6544 Y176.4332 E0.40219 F1800 ; Draw perimeter (up)
G1 X170.8406 Y176.4332 E2.64698 F1800 ; Draw perimeter (right)
G1 X170.8406 Y166.9844 E0.40219 F1800 ; Draw perimeter (down)
G1 X108.6544 Y166.9844 E2.64698 F1800 ; Draw perimeter (left)
G0 X109.1715 Y167.5015 F24000 ; Step inwards to print next perimeter
G1 X109.1715 Y175.9161 E0.35817 F1800 ; Draw perimeter (up)
G1 X170.3235 Y175.9161 E2.60296 F1800 ; Draw perimeter (right)
G1 X170.3235 Y167.5015 E0.35817 F1800 ; Draw perimeter (down)
G1 X109.1715 Y167.5015 E2.60296 F1800 ; Draw perimeter (left)
G0 X109.5448 Y167.8749 F24000 ; Move to fill start
G0 X110.2761 Y167.8749 F24000 ; Move
G1 X109.5448 Y168.6061 E0.04402 F1800 ; Fill
G0 X109.5448 Y169.3374 F24000 ; Move
G1 X111.0073 Y167.8749 E0.08804 F1800 ; Fill
G0 X111.7386 Y167.8749 F24000 ; Move
G1 X109.5448 Y170.0686 E0.13206 F1800 ; Fill
G0 X109.5448 Y170.7999 F24000 ; Move
G1 X112.4699 Y167.8749 E0.17608 F1800 ; Fill
G0 X113.2011 Y167.8749 F24000 ; Move
G1 X109.5448 Y171.5312 E0.2201 F1800 ; Fill
G0 X109.5448 Y172.2624 F24000 ; Move
G1 X113.9324 Y167.8749 E0.26412 F1800 ; Fill
G0 X114.6636 Y167.8749 F24000 ; Move
G1 X109.5448 Y172.9937 E0.30814 F1800 ; Fill
G0 X109.5448 Y173.7249 F24000 ; Move
G1 X115.3949 Y167.8749 E0.35216 F1800 ; Fill
G0 X116.1262 Y167.8749 F24000 ; Move
G1 X109.5448 Y174.4562 E0.39617 F1800 ; Fill
G0 X109.5448 Y175.1875 F24000 ; Move
G1 X116.8574 Y167.8749 E0.44019 F1800 ; Fill
G0 X117.5887 Y167.8749 F24000 ; Move
G1 X109.9207 Y175.5428 E0.46158 F1800 ; Fill
G0 X110.652 Y175.5428 F24000 ; Move
G1 X118.3199 Y167.8749 E0.46158 F1800 ; Fill
G0 X119.0512 Y167.8749 F24000 ; Move
G1 X111.3833 Y175.5428 E0.46158 F1800 ; Fill
G0 X112.1145 Y175.5428 F24000 ; Move
G1 X119.7825 Y167.8749 E0.46158 F1800 ; Fill
G0 X120.5137 Y167.8749 F24000 ; Move
G1 X112.8458 Y175.5428 E0.46158 F1800 ; Fill
G0 X113.5771 Y175.5428 F24000 ; Move
G1 X121.245 Y167.8749 E0.46158 F1800 ; Fill
G0 X121.9762 Y167.8749 F24000 ; Move
G1 X114.3083 Y175.5428 E0.46158 F1800 ; Fill
G0 X115.0396 Y175.5428 F24000 ; Move
G1 X122.7075 Y167.8749 E0.46158 F1800 ; Fill
G0 X123.4388 Y167.8749 F24000 ; Move
G1 X115.7708 Y175.5428 E0.46158 F1800 ; Fill
G0 X116.5021 Y175.5428 F24000 ; Move
G1 X124.17 Y167.8749 E0.46158 F1800 ; Fill
G0 X124.9013 Y167.8749 F24000 ; Move
G1 X117.2334 Y175.5428 E0.46158 F1800 ; Fill
G0 X117.9646 Y175.5428 F24000 ; Move
G1 X125.6326 Y167.8749 E0.46158 F1800 ; Fill
G0 X126.3638 Y167.8749 F24000 ; Move
G1 X118.6959 Y175.5428 E0.46158 F1800 ; Fill
G0 X119.4271 Y175.5428 F24000 ; Move
G1 X127.0951 Y167.8749 E0.46158 F1800 ; Fill
G0 X127.8263 Y167.8749 F24000 ; Move
G1 X120.1584 Y175.5428 E0.46158 F1800 ; Fill
G0 X120.8897 Y175.5428 F24000 ; Move
G1 X128.5576 Y167.8749 E0.46158 F1800 ; Fill
G0 X129.2889 Y167.8749 F24000 ; Move
G1 X121.6209 Y175.5428 E0.46158 F1800 ; Fill
G0 X122.3522 Y175.5428 F24000 ; Move
G1 X130.0201 Y167.8749 E0.46158 F1800 ; Fill
G0 X130.7514 Y167.8749 F24000 ; Move
G1 X123.0834 Y175.5428 E0.46158 F1800 ; Fill
G0 X123.8147 Y175.5428 F24000 ; Move
G1 X131.4826 Y167.8749 E0.46158 F1800 ; Fill
G0 X132.2139 Y167.8749 F24000 ; Move
G1 X124.546 Y175.5428 E0.46158 F1800 ; Fill
G0 X125.2772 Y175.5428 F24000 ; Move
G1 X132.9452 Y167.8749 E0.46158 F1800 ; Fill
G0 X133.6764 Y167.8749 F24000 ; Move
G1 X126.0085 Y175.5428 E0.46158 F1800 ; Fill
G0 X126.7398 Y175.5428 F24000 ; Move
G1 X134.4077 Y167.8749 E0.46158 F1800 ; Fill
G0 X135.1389 Y167.8749 F24000 ; Move
G1 X127.471 Y175.5428 E0.46158 F1800 ; Fill
G0 X128.2023 Y175.5428 F24000 ; Move
G1 X135.8702 Y167.8749 E0.46158 F1800 ; Fill
G0 X136.6015 Y167.8749 F24000 ; Move
G1 X128.9335 Y175.5428 E0.46158 F1800 ; Fill
G0 X129.6648 Y175.5428 F24000 ; Move
G1 X137.3327 Y167.8749 E0.46158 F1800 ; Fill
G0 X138.064 Y167.8749 F24000 ; Move
G1 X130.3961 Y175.5428 E0.46158 F1800 ; Fill
G0 X131.1273 Y175.5428 F24000 ; Move
G1 X138.7953 Y167.8749 E0.46158 F1800 ; Fill
G0 X139.5265 Y167.8749 F24000 ; Move
G1 X131.8586 Y175.5428 E0.46158 F1800 ; Fill
G0 X132.5898 Y175.5428 F24000 ; Move
G1 X140.2578 Y167.8749 E0.46158 F1800 ; Fill
G0 X140.989 Y167.8749 F24000 ; Move
G1 X133.3211 Y175.5428 E0.46158 F1800 ; Fill
G0 X134.0524 Y175.5428 F24000 ; Move
G1 X141.7203 Y167.8749 E0.46158 F1800 ; Fill
G0 X142.4516 Y167.8749 F24000 ; Move
G1 X134.7836 Y175.5428 E0.46158 F1800 ; Fill
G0 X135.5149 Y175.5428 F24000 ; Move
G1 X143.1828 Y167.8749 E0.46158 F1800 ; Fill
G0 X143.9141 Y167.8749 F24000 ; Move
G1 X136.2461 Y175.5428 E0.46158 F1800 ; Fill
G0 X136.9774 Y175.5428 F24000 ; Move
G1 X144.6453 Y167.8749 E0.46158 F1800 ; Fill
G0 X145.3766 Y167.8749 F24000 ; Move
G1 X137.7087 Y175.5428 E0.46158 F1800 ; Fill
G0 X138.4399 Y175.5428 F24000 ; Move
G1 X146.1079 Y167.8749 E0.46158 F1800 ; Fill
G0 X146.8391 Y167.8749 F24000 ; Move
G1 X139.1712 Y175.5428 E0.46158 F1800 ; Fill
G0 X139.9025 Y175.5428 F24000 ; Move
G1 X147.5704 Y167.8749 E0.46158 F1800 ; Fill
G0 X148.3016 Y167.8749 F24000 ; Move
G1 X140.6337 Y175.5428 E0.46158 F1800 ; Fill
G0 X141.365 Y175.5428 F24000 ; Move
G1 X149.0329 Y167.8749 E0.46158 F1800 ; Fill
G0 X149.7642 Y167.8749 F24000 ; Move
G1 X142.0962 Y175.5428 E0.46158 F1800 ; Fill
G0 X142.8275 Y175.5428 F24000 ; Move
G1 X150.4954 Y167.8749 E0.46158 F1800 ; Fill
G0 X151.2267 Y167.8749 F24000 ; Move
G1 X143.5588 Y175.5428 E0.46158 F1800 ; Fill
G0 X144.29 Y175.5428 F24000 ; Move
G1 X151.958 Y167.8749 E0.46158 F1800 ; Fill
G0 X152.6892 Y167.8749 F24000 ; Move
G1 X145.0213 Y175.5428 E0.46158 F1800 ; Fill
G0 X145.7525 Y175.5428 F24000 ; Move
G1 X153.4205 Y167.8749 E0.46158 F1800 ; Fill
G0 X154.1517 Y167.8749 F24000 ; Move
G1 X146.4838 Y175.5428 E0.46158 F1800 ; Fill
G0 X147.2151 Y175.5428 F24000 ; Move
G1 X154.883 Y167.8749 E0.46158 F1800 ; Fill
G0 X155.6143 Y167.8749 F24000 ; Move
G1 X147.9463 Y175.5428 E0.46158 F1800 ; Fill
G0 X148.6776 Y175.5428 F24000 ; Move
G1 X156.3455 Y167.8749 E0.46158 F1800 ; Fill
G0 X157.0768 Y167.8749 F24000 ; Move
G1 X149.4088 Y175.5428 E0.46158 F1800 ; Fill
G0 X150.1401 Y175.5428 F24000 ; Move
G1 X157.808 Y167.8749 E0.46158 F1800 ; Fill
G0 X158.5393 Y167.8749 F24000 ; Move
G1 X150.8714 Y175.5428 E0.46158 F1800 ; Fill
G0 X151.6026 Y175.5428 F24000 ; Move
G1 X159.2706 Y167.8749 E0.46158 F1800 ; Fill
G0 X160.0018 Y167.8749 F24000 ; Move
G1 X152.3339 Y175.5428 E0.46158 F1800 ; Fill
G0 X153.0651 Y175.5428 F24000 ; Move
G1 X160.7331 Y167.8749 E0.46158 F1800 ; Fill
G0 X161.4643 Y167.8749 F24000 ; Move
G1 X153.7964 Y175.5428 E0.46158 F1800 ; Fill
G0 X154.5277 Y175.5428 F24000 ; Move
G1 X162.1956 Y167.8749 E0.46158 F1800 ; Fill
G0 X162.9269 Y167.8749 F24000 ; Move
G1 X155.2589 Y175.5428 E0.46158 F1800 ; Fill
G0 X155.9902 Y175.5428 F24000 ; Move
G1 X163.6581 Y167.8749 E0.46158 F1800 ; Fill
G0 X164.3894 Y167.8749 F24000 ; Move
G1 X156.7215 Y175.5428 E0.46158 F1800 ; Fill
G0 X157.4527 Y175.5428 F24000 ; Move
G1 X165.1206 Y167.8749 E0.46158 F1800 ; Fill
G0 X165.8519 Y167.8749 F24000 ; Move
G1 X158.184 Y175.5428 E0.46158 F1800 ; Fill
G0 X158.9152 Y175.5428 F24000 ; Move
G1 X166.5832 Y167.8749 E0.46158 F1800 ; Fill
G0 X167.3144 Y167.8749 F24000 ; Move
G1 X159.6465 Y175.5428 E0.46158 F1800 ; Fill
G0 X160.3778 Y175.5428 F24000 ; Move
G1 X168.0457 Y167.8749 E0.46158 F1800 ; Fill
G0 X168.777 Y167.8749 F24000 ; Move
G1 X161.109 Y175.5428 E0.46158 F1800 ; Fill
G0 X161.8403 Y175.5428 F24000 ; Move
G1 X169.5082 Y167.8749 E0.46158 F1800 ; Fill
G0 X169.9501 Y168.1642 F24000 ; Move
G1 X162.5715 Y175.5428 E0.44417 F1800 ; Fill
G0 X163.3028 Y175.5428 F24000 ; Move
G1 X169.9501 Y168.8955 E0.40015 F1800 ; Fill
G0 X169.9501 Y169.6267 F24000 ; Move
G1 X164.0341 Y175.5428 E0.35613 F1800 ; Fill
G0 X164.7653 Y175.5428 F24000 ; Move
G1 X169.9501 Y170.358 E0.31211 F1800 ; Fill
G0 X169.9501 Y171.0892 F24000 ; Move
G1 X165.4966 Y175.5428 E0.26809 F1800 ; Fill
G0 X166.2278 Y175.5428 F24000 ; Move
G1 X169.9501 Y171.8205 E0.22407 F1800 ; Fill
G0 X169.9501 Y172.5518 F24000 ; Move
G1 X166.9591 Y175.5428 E0.18005 F1800 ; Fill
G0 X167.6904 Y175.5428 F24000 ; Move
G1 X169.9501 Y173.283 E0.13603 F1800 ; Fill
G0 X169.9501 Y174.0143 F24000 ; Move
G1 X168.4216 Y175.5428 E0.09201 F1800 ; Fill
G0 X169.1529 Y175.5428 F24000 ; Move
G1 X169.9501 Y174.7455 E0.04799 F1800 ; Fill
G0 X169.9501 Y175.4768 F24000 ; Move
G1 X169.8842 Y175.5428 E0.00397 F1800 ; Fill
G0 Z0.2 F24000 ; Move to layer height
G1 E-0.5 F2100 ; Retract
G1 Z0.3 F24000 ; Z hop
G0 X112.2491 Y124.9314 F24000 ; Move to pattern start

G1 Z0.2 F24000 ; Z hop return
G1 E0.5 F2100 ; Un-retract
SET_PRESSURE_ADVANCE ADVANCE=0 ; Set pressure advance
M117 PA 0
G1 X131.5377 Y144.22 E0.9141 F1800 ; Print pattern wall
G1 X112.2491 Y163.5086 E0.9141 F1800 ; Print pattern wall
G1 E-0.5 F2100 ; Retract
G1 Z0.3 F24000 ; Z hop
G0 X112.8248 Y124.9314 F24000 ; Move to start next pattern wall
G1 Z0.2 F24000 ; Z hop return
G1 E0.5 F2100 ; Un-retract
G1 X132.1134 Y144.22 E0.9141 F1800 ; Print pattern wall
G1 X112.8248 Y163.5086 E0.9141 F1800 ; Print pattern wall
G1 E-0.5 F2100 ; Retract
G1 Z0.3 F24000 ; Z hop
G0 X113.4005 Y124.9314 F24000 ; Move to start next pattern wall
G1 Z0.2 F24000 ; Z hop return
G1 E0.5 F2100 ; Un-retract
G1 X132.6891 Y144.22 E0.9141 F1800 ; Print pattern wall
G1 X113.4005 Y163.5086 E0.9141 F1800 ; Print pattern wall
G1 E-0.5 F2100 ; Retract
G1 Z0.3 F24000 ; Z hop
G0 X115.8505 Y124.9314 F24000 ; Move to next pattern
G1 Z0.2 F24000 ; Z hop return
G1 E0.5 F2100 ; Un-retract
SET_PRESSURE_ADVANCE ADVANCE=0.005 ; Set pressure advance
M117 PA 0.005
G1 X135.1391 Y144.22 E0.9141 F1800 ; Print pattern wall
G1 X115.8505 Y163.5086 E0.9141 F1800 ; Print pattern wall
G1 E-0.5 F2100 ; Retract
G1 Z0.3 F24000 ; Z hop
G0 X116.4262 Y124.9314 F24000 ; Move to start next pattern wall
G1 Z0.2 F24000 ; Z hop return
G1 E0.5 F2100 ; Un-retract
G1 X135.7148 Y144.22 E0.9141 F1800 ; Print pattern wall
G1 X116.4262 Y163.5086 E0.9141 F1800 ; Print pattern wall
G1 E-0.5 F2100 ; Retract
G1 Z0.3 F24000 ; Z hop
G0 X117.0019 Y124.9314 F24000 ; Move to start next pattern wall
G1 Z0.2 F24000 ; Z hop return
G1 E0.5 F2100 ; Un-retract
G1 X136.2905 Y144.22 E0.9141 F1800 ; Print pattern wall
G1 X117.0019 Y163.5086 E0.9141 F1800 ; Print pattern wall
G1 E-0.5 F2100 ; Retract
G1 Z0.3 F24000 ; Z hop
G0 X119.4519 Y124.9314 F24000 ; Move to next pattern
G1 Z0.2 F24000 ; Z hop return
G1 E0.5 F2100 ; Un-retract
SET_PRESSURE_ADVANCE ADVANCE=0.01 ; Set pressure advance
M117 PA 0.01
G1 X138.7405 Y144.22 E0.9141 F1800 ; Print pattern wall
G1 X119.4519 Y163.5086 E0.9141 F1800 ; Print pattern wall
G1 E-0.5 F2100 ; Retract
G1 Z0.3 F24000 ; Z hop
G0 X120.0276 Y124.9314 F24000 ; Move to start next pattern wall
G1 Z0.2 F24000 ; Z hop return
G1 E0.5 F2100 ; Un-retract
G1 X139.3162 Y144.22 E0.9141 F1800 ; Print pattern wall
G1 X120.0276 Y163.5086 E0.9141 F1800 ; Print pattern wall
G1 E-0.5 F2100 ; Retract
G1 Z0.3 F24000 ; Z hop
G0 X120.6033 Y124.9314 F24000 ; Move to start next pattern wall
G1 Z0.2 F24000 ; Z hop return
G1 E0.5 F2100 ; Un-retract
G1 X139.8919 Y144.22 E0.9141 F1800 ; Print pattern wall
G1 X120.6033 Y163.5086 E0.9141 F1800 ; Print pattern wall
G1 E-0.5 F2100 ; Retract
G1 Z0.3 F24000 ; Z hop
G0 X123.0533 Y124.9314 F24000 ; Move to next pattern
G1 Z0.2 F24000 ; Z hop return
G1 E0.5 F2100 ; Un-retract
SET_PRESSURE_ADVANCE ADVANCE=0.015 ; Set pressure advance
M117 PA 0.015
G1 X142.3419 Y144.22 E0.9141 F1800 ; Print pattern wall
G1 X123.0533 Y163.5086 E0.9141 F1800 ; Print pattern wall
G1 E-0.5 F2100 ; Retract
G1 Z0.3 F24000 ; Z hop
G0 X123.629 Y124.9314 F24000 ; Move to start next pattern wall
G1 Z0.2 F24000 ; Z hop return
G1 E0.5 F2100 ; Un-retract
G1 X142.9176 Y144.22 E0.9141 F1800 ; Print pattern wall
G1 X123.629 Y163.5086 E0.9141 F1800 ; Print pattern wall
G1 E-0.5 F2100 ; Retract
G1 Z0.3 F24000 ; Z hop
G0 X124.2047 Y124.9314 F24000 ; Move to start next pattern wall
G1 Z0.2 F24000 ; Z hop return
G1 E0.5 F2100 ; Un-retract
G1 X143.4933 Y144.22 E0.9141 F1800 ; Print pattern wall
G1 X124.2047 Y163.5086 E0.9141 F1800 ; Print pattern wall
G1 E-0.5 F2100 ; Retract
G1 Z0.3 F24000 ; Z hop
G0 X126.6547 Y124.9314 F24000 ; Move to next pattern
G1 Z0.2 F24000 ; Z hop return
G1 E0.5 F2100 ; Un-retract
SET_PRESSURE_ADVANCE ADVANCE=0.02 ; Set pressure advance
M117 PA 0.02
G1 X145.9433 Y144.22 E0.9141 F1800 ; Print pattern wall
G1 X126.6547 Y163.5086 E0.9141 F1800 ; Print pattern wall
G1 E-0.5 F2100 ; Retract
G1 Z0.3 F24000 ; Z hop
G0 X127.2304 Y124.9314 F24000 ; Move to start next pattern wall
G1 Z0.2 F24000 ; Z hop return
G1 E0.5 F2100 ; Un-retract
G1 X146.519 Y144.22 E0.9141 F1800 ; Print pattern wall
G1 X127.2304 Y163.5086 E0.9141 F1800 ; Print pattern wall
G1 E-0.5 F2100 ; Retract
G1 Z0.3 F24000 ; Z hop
G0 X127.8061 Y124.9314 F24000 ; Move to start next pattern wall
G1 Z0.2 F24000 ; Z hop return
G1 E0.5 F2100 ; Un-retract
G1 X147.0947 Y144.22 E0.9141 F1800 ; Print pattern wall
G1 X127.8061 Y163.5086 E0.9141 F1800 ; Print pattern wall
G1 E-0.5 F2100 ; Retract
G1 Z0.3 F24000 ; Z hop
G0 X130.2561 Y124.9314 F24000 ; Move to next pattern
G1 Z0.2 F24000 ; Z hop return
G1 E0.5 F2100 ; Un-retract
SET_PRESSURE_ADVANCE ADVANCE=0.025 ; Set pressure advance
M117 PA 0.025
G1 X149.5447 Y144.22 E0.9141 F1800 ; Print pattern wall
G1 X130.2561 Y163.5086 E0.9141 F1800 ; Print pattern wall
G1 E-0.5 F2100 ; Retract
G1 Z0.3 F24000 ; Z hop
G0 X130.8318 Y124.9314 F24000 ; Move to start next pattern wall
G1 Z0.2 F24000 ; Z hop return
G1 E0.5 F2100 ; Un-retract
G1 X150.1204 Y144.22 E0.9141 F1800 ; Print pattern wall
G1 X130.8318 Y163.5086 E0.9141 F1800 ; Print pattern wall
G1 E-0.5 F2100 ; Retract
G1 Z0.3 F24000 ; Z hop
G0 X131.4075 Y124.9314 F24000 ; Move to start next pattern wall
G1 Z0.2 F24000 ; Z hop return
G1 E0.5 F2100 ; Un-retract
G1 X150.6961 Y144.22 E0.9141 F1800 ; Print pattern wall
G1 X131.4075 Y163.5086 E0.9141 F1800 ; Print pattern wall
G1 E-0.5 F2100 ; Retract
G1 Z0.3 F24000 ; Z hop
G0 X133.8575 Y124.9314 F24000 ; Move to next pattern
G1 Z0.2 F24000 ; Z hop return
G1 E0.5 F2100 ; Un-retract
SET_PRESSURE_ADVANCE ADVANCE=0.03 ; Set pressure advance
M117 PA 0.03
G1 X153.1461 Y144.22 E0.9141 F1800 ; Print pattern wall
G1 X133.8575 Y163.5086 E0.9141 F1800 ; Print pattern wall
G1 E-0.5 F2100 ; Retract
G1 Z0.3 F24000 ; Z hop
G0 X134.4332 Y124.9314 F24000 ; Move to start next pattern wall
G1 Z0.2 F24000 ; Z hop return
G1 E0.5 F2100 ; Un-retract
G1 X153.7218 Y144.22 E0.9141 F1800 ; Print pattern wall
G1 X134.4332 Y163.5086 E0.9141 F1800 ; Print pattern wall
G1 E-0.5 F2100 ; Retract
G1 Z0.3 F24000 ; Z hop
G0 X135.0089 Y124.9314 F24000 ; Move to start next pattern wall
G1 Z0.2 F24000 ; Z hop return
G1 E0.5 F2100 ; Un-retract
G1 X154.2975 Y144.22 E0.9141 F1800 ; Print pattern wall
G1 X135.0089 Y163.5086 E0.9141 F1800 ; Print pattern wall
G1 E-0.5 F2100 ; Retract
G1 Z0.3 F24000 ; Z hop
G0 X137.4589 Y124.9314 F24000 ; Move to next pattern
G1 Z0.2 F24000 ; Z hop return
G1 E0.5 F2100 ; Un-retract
SET_PRESSURE_ADVANCE ADVANCE=0.035 ; Set pressure advance
M117 PA 0.035
G1 X156.7475 Y144.22 E0.9141 F1800 ; Print pattern wall
G1 X137.4589 Y163.5086 E0.9141 F1800 ; Print pattern wall
G1 E-0.5 F2100 ; Retract
G1 Z0.3 F24000 ; Z hop
G0 X138.0346 Y124.9314 F24000 ; Move to start next pattern wall
G1 Z0.2 F24000 ; Z hop return
G1 E0.5 F2100 ; Un-retract
G1 X157.3232 Y144.22 E0.9141 F1800 ; Print pattern wall
G1 X138.0346 Y163.5086 E0.9141 F1800 ; Print pattern wall
G1 E-0.5 F2100 ; Retract
G1 Z0.3 F24000 ; Z hop
G0 X138.6103 Y124.9314 F24000 ; Move to start next pattern wall
G1 Z0.2 F24000 ; Z hop return
G1 E0.5 F2100 ; Un-retract
G1 X157.8989 Y144.22 E0.9141 F1800 ; Print pattern wall
G1 X138.6103 Y163.5086 E0.9141 F1800 ; Print pattern wall
G1 E-0.5 F2100 ; Retract
G1 Z0.3 F24000 ; Z hop
G0 X141.0603 Y124.9314 F24000 ; Move to next pattern
G1 Z0.2 F24000 ; Z hop return
G1 E0.5 F2100 ; Un-retract
SET_PRESSURE_ADVANCE ADVANCE=0.04 ; Set pressure advance
M117 PA 0.04
G1 X160.3489 Y144.22 E0.9141 F1800 ; Print pattern wall
G1 X141.0603 Y163.5086 E0.9141 F1800 ; Print pattern wall
G1 E-0.5 F2100 ; Retract
G1 Z0.3 F24000 ; Z hop
G0 X141.636 Y124.9314 F24000 ; Move to start next pattern wall
G1 Z0.2 F24000 ; Z hop return
G1 E0.5 F2100 ; Un-retract
G1 X160.9246 Y144.22 E0.9141 F1800 ; Print pattern wall
G1 X141.636 Y163.5086 E0.9141 F1800 ; Print pattern wall
G1 E-0.5 F2100 ; Retract
G1 Z0.3 F24000 ; Z hop
G0 X142.2117 Y124.9314 F24000 ; Move to start next pattern wall
G1 Z0.2 F24000 ; Z hop return
G1 E0.5 F2100 ; Un-retract
G1 X161.5003 Y144.22 E0.9141 F1800 ; Print pattern wall
G1 X142.2117 Y163.5086 E0.9141 F1800 ; Print pattern wall
G1 E-0.5 F2100 ; Retract
G1 Z0.3 F24000 ; Z hop
G0 X144.6617 Y124.9314 F24000 ; Move to next pattern
G1 Z0.2 F24000 ; Z hop return
G1 E0.5 F2100 ; Un-retract
SET_PRESSURE_ADVANCE ADVANCE=0.045 ; Set pressure advance
M117 PA 0.045
G1 X163.9503 Y144.22 E0.9141 F1800 ; Print pattern wall
G1 X144.6617 Y163.5086 E0.9141 F1800 ; Print pattern wall
G1 E-0.5 F2100 ; Retract
G1 Z0.3 F24000 ; Z hop
G0 X145.2374 Y124.9314 F24000 ; Move to start next pattern wall
G1 Z0.2 F24000 ; Z hop return
G1 E0.5 F2100 ; Un-retract
G1 X164.526 Y144.22 E0.9141 F1800 ; Print pattern wall
G1 X145.2374 Y163.5086 E0.9141 F1800 ; Print pattern wall
G1 E-0.5 F2100 ; Retract
G1 Z0.3 F24000 ; Z hop
G0 X145.8131 Y124.9314 F24000 ; Move to start next pattern wall
G1 Z0.2 F24000 ; Z hop return
G1 E0.5 F2100 ; Un-retract
G1 X165.1017 Y144.22 E0.9141 F1800 ; Print pattern wall
G1 X145.8131 Y163.5086 E0.9141 F1800 ; Print pattern wall
G1 E-0.5 F2100 ; Retract
G1 Z0.3 F24000 ; Z hop
G0 X148.2631 Y124.9314 F24000 ; Move to next pattern
G1 Z0.2 F24000 ; Z hop return
G1 E0.5 F2100 ; Un-retract
SET_PRESSURE_ADVANCE ADVANCE=0.05 ; Set pressure advance
M117 PA 0.05
G1 X167.5517 Y144.22 E0.9141 F1800 ; Print pattern wall
G1 X148.2631 Y163.5086 E0.9141 F1800 ; Print pattern wall
G1 E-0.5 F2100 ; Retract
G1 Z0.3 F24000 ; Z hop
G0 X148.8388 Y124.9314 F24000 ; Move to start next pattern wall
G1 Z0.2 F24000 ; Z hop return
G1 E0.5 F2100 ; Un-retract
G1 X168.1274 Y144.22 E0.9141 F1800 ; Print pattern wall
G1 X148.8388 Y163.5086 E0.9141 F1800 ; Print pattern wall
G1 E-0.5 F2100 ; Retract
G1 Z0.3 F24000 ; Z hop
G0 X149.4145 Y124.9314 F24000 ; Move to start next pattern wall
G1 Z0.2 F24000 ; Z hop return
G1 E0.5 F2100 ; Un-retract
G1 X168.7031 Y144.22 E0.9141 F1800 ; Print pattern wall
G1 X149.4145 Y163.5086 E0.9141 F1800 ; Print pattern wall
G1 E-0.5 F2100 ; Retract
G1 Z0.3 F24000 ; Z hop
G0 X151.8645 Y124.9314 F24000 ; Move to next pattern
G1 Z0.2 F24000 ; Z hop return
G1 E0.5 F2100 ; Un-retract
SET_PRESSURE_ADVANCE ADVANCE=0.055 ; Set pressure advance
M117 PA 0.055
G1 X171.1531 Y144.22 E0.9141 F1800 ; Print pattern wall
G1 X151.8645 Y163.5086 E0.9141 F1800 ; Print pattern wall
G1 E-0.5 F2100 ; Retract
G1 Z0.3 F24000 ; Z hop
G0 X152.4402 Y124.9314 F24000 ; Move to start next pattern wall
G1 Z0.2 F24000 ; Z hop return
G1 E0.5 F2100 ; Un-retract
G1 X171.7288 Y144.22 E0.9141 F1800 ; Print pattern wall
G1 X152.4402 Y163.5086 E0.9141 F1800 ; Print pattern wall
G1 E-0.5 F2100 ; Retract
G1 Z0.3 F24000 ; Z hop
G0 X153.0159 Y124.9314 F24000 ; Move to start next pattern wall
G1 Z0.2 F24000 ; Z hop return
G1 E0.5 F2100 ; Un-retract
G1 X172.3045 Y144.22 E0.9141 F1800 ; Print pattern wall
G1 X153.0159 Y163.5086 E0.9141 F1800 ; Print pattern wall
G1 E-0.5 F2100 ; Retract
G1 Z0.3 F24000 ; Z hop
G0 X155.4659 Y124.9314 F24000 ; Move to next pattern
G1 Z0.2 F24000 ; Z hop return
G1 E0.5 F2100 ; Un-retract
SET_PRESSURE_ADVANCE ADVANCE=0.06 ; Set pressure advance
M117 PA 0.06
G1 X174.7545 Y144.22 E0.9141 F1800 ; Print pattern wall
G1 X155.4659 Y163.5086 E0.9141 F1800 ; Print pattern wall
G1 E-0.5 F2100 ; Retract
G1 Z0.3 F24000 ; Z hop
G0 X156.0416 Y124.9314 F24000 ; Move to start next pattern wall
G1 Z0.2 F24000 ; Z hop return
G1 E0.5 F2100 ; Un-retract
G1 X175.3302 Y144.22 E0.9141 F1800 ; Print pattern wall
G1 X156.0416 Y163.5086 E0.9141 F1800 ; Print pattern wall
G1 E-0.5 F2100 ; Retract
G1 Z0.3 F24000 ; Z hop
G0 X156.6173 Y124.9314 F24000 ; Move to start next pattern wall
G1 Z0.2 F24000 ; Z hop return
G1 E0.5 F2100 ; Un-retract
G1 X175.9059 Y144.22 E0.9141 F1800 ; Print pattern wall
G1 X156.6173 Y163.5086 E0.9141 F1800 ; Print pattern wall
G1 E-0.5 F2100 ; Retract
G1 Z0.3 F24000 ; Z hop
G0 X159.0673 Y124.9314 F24000 ; Move to next pattern
G1 Z0.2 F24000 ; Z hop return
G1 E0.5 F2100 ; Un-retract
SET_PRESSURE_ADVANCE ADVANCE=0.065 ; Set pressure advance
M117 PA 0.065
G1 X178.3559 Y144.22 E0.9141 F1800 ; Print pattern wall
G1 X159.0673 Y163.5086 E0.9141 F1800 ; Print pattern wall
G1 E-0.5 F2100 ; Retract
G1 Z0.3 F24000 ; Z hop
G0 X159.6429 Y124.9314 F24000 ; Move to start next pattern wall
G1 Z0.2 F24000 ; Z hop return
G1 E0.5 F2100 ; Un-retract
G1 X178.9316 Y144.22 E0.9141 F1800 ; Print pattern wall
G1 X159.6429 Y163.5086 E0.9141 F1800 ; Print pattern wall
G1 E-0.5 F2100 ; Retract
G1 Z0.3 F24000 ; Z hop
G0 X160.2186 Y124.9314 F24000 ; Move to start next pattern wall
G1 Z0.2 F24000 ; Z hop return
G1 E0.5 F2100 ; Un-retract
G1 X179.5073 Y144.22 E0.9141 F1800 ; Print pattern wall
G1 X160.2186 Y163.5086 E0.9141 F1800 ; Print pattern wall
G1 E-0.5 F2100 ; Retract
G1 Z0.3 F24000 ; Z hop
G0 X162.6686 Y124.9314 F24000 ; Move to next pattern
G1 Z0.2 F24000 ; Z hop return
G1 E0.5 F2100 ; Un-retract
SET_PRESSURE_ADVANCE ADVANCE=0.07 ; Set pressure advance
M117 PA 0.07
G1 X181.9573 Y144.22 E0.9141 F1800 ; Print pattern wall
G1 X162.6686 Y163.5086 E0.9141 F1800 ; Print pattern wall
G1 E-0.5 F2100 ; Retract
G1 Z0.3 F24000 ; Z hop
G0 X163.2443 Y124.9314 F24000 ; Move to start next pattern wall
G1 Z0.2 F24000 ; Z hop return
G1 E0.5 F2100 ; Un-retract
G1 X182.533 Y144.22 E0.9141 F1800 ; Print pattern wall
G1 X163.2443 Y163.5086 E0.9141 F1800 ; Print pattern wall
G1 E-0.5 F2100 ; Retract
G1 Z0.3 F24000 ; Z hop
G0 X163.82 Y124.9314 F24000 ; Move to start next pattern wall
G1 Z0.2 F24000 ; Z hop return
G1 E0.5 F2100 ; Un-retract
G1 X183.1087 Y144.22 E0.9141 F1800 ; Print pattern wall
G1 X163.82 Y163.5086 E0.9141 F1800 ; Print pattern wall
G1 E-0.5 F2100 ; Retract
G1 Z0.3 F24000 ; Z hop
G0 X166.27 Y124.9314 F24000 ; Move to next pattern
G1 Z0.2 F24000 ; Z hop return
G1 E0.5 F2100 ; Un-retract
SET_PRESSURE_ADVANCE ADVANCE=0.075 ; Set pressure advance
M117 PA 0.075
G1 X185.5587 Y144.22 E0.9141 F1800 ; Print pattern wall
G1 X166.27 Y163.5086 E0.9141 F1800 ; Print pattern wall
G1 E-0.5 F2100 ; Retract
G1 Z0.3 F24000 ; Z hop
G0 X166.8457 Y124.9314 F24000 ; Move to start next pattern wall
G1 Z0.2 F24000 ; Z hop return
G1 E0.5 F2100 ; Un-retract
G1 X186.1344 Y144.22 E0.9141 F1800 ; Print pattern wall
G1 X166.8457 Y163.5086 E0.9141 F1800 ; Print pattern wall
G1 E-0.5 F2100 ; Retract
G1 Z0.3 F24000 ; Z hop
G0 X167.4214 Y124.9314 F24000 ; Move to start next pattern wall
G1 Z0.2 F24000 ; Z hop return
G1 E0.5 F2100 ; Un-retract
G1 X186.7101 Y144.22 E0.9141 F1800 ; Print pattern wall
G1 X167.4214 Y163.5086 E0.9141 F1800 ; Print pattern wall
G1 E-0.5 F2100 ; Retract
G1 Z0.3 F24000 ; Z hop
G0 X169.8714 Y124.9314 F24000 ; Move to next pattern
G1 Z0.2 F24000 ; Z hop return
G1 E0.5 F2100 ; Un-retract
SET_PRESSURE_ADVANCE ADVANCE=0.08 ; Set pressure advance
M117 PA 0.08
G1 X189.1601 Y144.22 E0.9141 F1800 ; Print pattern wall
G1 X169.8714 Y163.5086 E0.9141 F1800 ; Print pattern wall
G1 E-0.5 F2100 ; Retract
G1 Z0.3 F24000 ; Z hop
G0 X170.4471 Y124.9314 F24000 ; Move to start next pattern wall
G1 Z0.2 F24000 ; Z hop return
G1 E0.5 F2100 ; Un-retract
G1 X189.7358 Y144.22 E0.9141 F1800 ; Print pattern wall
G1 X170.4471 Y163.5086 E0.9141 F1800 ; Print pattern wall
G1 E-0.5 F2100 ; Retract
G1 Z0.3 F24000 ; Z hop
G0 X171.0228 Y124.9314 F24000 ; Move to start next pattern wall
G1 Z0.2 F24000 ; Z hop return
G1 E0.5 F2100 ; Un-retract
G1 X190.3115 Y144.22 E0.9141 F1800 ; Print pattern wall
G1 X171.0228 Y163.5086 E0.9141 F1800 ; Print pattern wall
G1 E-0.5 F2100 ; Retract
G1 Z0.3 F24000 ; Z hop
G0 X112.2491 Y124.9314 F24000 ; Move back to start position
G1 Z0.2 F24000 ; Z hop return
G1 E0.5 F2100 ; Un-retract
M106 S255 ; Set fan speed
G0 Z0.4 F24000 ; Move to layer height
SET_PRESSURE_ADVANCE ADVANCE=0 ; Set pressure advance to start value for numbering
M117 PA 0
G1 E-0.5 F2100 ; Retract
G1 Z0.5 F24000 ; Z hop
G0 X108.9002 Y166.8832 F24000 ; Move
G1 Z0.4 F24000 ; Z hop return
G1 E0.5 F2100 ; Un-retract
G1 X110.9002 Y166.8832 E0.06702 F1800 ; Glyph: 0
G1 X112.9002 Y166.8832 E0.06702 F1800 ; Glyph: 0
G1 X112.9002 Y168.8832 E0.06702 F1800 ; Glyph: 0
G1 X110.9002 Y168.8832 E0.06702 F1800 ; Glyph: 0
G1 X108.9002 Y168.8832 E0.06702 F1800 ; Glyph: 0
G1 X108.9002 Y166.8832 E0.06702 F1800 ; Glyph: 0
G1 E-0.5 F2100 ; Retract
G1 Z0.5 F24000 ; Z hop
G0 X116.103 Y166.8832 F24000 ; Move
G1 Z0.4 F24000 ; Z hop return
G1 E0.5 F2100 ; Un-retract
G1 X118.103 Y166.8832 E0.06702 F1800 ; Glyph: 0
G1 X120.103 Y166.8832 E0.06702 F1800 ; Glyph: 0
G1 X120.103 Y168.8832 E0.06702 F1800 ; Glyph: 0
G1 X118.103 Y168.8832 E0.06702 F1800 ; Glyph: 0
G1 X116.103 Y168.8832 E0.06702 F1800 ; Glyph: 0
G1 X116.103 Y166.8832 E0.06702 F1800 ; Glyph: 0
G1 E-0.5 F2100 ; Retract
G1 Z0.5 F24000 ; Z hop
G0 X120.103 Y169.8832 F24000 ; Move
G1 Z0.4 F24000 ; Z hop return
G1 E0.5 F2100 ; Un-retract
G1 X119.353 Y169.8832 E0.02513 F1800 ; Glyph: .
G1 E-0.5 F2100 ; Retract
G1 Z0.5 F24000 ; Z hop
G0 X116.103 Y170.8832 F24000 ; Move
G1 Z0.4 F24000 ; Z hop return
G1 E0.5 F2100 ; Un-retract
G1 X118.103 Y170.8832 E0.06702 F1800 ; Glyph: 0
G1 X120.103 Y170.8832 E0.06702 F1800 ; Glyph: 0
G1 X120.103 Y172.8832 E0.06702 F1800 ; Glyph: 0
G1 X118.103 Y172.8832 E0.06702 F1800 ; Glyph: 0
G1 X116.103 Y172.8832 E0.06702 F1800 ; Glyph: 0
G1 X116.103 Y170.8832 E0.06702 F1800 ; Glyph: 0
G1 E-0.5 F2100 ; Retract
G1 Z0.5 F24000 ; Z hop
G0 X116.103 Y173.8832 F24000 ; Move
G1 Z0.4 F24000 ; Z hop return
G1 E0.5 F2100 ; Un-retract
G1 X118.103 Y173.8832 E0.06702 F1800 ; Glyph: 1
G1 X120.103 Y173.8832 E0.06702 F1800 ; Glyph: 1
G1 E-0.5 F2100 ; Retract
G1 Z0.5 F24000 ; Z hop
G0 X123.3058 Y166.8832 F24000 ; Move
G1 Z0.4 F24000 ; Z hop return
G1 E0.5 F2100 ; Un-retract
G1 X125.3058 Y166.8832 E0.06702 F1800 ; Glyph: 0
G1 X127.3058 Y166.8832 E0.06702 F1800 ; Glyph: 0
G1 X127.3058 Y168.8832 E0.06702 F1800 ; Glyph: 0
G1 X125.3058 Y168.8832 E0.06702 F1800 ; Glyph: 0
G1 X123.3058 Y168.8832 E0.06702 F1800 ; Glyph: 0
G1 X123.3058 Y166.8832 E0.06702 F1800 ; Glyph: 0
G1 E-0.5 F2100 ; Retract
G1 Z0.5 F24000 ; Z hop
G0 X127.3058 Y169.8832 F24000 ; Move
G1 Z0.4 F24000 ; Z hop return
G1 E0.5 F2100 ; Un-retract
G1 X126.5558 Y169.8832 E0.02513 F1800 ; Glyph: .
G1 E-0.5 F2100 ; Retract
G1 Z0.5 F24000 ; Z hop
G0 X123.3058 Y170.8832 F24000 ; Move
G1 Z0.4 F24000 ; Z hop return
G1 E0.5 F2100 ; Un-retract
G1 X125.3058 Y170.8832 E0.06702 F1800 ; Glyph: 0
G1 X127.3058 Y170.8832 E0.06702 F1800 ; Glyph: 0
G1 X127.3058 Y172.8832 E0.06702 F1800 ; Glyph: 0
G1 X125.3058 Y172.8832 E0.06702 F1800 ; Glyph: 0
G1 X123.3058 Y172.8832 E0.06702 F1800 ; Glyph: 0
G1 X123.3058 Y170.8832 E0.06702 F1800 ; Glyph: 0
G1 E-0.5 F2100 ; Retract
G1 Z0.5 F24000 ; Z hop
G0 X123.3058 Y173.8832 F24000 ; Move
G1 Z0.4 F24000 ; Z hop return
G1 E0.5 F2100 ; Un-retract
G1 X123.3058 Y175.8832 E0.06702 F1800 ; Glyph: 2
G1 X125.3058 Y175.8832 E0.06702 F1800 ; Glyph: 2
G1 X125.3058 Y173.8832 E0.06702 F1800 ; Glyph: 2
G1 X127.3058 Y173.8832 E0.06702 F1800 ; Glyph: 2
G1 X127.3058 Y175.8832 E0.06702 F1800 ; Glyph: 2
G1 E-0.5 F2100 ; Retract
G1 Z0.5 F24000 ; Z hop
G0 X130.5086 Y166.8832 F24000 ; Move
G1 Z0.4 F24000 ; Z hop return
G1 E0.5 F2100 ; Un-retract
G1 X132.5086 Y166.8832 E0.06702 F1800 ; Glyph: 0
G1 X134.5086 Y166.8832 E0.06702 F1800 ; Glyph: 0
G1 X134.5086 Y168.8832 E0.06702 F1800 ; Glyph: 0
G1 X132.5086 Y168.8832 E0.06702 F1800 ; Glyph: 0
G1 X130.5086 Y168.8832 E0.06702 F1800 ; Glyph: 0
G1 X130.5086 Y166.8832 E0.06702 F1800 ; Glyph: 0
G1 E-0.5 F2100 ; Retract
G1 Z0.5 F24000 ; Z hop
G0 X134.5086 Y169.8832 F24000 ; Move
G1 Z0.4 F24000 ; Z hop return
G1 E0.5 F2100 ; Un-retract
G1 X133.7586 Y169.8832 E0.02513 F1800 ; Glyph: .
G1 E-0.5 F2100 ; Retract
G1 Z0.5 F24000 ; Z hop
G0 X130.5086 Y170.8832 F24000 ; Move
G1 Z0.4 F24000 ; Z hop return
G1 E0.5 F2100 ; Un-retract
G1 X132.5086 Y170.8832 E0.06702 F1800 ; Glyph: 0
G1 X134.5086 Y170.8832 E0.06702 F1800 ; Glyph: 0
G1 X134.5086 Y172.8832 E0.06702 F1800 ; Glyph: 0
G1 X132.5086 Y172.8832 E0.06702 F1800 ; Glyph: 0
G1 X130.5086 Y172.8832 E0.06702 F1800 ; Glyph: 0
G1 X130.5086 Y170.8832 E0.06702 F1800 ; Glyph: 0
G1 E-0.5 F2100 ; Retract
G1 Z0.5 F24000 ; Z hop
G0 X130.5086 Y173.8832 F24000 ; Move
G1 Z0.4 F24000 ; Z hop return
G1 E0.5 F2100 ; Un-retract
G1 X130.5086 Y175.8832 E0.06702 F1800 ; Glyph: 3
G1 X132.5086 Y175.8832 E0.06702 F1800 ; Glyph: 3
G1 X132.5086 Y173.8832 E0.06702 F1800 ; Glyph: 3
G0 X132.5086 Y175.8832 F24000 ; Move
G1 X134.5086 Y175.8832 E0.06702 F1800 ; Glyph: 3
G1 X134.5086 Y173.8832 E0.06702 F1800 ; Glyph: 3
G1 E-0.5 F2100 ; Retract
G1 Z0.5 F24000 ; Z hop
G0 X137.7114 Y166.8832 F24000 ; Move
G1 Z0.4 F24000 ; Z hop return
G1 E0.5 F2100 ; Un-retract
G1 X139.7114 Y166.8832 E0.06702 F1800 ; Glyph: 0
G1 X141.7114 Y166.8832 E0.06702 F1800 ; Glyph: 0
G1 X141.7114 Y168.8832 E0.06702 F1800 ; Glyph: 0
G1 X139.7114 Y168.8832 E0.06702 F1800 ; Glyph: 0
G1 X137.7114 Y168.8832 E0.06702 F1800 ; Glyph: 0
G1 X137.7114 Y166.8832 E0.06702 F1800 ; Glyph: 0
G1 E-0.5 F2100 ; Retract
G1 Z0.5 F24000 ; Z hop
G0 X141.7114 Y169.8832 F24000 ; Move
G1 Z0.4 F24000 ; Z hop return
G1 E0.5 F2100 ; Un-retract
G1 X140.9614 Y169.8832 E0.02513 F1800 ; Glyph: .
G1 E-0.5 F2100 ; Retract
G1 Z0.5 F24000 ; Z hop
G0 X137.7114 Y170.8832 F24000 ; Move
G1 Z0.4 F24000 ; Z hop return
G1 E0.5 F2100 ; Un-retract
G1 X139.7114 Y170.8832 E0.06702 F1800 ; Glyph: 0
G1 X141.7114 Y170.8832 E0.06702 F1800 ; Glyph: 0
G1 X141.7114 Y172.8832 E0.06702 F1800 ; Glyph: 0
G1 X139.7114 Y172.8832 E0.06702 F1800 ; Glyph: 0
G1 X137.7114 Y172.8832 E0.06702 F1800 ; Glyph: 0
G1 X137.7114 Y170.8832 E0.06702 F1800 ; Glyph: 0
G1 E-0.5 F2100 ; Retract
G1 Z0.5 F24000 ; Z hop
G0 X137.7114 Y175.8832 F24000 ; Move
G1 Z0.4 F24000 ; Z hop return
G1 E0.5 F2100 ; Un-retract
G1 X139.7114 Y175.8832 E0.06702 F1800 ; Glyph: 4
G1 X141.7114 Y175.8832 E0.06702 F1800 ; Glyph: 4
G0 X139.7114 Y175.8832 F24000 ; Move
G1 X139.7114 Y173.8832 E0.06702 F1800 ; Glyph: 4
G1 X137.7114 Y173.8832 E0.06702 F1800 ; Glyph: 4
G1 E-0.5 F2100 ; Retract
G1 Z0.5 F24000 ; Z hop
G0 X144.9142 Y166.8832 F24000 ; Move
G1 Z0.4 F24000 ; Z hop return
G1 E0.5 F2100 ; Un-retract
G1 X146.9142 Y166.8832 E0.06702 F1800 ; Glyph: 0
G1 X148.9142 Y166.8832 E0.06702 F1800 ; Glyph: 0
G1 X148.9142 Y168.8832 E0.06702 F1800 ; Glyph: 0
G1 X146.9142 Y168.8832 E0.06702 F1800 ; Glyph: 0
G1 X144.9142 Y168.8832 E0.06702 F1800 ; Glyph: 0
G1 X144.9142 Y166.8832 E0.06702 F1800 ; Glyph: 0
G1 E-0.5 F2100 ; Retract
G1 Z0.5 F24000 ; Z hop
G0 X148.9142 Y169.8832 F24000 ; Move
G1 Z0.4 F24000 ; Z hop return
G1 E0.5 F2100 ; Un-retract
G1 X148.1642 Y169.8832 E0.02513 F1800 ; Glyph: .
G1 E-0.5 F2100 ; Retract
G1 Z0.5 F24000 ; Z hop
G0 X144.9142 Y170.8832 F24000 ; Move
G1 Z0.4 F24000 ; Z hop return
G1 E0.5 F2100 ; Un-retract
G1 X146.9142 Y170.8832 E0.06702 F1800 ; Glyph: 0
G1 X148.9142 Y170.8832 E0.06702 F1800 ; Glyph: 0
G1 X148.9142 Y172.8832 E0.06702 F1800 ; Glyph: 0
G1 X146.9142 Y172.8832 E0.06702 F1800 ; Glyph: 0
G1 X144.9142 Y172.8832 E0.06702 F1800 ; Glyph: 0
G1 X144.9142 Y170.8832 E0.06702 F1800 ; Glyph: 0
G1 E-0.5 F2100 ; Retract
G1 Z0.5 F24000 ; Z hop
G0 X144.9142 Y175.8832 F24000 ; Move
G1 Z0.4 F24000 ; Z hop return
G1 E0.5 F2100 ; Un-retract
G1 X144.9142 Y173.8832 E0.06702 F1800 ; Glyph: 5
G1 X146.9142 Y173.8832 E0.06702 F1800 ; Glyph: 5
G1 X146.9142 Y175.8832 E0.06702 F1800 ; Glyph: 5
G1 X148.9142 Y175.8832 E0.06702 F1800 ; Glyph: 5
G1 X148.9142 Y173.8832 E0.06702 F1800 ; Glyph: 5
G1 E-0.5 F2100 ; Retract
G1 Z0.5 F24000 ; Z hop
G0 X152.117 Y166.8832 F24000 ; Move
G1 Z0.4 F24000 ; Z hop return
G1 E0.5 F2100 ; Un-retract
G1 X154.117 Y166.8832 E0.06702 F1800 ; Glyph: 0
G1 X156.117 Y166.8832 E0.06702 F1800 ; Glyph: 0
G1 X156.117 Y168.8832 E0.06702 F1800 ; Glyph: 0
G1 X154.117 Y168.8832 E0.06702 F1800 ; Glyph: 0
G1 X152.117 Y168.8832 E0.06702 F1800 ; Glyph: 0
G1 X152.117 Y166.8832 E0.06702 F1800 ; Glyph: 0
G1 E-0.5 F2100 ; Retract
G1 Z0.5 F24000 ; Z hop
G0 X156.117 Y169.8832 F24000 ; Move
G1 Z0.4 F24000 ; Z hop return
G1 E0.5 F2100 ; Un-retract
G1 X155.367 Y169.8832 E0.02513 F1800 ; Glyph: .
G1 E-0.5 F2100 ; Retract
G1 Z0.5 F24000 ; Z hop
G0 X152.117 Y170.8832 F24000 ; Move
G1 Z0.4 F24000 ; Z hop return
G1 E0.5 F2100 ; Un-retract
G1 X154.117 Y170.8832 E0.06702 F1800 ; Glyph: 0
G1 X156.117 Y170.8832 E0.06702 F1800 ; Glyph: 0
G1 X156.117 Y172.8832 E0.06702 F1800 ; Glyph: 0
G1 X154.117 Y172.8832 E0.06702 F1800 ; Glyph: 0
G1 X152.117 Y172.8832 E0.06702 F1800 ; Glyph: 0
G1 X152.117 Y170.8832 E0.06702 F1800 ; Glyph: 0
G1 E-0.5 F2100 ; Retract
G1 Z0.5 F24000 ; Z hop
G0 X152.117 Y175.8832 F24000 ; Move
G1 Z0.4 F24000 ; Z hop return
G1 E0.5 F2100 ; Un-retract
G1 X152.117 Y173.8832 E0.06702 F1800 ; Glyph: 6
G1 X154.117 Y173.8832 E0.06702 F1800 ; Glyph: 6
G1 X156.117 Y173.8832 E0.06702 F1800 ; Glyph: 6
G1 X156.117 Y175.8832 E0.06702 F1800 ; Glyph: 6
G1 X154.117 Y175.8832 E0.06702 F1800 ; Glyph: 6
G1 X154.117 Y173.8832 E0.06702 F1800 ; Glyph: 6
G1 E-0.5 F2100 ; Retract
G1 Z0.5 F24000 ; Z hop
G0 X159.3198 Y166.8832 F24000 ; Move
G1 Z0.4 F24000 ; Z hop return
G1 E0.5 F2100 ; Un-retract
G1 X161.3198 Y166.8832 E0.06702 F1800 ; Glyph: 0
G1 X163.3198 Y166.8832 E0.06702 F1800 ; Glyph: 0
G1 X163.3198 Y168.8832 E0.06702 F1800 ; Glyph: 0
G1 X161.3198 Y168.8832 E0.06702 F1800 ; Glyph: 0
G1 X159.3198 Y168.8832 E0.06702 F1800 ; Glyph: 0
G1 X159.3198 Y166.8832 E0.06702 F1800 ; Glyph: 0
G1 E-0.5 F2100 ; Retract
G1 Z0.5 F24000 ; Z hop
G0 X163.3198 Y169.8832 F24000 ; Move
G1 Z0.4 F24000 ; Z hop return
G1 E0.5 F2100 ; Un-retract
G1 X162.5698 Y169.8832 E0.02513 F1800 ; Glyph: .
G1 E-0.5 F2100 ; Retract
G1 Z0.5 F24000 ; Z hop
G0 X159.3198 Y170.8832 F24000 ; Move
G1 Z0.4 F24000 ; Z hop return
G1 E0.5 F2100 ; Un-retract
G1 X161.3198 Y170.8832 E0.06702 F1800 ; Glyph: 0
G1 X163.3198 Y170.8832 E0.06702 F1800 ; Glyph: 0
G1 X163.3198 Y172.8832 E0.06702 F1800 ; Glyph: 0
G1 X161.3198 Y172.8832 E0.06702 F1800 ; Glyph: 0
G1 X159.3198 Y172.8832 E0.06702 F1800 ; Glyph: 0
G1 X159.3198 Y170.8832 E0.06702 F1800 ; Glyph: 0
G1 E-0.5 F2100 ; Retract
G1 Z0.5 F24000 ; Z hop
G0 X159.3198 Y173.8832 F24000 ; Move
G1 Z0.4 F24000 ; Z hop return
G1 E0.5 F2100 ; Un-retract
G1 X159.3198 Y175.8832 E0.06702 F1800 ; Glyph: 7
G1 X161.3198 Y175.8832 E0.06702 F1800 ; Glyph: 7
G1 X163.3198 Y175.8832 E0.06702 F1800 ; Glyph: 7
G1 E-0.5 F2100 ; Retract
G1 Z0.5 F24000 ; Z hop
G0 X166.5226 Y166.8832 F24000 ; Move
G1 Z0.4 F24000 ; Z hop return
G1 E0.5 F2100 ; Un-retract
G1 X168.5226 Y166.8832 E0.06702 F1800 ; Glyph: 0
G1 X170.5226 Y166.8832 E0.06702 F1800 ; Glyph: 0
G1 X170.5226 Y168.8832 E0.06702 F1800 ; Glyph: 0
G1 X168.5226 Y168.8832 E0.06702 F1800 ; Glyph: 0
G1 X166.5226 Y168.8832 E0.06702 F1800 ; Glyph: 0
G1 X166.5226 Y166.8832 E0.06702 F1800 ; Glyph: 0
G1 E-0.5 F2100 ; Retract
G1 Z0.5 F24000 ; Z hop
G0 X170.5226 Y169.8832 F24000 ; Move
G1 Z0.4 F24000 ; Z hop return
G1 E0.5 F2100 ; Un-retract
G1 X169.7726 Y169.8832 E0.02513 F1800 ; Glyph: .
G1 E-0.5 F2100 ; Retract
G1 Z0.5 F24000 ; Z hop
G0 X166.5226 Y170.8832 F24000 ; Move
G1 Z0.4 F24000 ; Z hop return
G1 E0.5 F2100 ; Un-retract
G1 X168.5226 Y170.8832 E0.06702 F1800 ; Glyph: 0
G1 X170.5226 Y170.8832 E0.06702 F1800 ; Glyph: 0
G1 X170.5226 Y172.8832 E0.06702 F1800 ; Glyph: 0
G1 X168.5226 Y172.8832 E0.06702 F1800 ; Glyph: 0
G1 X166.5226 Y172.8832 E0.06702 F1800 ; Glyph: 0
G1 X166.5226 Y170.8832 E0.06702 F1800 ; Glyph: 0
G1 E-0.5 F2100 ; Retract
G1 Z0.5 F24000 ; Z hop
G0 X166.5226 Y173.8832 F24000 ; Move
G1 Z0.4 F24000 ; Z hop return
G1 E0.5 F2100 ; Un-retract
G1 X168.5226 Y173.8832 E0.06702 F1800 ; Glyph: 8
G1 X170.5226 Y173.8832 E0.06702 F1800 ; Glyph: 8
G1 X170.5226 Y175.8832 E0.06702 F1800 ; Glyph: 8
G1 X168.5226 Y175.8832 E0.06702 F1800 ; Glyph: 8
G1 X166.5226 Y175.8832 E0.06702 F1800 ; Glyph: 8
G1 X166.5226 Y173.8832 E0.06702 F1800 ; Glyph: 8
G0 X168.5226 Y173.8832 F24000 ; Move
G1 X168.5226 Y175.8832 E0.06702 F1800 ; Glyph: 8
G1 E-0.5 F2100 ; Retract
G1 Z0.5 F24000 ; Z hop
G0 X110.3245 Y123.0068 F24000 ; Move to pattern start

G1 Z0.4 F24000 ; Z hop return
G1 E0.5 F2100 ; Un-retract
SET_PRESSURE_ADVANCE ADVANCE=0 ; Set pressure advance
M117 PA 0
G1 X131.5377 Y144.22 E1.00531 F6000 ; Print pattern wall
G1 X110.3245 Y165.4332 E1.00531 F6000 ; Print pattern wall
G1 E-0.5 F2100 ; Retract
G1 Z0.5 F24000 ; Z hop
G0 X110.9002 Y123.0068 F24000 ; Move to start next pattern wall
G1 Z0.4 F24000 ; Z hop return
G1 E0.5 F2100 ; Un-retract
G1 X132.1134 Y144.22 E1.00531 F6000 ; Print pattern wall
G1 X110.9002 Y165.4332 E1.00531 F6000 ; Print pattern wall
G1 E-0.5 F2100 ; Retract
G1 Z0.5 F24000 ; Z hop
G0 X111.4759 Y123.0068 F24000 ; Move to start next pattern wall
G1 Z0.4 F24000 ; Z hop return
G1 E0.5 F2100 ; Un-retract
G1 X132.6891 Y144.22 E1.00531 F6000 ; Print pattern wall
G1 X111.4759 Y165.4332 E1.00531 F6000 ; Print pattern wall
G1 E-0.5 F2100 ; Retract
G1 Z0.5 F24000 ; Z hop
G0 X113.9259 Y123.0068 F24000 ; Move to next pattern
G1 Z0.4 F24000 ; Z hop return
G1 E0.5 F2100 ; Un-retract
SET_PRESSURE_ADVANCE ADVANCE=0.005 ; Set pressure advance
M117 PA 0.005
G1 X135.1391 Y144.22 E1.00531 F6000 ; Print pattern wall
G1 X113.9259 Y165.4332 E1.00531 F6000 ; Print pattern wall
G1 E-0.5 F2100 ; Retract
G1 Z0.5 F24000 ; Z hop
G0 X114.5016 Y123.0068 F24000 ; Move to start next pattern wall
G1 Z0.4 F24000 ; Z hop return
G1 E0.5 F2100 ; Un-retract
G1 X135.7148 Y144.22 E1.00531 F6000 ; Print pattern wall
G1 X114.5016 Y165.4332 E1.00531 F6000 ; Print pattern wall
G1 E-0.5 F2100 ; Retract
G1 Z0.5 F24000 ; Z hop
G0 X115.0773 Y123.0068 F24000 ; Move to start next pattern wall
G1 Z0.4 F24000 ; Z hop return
G1 E0.5 F2100 ; Un-retract
G1 X136.2905 Y144.22 E1.00531 F6000 ; Print pattern wall
G1 X115.0773 Y165.4332 E1.00531 F6000 ; Print pattern wall
G1 E-0.5 F2100 ; Retract
G1 Z0.5 F24000 ; Z hop
G0 X117.5273 Y123.0068 F24000 ; Move to next pattern
G1 Z0.4 F24000 ; Z hop return
G1 E0.5 F2100 ; Un-retract
SET_PRESSURE_ADVANCE ADVANCE=0.01 ; Set pressure advance
M117 PA 0.01
G1 X138.7405 Y144.22 E1.00531 F6000 ; Print pattern wall
G1 X117.5273 Y165.4332 E1.00531 F6000 ; Print pattern wall
G1 E-0.5 F2100 ; Retract
G1 Z0.5 F24000 ; Z hop
G0 X118.103 Y123.0068 F24000 ; Move to start next pattern wall
G1 Z0.4 F24000 ; Z hop return
G1 E0.5 F2100 ; Un-retract
G1 X139.3162 Y144.22 E1.00531 F6000 ; Print pattern wall
G1 X118.103 Y165.4332 E1.00531 F6000 ; Print pattern wall
G1 E-0.5 F2100 ; Retract
G1 Z0.5 F24000 ; Z hop
G0 X118.6787 Y123.0068 F24000 ; Move to start next pattern wall
G1 Z0.4 F24000 ; Z hop return
G1 E0.5 F2100 ; Un-retract
G1 X139.8919 Y144.22 E1.00531 F6000 ; Print pattern wall
G1 X118.6787 Y165.4332 E1.00531 F6000 ; Print pattern wall
G1 E-0.5 F2100 ; Retract
G1 Z0.5 F24000 ; Z hop
G0 X121.1287 Y123.0068 F24000 ; Move to next pattern
G1 Z0.4 F24000 ; Z hop return
G1 E0.5 F2100 ; Un-retract
SET_PRESSURE_ADVANCE ADVANCE=0.015 ; Set pressure advance
M117 PA 0.015
G1 X142.3419 Y144.22 E1.00531 F6000 ; Print pattern wall
G1 X121.1287 Y165.4332 E1.00531 F6000 ; Print pattern wall
G1 E-0.5 F2100 ; Retract
G1 Z0.5 F24000 ; Z hop
G0 X121.7044 Y123.0068 F24000 ; Move to start next pattern wall
G1 Z0.4 F24000 ; Z hop return
G1 E0.5 F2100 ; Un-retract
G1 X142.9176 Y144.22 E1.00531 F6000 ; Print pattern wall
G1 X121.7044 Y165.4332 E1.00531 F6000 ; Print pattern wall
G1 E-0.5 F2100 ; Retract
G1 Z0.5 F24000 ; Z hop
G0 X122.2801 Y123.0068 F24000 ; Move to start next pattern wall
G1 Z0.4 F24000 ; Z hop return
G1 E0.5 F2100 ; Un-retract
G1 X143.4933 Y144.22 E1.00531 F6000 ; Print pattern wall
G1 X122.2801 Y165.4332 E1.00531 F6000 ; Print pattern wall
G1 E-0.5 F2100 ; Retract
G1 Z0.5 F24000 ; Z hop
G0 X124.7301 Y123.0068 F24000 ; Move to next pattern
G1 Z0.4 F24000 ; Z hop return
G1 E0.5 F2100 ; Un-retract
SET_PRESSURE_ADVANCE ADVANCE=0.02 ; Set pressure advance
M117 PA 0.02
G1 X145.9433 Y144.22 E1.00531 F6000 ; Print pattern wall
G1 X124.7301 Y165.4332 E1.00531 F6000 ; Print pattern wall
G1 E-0.5 F2100 ; Retract
G1 Z0.5 F24000 ; Z hop
G0 X125.3058 Y123.0068 F24000 ; Move to start next pattern wall
G1 Z0.4 F24000 ; Z hop return
G1 E0.5 F2100 ; Un-retract
G1 X146.519 Y144.22 E1.00531 F6000 ; Print pattern wall
G1 X125.3058 Y165.4332 E1.00531 F6000 ; Print pattern wall
G1 E-0.5 F2100 ; Retract
G1 Z0.5 F24000 ; Z hop
G0 X125.8815 Y123.0068 F24000 ; Move to start next pattern wall
G1 Z0.4 F24000 ; Z hop return
G1 E0.5 F2100 ; Un-retract
G1 X147.0947 Y144.22 E1.00531 F6000 ; Print pattern wall
G1 X125.8815 Y165.4332 E1.00531 F6000 ; Print pattern wall
G1 E-0.5 F2100 ; Retract
G1 Z0.5 F24000 ; Z hop
G0 X128.3315 Y123.0068 F24000 ; Move to next pattern
G1 Z0.4 F24000 ; Z hop return
G1 E0.5 F2100 ; Un-retract
SET_PRESSURE_ADVANCE ADVANCE=0.025 ; Set pressure advance
M117 PA 0.025
G1 X149.5447 Y144.22 E1.00531 F6000 ; Print pattern wall
G1 X128.3315 Y165.4332 E1.00531 F6000 ; Print pattern wall
G1 E-0.5 F2100 ; Retract
G1 Z0.5 F24000 ; Z hop
G0 X128.9072 Y123.0068 F24000 ; Move to start next pattern wall
G1 Z0.4 F24000 ; Z hop return
G1 E0.5 F2100 ; Un-retract
G1 X150.1204 Y144.22 E1.00531 F6000 ; Print pattern wall
G1 X128.9072 Y165.4332 E1.00531 F6000 ; Print pattern wall
G1 E-0.5 F2100 ; Retract
G1 Z0.5 F24000 ; Z hop
G0 X129.4829 Y123.0068 F24000 ; Move to start next pattern wall
G1 Z0.4 F24000 ; Z hop return
G1 E0.5 F2100 ; Un-retract
G1 X150.6961 Y144.22 E1.00531 F6000 ; Print pattern wall
G1 X129.4829 Y165.4332 E1.00531 F6000 ; Print pattern wall
G1 E-0.5 F2100 ; Retract
G1 Z0.5 F24000 ; Z hop
G0 X131.9329 Y123.0068 F24000 ; Move to next pattern
G1 Z0.4 F24000 ; Z hop return
G1 E0.5 F2100 ; Un-retract
SET_PRESSURE_ADVANCE ADVANCE=0.03 ; Set pressure advance
M117 PA 0.03
G1 X153.1461 Y144.22 E1.00531 F6000 ; Print pattern wall
G1 X131.9329 Y165.4332 E1.00531 F6000 ; Print pattern wall
G1 E-0.5 F2100 ; Retract
G1 Z0.5 F24000 ; Z hop
G0 X132.5086 Y123.0068 F24000 ; Move to start next pattern wall
G1 Z0.4 F24000 ; Z hop return
G1 E0.5 F2100 ; Un-retract
G1 X153.7218 Y144.22 E1.00531 F6000 ; Print pattern wall
G1 X132.5086 Y165.4332 E1.00531 F6000 ; Print pattern wall
G1 E-0.5 F2100 ; Retract
G1 Z0.5 F24000 ; Z hop
G0 X133.0843 Y123.0068 F24000 ; Move to start next pattern wall
G1 Z0.4 F24000 ; Z hop return
G1 E0.5 F2100 ; Un-retract
G1 X154.2975 Y144.22 E1.00531 F6000 ; Print pattern wall
G1 X133.0843 Y165.4332 E1.00531 F6000 ; Print pattern wall
G1 E-0.5 F2100 ; Retract
G1 Z0.5 F24000 ; Z hop
G0 X135.5343 Y123.0068 F24000 ; Move to next pattern
G1 Z0.4 F24000 ; Z hop return
G1 E0.5 F2100 ; Un-retract
SET_PRESSURE_ADVANCE ADVANCE=0.035 ; Set pressure advance
M117 PA 0.035
G1 X156.7475 Y144.22 E1.00531 F6000 ; Print pattern wall
G1 X135.5343 Y165.4332 E1.00531 F6000 ; Print pattern wall
G1 E-0.5 F2100 ; Retract
G1 Z0.5 F24000 ; Z hop
G0 X136.11 Y123.0068 F24000 ; Move to start next pattern wall
G1 Z0.4 F24000 ; Z hop return
G1 E0.5 F2100 ; Un-retract
G1 X157.3232 Y144.22 E1.00531 F6000 ; Print pattern wall
G1 X136.11 Y165.4332 E1.00531 F6000 ; Print pattern wall
G1 E-0.5 F2100 ; Retract
G1 Z0.5 F24000 ; Z hop
G0 X136.6857 Y123.0068 F24000 ; Move to start next pattern wall
G1 Z0.4 F24000 ; Z hop return
G1 E0.5 F2100 ; Un-retract
G1 X157.8989 Y144.22 E1.00531 F6000 ; Print pattern wall
G1 X136.6857 Y165.4332 E1.00531 F6000 ; Print pattern wall
G1 E-0.5 F2100 ; Retract
G1 Z0.5 F24000 ; Z hop
G0 X139.1357 Y123.0068 F24000 ; Move to next pattern
G1 Z0.4 F24000 ; Z hop return
G1 E0.5 F2100 ; Un-retract
SET_PRESSURE_ADVANCE ADVANCE=0.04 ; Set pressure advance
M117 PA 0.04
G1 X160.3489 Y144.22 E1.00531 F6000 ; Print pattern wall
G1 X139.1357 Y165.4332 E1.00531 F6000 ; Print pattern wall
G1 E-0.5 F2100 ; Retract
G1 Z0.5 F24000 ; Z hop
G0 X139.7114 Y123.0068 F24000 ; Move to start next pattern wall
G1 Z0.4 F24000 ; Z hop return
G1 E0.5 F2100 ; Un-retract
G1 X160.9246 Y144.22 E1.00531 F6000 ; Print pattern wall
G1 X139.7114 Y165.4332 E1.00531 F6000 ; Print pattern wall
G1 E-0.5 F2100 ; Retract
G1 Z0.5 F24000 ; Z hop
G0 X140.2871 Y123.0068 F24000 ; Move to start next pattern wall
G1 Z0.4 F24000 ; Z hop return
G1 E0.5 F2100 ; Un-retract
G1 X161.5003 Y144.22 E1.00531 F6000 ; Print pattern wall
G1 X140.2871 Y165.4332 E1.00531 F6000 ; Print pattern wall
G1 E-0.5 F2100 ; Retract
G1 Z0.5 F24000 ; Z hop
G0 X142.7371 Y123.0068 F24000 ; Move to next pattern
G1 Z0.4 F24000 ; Z hop return
G1 E0.5 F2100 ; Un-retract
SET_PRESSURE_ADVANCE ADVANCE=0.045 ; Set pressure advance
M117 PA 0.045
G1 X163.9503 Y144.22 E1.00531 F6000 ; Print pattern wall
G1 X142.7371 Y165.4332 E1.00531 F6000 ; Print pattern wall
G1 E-0.5 F2100 ; Retract
G1 Z0.5 F24000 ; Z hop
G0 X143.3128 Y123.0068 F24000 ; Move to start next pattern wall
G1 Z0.4 F24000 ; Z hop return
G1 E0.5 F2100 ; Un-retract
G1 X164.526 Y144.22 E1.00531 F6000 ; Print pattern wall
G1 X143.3128 Y165.4332 E1.00531 F6000 ; Print pattern wall
G1 E-0.5 F2100 ; Retract
G1 Z0.5 F24000 ; Z hop
G0 X143.8885 Y123.0068 F24000 ; Move to start next pattern wall
G1 Z0.4 F24000 ; Z hop return
G1 E0.5 F2100 ; Un-retract
G1 X165.1017 Y144.22 E1.00531 F6000 ; Print pattern wall
G1 X143.8885 Y165.4332 E1.00531 F6000 ; Print pattern wall
G1 E-0.5 F2100 ; Retract
G1 Z0.5 F24000 ; Z hop
G0 X146.3385 Y123.0068 F24000 ; Move to next pattern
G1 Z0.4 F24000 ; Z hop return
G1 E0.5 F2100 ; Un-retract
SET_PRESSURE_ADVANCE ADVANCE=0.05 ; Set pressure advance
M117 PA 0.05
G1 X167.5517 Y144.22 E1.00531 F6000 ; Print pattern wall
G1 X146.3385 Y165.4332 E1.00531 F6000 ; Print pattern wall
G1 E-0.5 F2100 ; Retract
G1 Z0.5 F24000 ; Z hop
G0 X146.9142 Y123.0068 F24000 ; Move to start next pattern wall
G1 Z0.4 F24000 ; Z hop return
G1 E0.5 F2100 ; Un-retract
G1 X168.1274 Y144.22 E1.00531 F6000 ; Print pattern wall
G1 X146.9142 Y165.4332 E1.00531 F6000 ; Print pattern wall
G1 E-0.5 F2100 ; Retract
G1 Z0.5 F24000 ; Z hop
G0 X147.4899 Y123.0068 F24000 ; Move to start next pattern wall
G1 Z0.4 F24000 ; Z hop return
G1 E0.5 F2100 ; Un-retract
G1 X168.7031 Y144.22 E1.00531 F6000 ; Print pattern wall
G1 X147.4899 Y165.4332 E1.00531 F6000 ; Print pattern wall
G1 E-0.5 F2100 ; Retract
G1 Z0.5 F24000 ; Z hop
G0 X149.9399 Y123.0068 F24000 ; Move to next pattern
G1 Z0.4 F24000 ; Z hop return
G1 E0.5 F2100 ; Un-retract
SET_PRESSURE_ADVANCE ADVANCE=0.055 ; Set pressure advance
M117 PA 0.055
G1 X171.1531 Y144.22 E1.00531 F6000 ; Print pattern wall
G1 X149.9399 Y165.4332 E1.00531 F6000 ; Print pattern wall
G1 E-0.5 F2100 ; Retract
G1 Z0.5 F24000 ; Z hop
G0 X150.5156 Y123.0068 F24000 ; Move to start next pattern wall
G1 Z0.4 F24000 ; Z hop return
G1 E0.5 F2100 ; Un-retract
G1 X171.7288 Y144.22 E1.00531 F6000 ; Print pattern wall
G1 X150.5156 Y165.4332 E1.00531 F6000 ; Print pattern wall
G1 E-0.5 F2100 ; Retract
G1 Z0.5 F24000 ; Z hop
G0 X151.0913 Y123.0068 F24000 ; Move to start next pattern wall
G1 Z0.4 F24000 ; Z hop return
G1 E0.5 F2100 ; Un-retract
G1 X172.3045 Y144.22 E1.00531 F6000 ; Print pattern wall
G1 X151.0913 Y165.4332 E1.00531 F6000 ; Print pattern wall
G1 E-0.5 F2100 ; Retract
G1 Z0.5 F24000 ; Z hop
G0 X153.5413 Y123.0068 F24000 ; Move to next pattern
G1 Z0.4 F24000 ; Z hop return
G1 E0.5 F2100 ; Un-retract
SET_PRESSURE_ADVANCE ADVANCE=0.06 ; Set pressure advance
M117 PA 0.06
G1 X174.7545 Y144.22 E1.00531 F6000 ; Print pattern wall
G1 X153.5413 Y165.4332 E1.00531 F6000 ; Print pattern wall
G1 E-0.5 F2100 ; Retract
G1 Z0.5 F24000 ; Z hop
G0 X154.117 Y123.0068 F24000 ; Move to start next pattern wall
G1 Z0.4 F24000 ; Z hop return
G1 E0.5 F2100 ; Un-retract
G1 X175.3302 Y144.22 E1.00531 F6000 ; Print pattern wall
G1 X154.117 Y165.4332 E1.00531 F6000 ; Print pattern wall
G1 E-0.5 F2100 ; Retract
G1 Z0.5 F24000 ; Z hop
G0 X154.6927 Y123.0068 F24000 ; Move to start next pattern wall
G1 Z0.4 F24000 ; Z hop return
G1 E0.5 F2100 ; Un-retract
G1 X175.9059 Y144.22 E1.00531 F6000 ; Print pattern wall
G1 X154.6927 Y165.4332 E1.00531 F6000 ; Print pattern wall
G1 E-0.5 F2100 ; Retract
G1 Z0.5 F24000 ; Z hop
G0 X157.1427 Y123.0068 F24000 ; Move to next pattern
G1 Z0.4 F24000 ; Z hop return
G1 E0.5 F2100 ; Un-retract
SET_PRESSURE_ADVANCE ADVANCE=0.065 ; Set pressure advance
M117 PA 0.065
G1 X178.3559 Y144.22 E1.00531 F6000 ; Print pattern wall
G1 X157.1427 Y165.4332 E1.00531 F6000 ; Print pattern wall
G1 E-0.5 F2100 ; Retract
G1 Z0.5 F24000 ; Z hop
G0 X157.7184 Y123.0068 F24000 ; Move to start next pattern wall
G1 Z0.4 F24000 ; Z hop return
G1 E0.5 F2100 ; Un-retract
G1 X178.9316 Y144.22 E1.00531 F6000 ; Print pattern wall
G1 X157.7184 Y165.4332 E1.00531 F6000 ; Print pattern wall
G1 E-0.5 F2100 ; Retract
G1 Z0.5 F24000 ; Z hop
G0 X158.2941 Y123.0068 F24000 ; Move to start next pattern wall
G1 Z0.4 F24000 ; Z hop return
G1 E0.5 F2100 ; Un-retract
G1 X179.5073 Y144.22 E1.00531 F6000 ; Print pattern wall
G1 X158.2941 Y165.4332 E1.00531 F6000 ; Print pattern wall
G1 E-0.5 F2100 ; Retract
G1 Z0.5 F24000 ; Z hop
G0 X160.7441 Y123.0068 F24000 ; Move to next pattern
G1 Z0.4 F24000 ; Z hop return
G1 E0.5 F2100 ; Un-retract
SET_PRESSURE_ADVANCE ADVANCE=0.07 ; Set pressure advance
M117 PA 0.07
G1 X181.9573 Y144.22 E1.00531 F6000 ; Print pattern wall
G1 X160.7441 Y165.4332 E1.00531 F6000 ; Print pattern wall
G1 E-0.5 F2100 ; Retract
G1 Z0.5 F24000 ; Z hop
G0 X161.3198 Y123.0068 F24000 ; Move to start next pattern wall
G1 Z0.4 F24000 ; Z hop return
G1 E0.5 F2100 ; Un-retract
G1 X182.533 Y144.22 E1.00531 F6000 ; Print pattern wall
G1 X161.3198 Y165.4332 E1.00531 F6000 ; Print pattern wall
G1 E-0.5 F2100 ; Retract
G1 Z0.5 F24000 ; Z hop
G0 X161.8955 Y123.0068 F24000 ; Move to start next pattern wall
G1 Z0.4 F24000 ; Z hop return
G1 E0.5 F2100 ; Un-retract
G1 X183.1087 Y144.22 E1.00531 F6000 ; Print pattern wall
G1 X161.8955 Y165.4332 E1.00531 F6000 ; Print pattern wall
G1 E-0.5 F2100 ; Retract
G1 Z0.5 F24000 ; Z hop
G0 X164.3455 Y123.0068 F24000 ; Move to next pattern
G1 Z0.4 F24000 ; Z hop return
G1 E0.5 F2100 ; Un-retract
SET_PRESSURE_ADVANCE ADVANCE=0.075 ; Set pressure advance
M117 PA 0.075
G1 X185.5587 Y144.22 E1.00531 F6000 ; Print pattern wall
G1 X164.3455 Y165.4332 E1.00531 F6000 ; Print pattern wall
G1 E-0.5 F2100 ; Retract
G1 Z0.5 F24000 ; Z hop
G0 X164.9212 Y123.0068 F24000 ; Move to start next pattern wall
G1 Z0.4 F24000 ; Z hop return
G1 E0.5 F2100 ; Un-retract
G1 X186.1344 Y144.22 E1.00531 F6000 ; Print pattern wall
G1 X164.9212 Y165.4332 E1.00531 F6000 ; Print pattern wall
G1 E-0.5 F2100 ; Retract
G1 Z0.5 F24000 ; Z hop
G0 X165.4969 Y123.0068 F24000 ; Move to start next pattern wall
G1 Z0.4 F24000 ; Z hop return
G1 E0.5 F2100 ; Un-retract
G1 X186.7101 Y144.22 E1.00531 F6000 ; Print pattern wall
G1 X165.4969 Y165.4332 E1.00531 F6000 ; Print pattern wall
G1 E-0.5 F2100 ; Retract
G1 Z0.5 F24000 ; Z hop
G0 X167.9469 Y123.0068 F24000 ; Move to next pattern
G1 Z0.4 F24000 ; Z hop return
G1 E0.5 F2100 ; Un-retract
SET_PRESSURE_ADVANCE ADVANCE=0.08 ; Set pressure advance
M117 PA 0.08
G1 X189.1601 Y144.22 E1.00531 F6000 ; Print pattern wall
G1 X167.9469 Y165.4332 E1.00531 F6000 ; Print pattern wall
G1 E-0.5 F2100 ; Retract
G1 Z0.5 F24000 ; Z hop
G0 X168.5226 Y123.0068 F24000 ; Move to start next pattern wall
G1 Z0.4 F24000 ; Z hop return
G1 E0.5 F2100 ; Un-retract
G1 X189.7358 Y144.22 E1.00531 F6000 ; Print pattern wall
G1 X168.5226 Y165.4332 E1.00531 F6000 ; Print pattern wall
G1 E-0.5 F2100 ; Retract
G1 Z0.5 F24000 ; Z hop
G0 X169.0983 Y123.0068 F24000 ; Move to start next pattern wall
G1 Z0.4 F24000 ; Z hop return
G1 E0.5 F2100 ; Un-retract
G1 X190.3115 Y144.22 E1.00531 F6000 ; Print pattern wall
G1 X169.0983 Y165.4332 E1.00531 F6000 ; Print pattern wall
G1 E-0.5 F2100 ; Retract
G1 Z0.5 F24000 ; Z hop
G0 X110.3245 Y123.0068 F24000 ; Move back to start position
G1 Z0.4 F24000 ; Z hop return
G1 E0.5 F2100 ; Un-retract
G0 Z0.6 F24000 ; Move to layer height
SET_PRESSURE_ADVANCE ADVANCE=0 ; Set pressure advance
M117 PA 0
G1 X131.5377 Y144.22 E1.00531 F6000 ; Print pattern wall
G1 X110.3245 Y165.4332 E1.00531 F6000 ; Print pattern wall
G1 E-0.5 F2100 ; Retract
G1 Z0.7 F24000 ; Z hop
G0 X110.9002 Y123.0068 F24000 ; Move to start next pattern wall
G1 Z0.6 F24000 ; Z hop return
G1 E0.5 F2100 ; Un-retract
G1 X132.1134 Y144.22 E1.00531 F6000 ; Print pattern wall
G1 X110.9002 Y165.4332 E1.00531 F6000 ; Print pattern wall
G1 E-0.5 F2100 ; Retract
G1 Z0.7 F24000 ; Z hop
G0 X111.4759 Y123.0068 F24000 ; Move to start next pattern wall
G1 Z0.6 F24000 ; Z hop return
G1 E0.5 F2100 ; Un-retract
G1 X132.6891 Y144.22 E1.00531 F6000 ; Print pattern wall
G1 X111.4759 Y165.4332 E1.00531 F6000 ; Print pattern wall
G1 E-0.5 F2100 ; Retract
G1 Z0.7 F24000 ; Z hop
G0 X113.9259 Y123.0068 F24000 ; Move to next pattern
G1 Z0.6 F24000 ; Z hop return
G1 E0.5 F2100 ; Un-retract
SET_PRESSURE_ADVANCE ADVANCE=0.005 ; Set pressure advance
M117 PA 0.005
G1 X135.1391 Y144.22 E1.00531 F6000 ; Print pattern wall
G1 X113.9259 Y165.4332 E1.00531 F6000 ; Print pattern wall
G1 E-0.5 F2100 ; Retract
G1 Z0.7 F24000 ; Z hop
G0 X114.5016 Y123.0068 F24000 ; Move to start next pattern wall
G1 Z0.6 F24000 ; Z hop return
G1 E0.5 F2100 ; Un-retract
G1 X135.7148 Y144.22 E1.00531 F6000 ; Print pattern wall
G1 X114.5016 Y165.4332 E1.00531 F6000 ; Print pattern wall
G1 E-0.5 F2100 ; Retract
G1 Z0.7 F24000 ; Z hop
G0 X115.0773 Y123.0068 F24000 ; Move to start next pattern wall
G1 Z0.6 F24000 ; Z hop return
G1 E0.5 F2100 ; Un-retract
G1 X136.2905 Y144.22 E1.00531 F6000 ; Print pattern wall
G1 X115.0773 Y165.4332 E1.00531 F6000 ; Print pattern wall
G1 E-0.5 F2100 ; Retract
G1 Z0.7 F24000 ; Z hop
G0 X117.5273 Y123.0068 F24000 ; Move to next pattern
G1 Z0.6 F24000 ; Z hop return
G1 E0.5 F2100 ; Un-retract
SET_PRESSURE_ADVANCE ADVANCE=0.01 ; Set pressure advance
M117 PA 0.01
G1 X138.7405 Y144.22 E1.00531 F6000 ; Print pattern wall
G1 X117.5273 Y165.4332 E1.00531 F6000 ; Print pattern wall
G1 E-0.5 F2100 ; Retract
G1 Z0.7 F24000 ; Z hop
G0 X118.103 Y123.0068 F24000 ; Move to start next pattern wall
G1 Z0.6 F24000 ; Z hop return
G1 E0.5 F2100 ; Un-retract
G1 X139.3162 Y144.22 E1.00531 F6000 ; Print pattern wall
G1 X118.103 Y165.4332 E1.00531 F6000 ; Print pattern wall
G1 E-0.5 F2100 ; Retract
G1 Z0.7 F24000 ; Z hop
G0 X118.6787 Y123.0068 F24000 ; Move to start next pattern wall
G1 Z0.6 F24000 ; Z hop return
G1 E0.5 F2100 ; Un-retract
G1 X139.8919 Y144.22 E1.00531 F6000 ; Print pattern wall
G1 X118.6787 Y165.4332 E1.00531 F6000 ; Print pattern wall
G1 E-0.5 F2100 ; Retract
G1 Z0.7 F24000 ; Z hop
G0 X121.1287 Y123.0068 F24000 ; Move to next pattern
G1 Z0.6 F24000 ; Z hop return
G1 E0.5 F2100 ; Un-retract
SET_PRESSURE_ADVANCE ADVANCE=0.015 ; Set pressure advance
M117 PA 0.015
G1 X142.3419 Y144.22 E1.00531 F6000 ; Print pattern wall
G1 X121.1287 Y165.4332 E1.00531 F6000 ; Print pattern wall
G1 E-0.5 F2100 ; Retract
G1 Z0.7 F24000 ; Z hop
G0 X121.7044 Y123.0068 F24000 ; Move to start next pattern wall
G1 Z0.6 F24000 ; Z hop return
G1 E0.5 F2100 ; Un-retract
G1 X142.9176 Y144.22 E1.00531 F6000 ; Print pattern wall
G1 X121.7044 Y165.4332 E1.00531 F6000 ; Print pattern wall
G1 E-0.5 F2100 ; Retract
G1 Z0.7 F24000 ; Z hop
G0 X122.2801 Y123.0068 F24000 ; Move to start next pattern wall
G1 Z0.6 F24000 ; Z hop return
G1 E0.5 F2100 ; Un-retract
G1 X143.4933 Y144.22 E1.00531 F6000 ; Print pattern wall
G1 X122.2801 Y165.4332 E1.00531 F6000 ; Print pattern wall
G1 E-0.5 F2100 ; Retract
G1 Z0.7 F24000 ; Z hop
G0 X124.7301 Y123.0068 F24000 ; Move to next pattern
G1 Z0.6 F24000 ; Z hop return
G1 E0.5 F2100 ; Un-retract
SET_PRESSURE_ADVANCE ADVANCE=0.02 ; Set pressure advance
M117 PA 0.02
G1 X145.9433 Y144.22 E1.00531 F6000 ; Print pattern wall
G1 X124.7301 Y165.4332 E1.00531 F6000 ; Print pattern wall
G1 E-0.5 F2100 ; Retract
G1 Z0.7 F24000 ; Z hop
G0 X125.3058 Y123.0068 F24000 ; Move to start next pattern wall
G1 Z0.6 F24000 ; Z hop return
G1 E0.5 F2100 ; Un-retract
G1 X146.519 Y144.22 E1.00531 F6000 ; Print pattern wall
G1 X125.3058 Y165.4332 E1.00531 F6000 ; Print pattern wall
G1 E-0.5 F2100 ; Retract
G1 Z0.7 F24000 ; Z hop
G0 X125.8815 Y123.0068 F24000 ; Move to start next pattern wall
G1 Z0.6 F24000 ; Z hop return
G1 E0.5 F2100 ; Un-retract
G1 X147.0947 Y144.22 E1.00531 F6000 ; Print pattern wall
G1 X125.8815 Y165.4332 E1.00531 F6000 ; Print pattern wall
G1 E-0.5 F2100 ; Retract
G1 Z0.7 F24000 ; Z hop
G0 X128.3315 Y123.0068 F24000 ; Move to next pattern
G1 Z0.6 F24000 ; Z hop return
G1 E0.5 F2100 ; Un-retract
SET_PRESSURE_ADVANCE ADVANCE=0.025 ; Set pressure advance
M117 PA 0.025
G1 X149.5447 Y144.22 E1.00531 F6000 ; Print pattern wall
G1 X128.3315 Y165.4332 E1.00531 F6000 ; Print pattern wall
G1 E-0.5 F2100 ; Retract
G1 Z0.7 F24000 ; Z hop
G0 X128.9072 Y123.0068 F24000 ; Move to start next pattern wall
G1 Z0.6 F24000 ; Z hop return
G1 E0.5 F2100 ; Un-retract
G1 X150.1204 Y144.22 E1.00531 F6000 ; Print pattern wall
G1 X128.9072 Y165.4332 E1.00531 F6000 ; Print pattern wall
G1 E-0.5 F2100 ; Retract
G1 Z0.7 F24000 ; Z hop
G0 X129.4829 Y123.0068 F24000 ; Move to start next pattern wall
G1 Z0.6 F24000 ; Z hop return
G1 E0.5 F2100 ; Un-retract
G1 X150.6961 Y144.22 E1.00531 F6000 ; Print pattern wall
G1 X129.4829 Y165.4332 E1.00531 F6000 ; Print pattern wall
G1 E-0.5 F2100 ; Retract
G1 Z0.7 F24000 ; Z hop
G0 X131.9329 Y123.0068 F24000 ; Move to next pattern
G1 Z0.6 F24000 ; Z hop return
G1 E0.5 F2100 ; Un-retract
SET_PRESSURE_ADVANCE ADVANCE=0.03 ; Set pressure advance
M117 PA 0.03
G1 X153.1461 Y144.22 E1.00531 F6000 ; Print pattern wall
G1 X131.9329 Y165.4332 E1.00531 F6000 ; Print pattern wall
G1 E-0.5 F2100 ; Retract
G1 Z0.7 F24000 ; Z hop
G0 X132.5086 Y123.0068 F24000 ; Move to start next pattern wall
G1 Z0.6 F24000 ; Z hop return
G1 E0.5 F2100 ; Un-retract
G1 X153.7218 Y144.22 E1.00531 F6000 ; Print pattern wall
G1 X132.5086 Y165.4332 E1.00531 F6000 ; Print pattern wall
G1 E-0.5 F2100 ; Retract
G1 Z0.7 F24000 ; Z hop
G0 X133.0843 Y123.0068 F24000 ; Move to start next pattern wall
G1 Z0.6 F24000 ; Z hop return
G1 E0.5 F2100 ; Un-retract
G1 X154.2975 Y144.22 E1.00531 F6000 ; Print pattern wall
G1 X133.0843 Y165.4332 E1.00531 F6000 ; Print pattern wall
G1 E-0.5 F2100 ; Retract
G1 Z0.7 F24000 ; Z hop
G0 X135.5343 Y123.0068 F24000 ; Move to next pattern
G1 Z0.6 F24000 ; Z hop return
G1 E0.5 F2100 ; Un-retract
SET_PRESSURE_ADVANCE ADVANCE=0.035 ; Set pressure advance
M117 PA 0.035
G1 X156.7475 Y144.22 E1.00531 F6000 ; Print pattern wall
G1 X135.5343 Y165.4332 E1.00531 F6000 ; Print pattern wall
G1 E-0.5 F2100 ; Retract
G1 Z0.7 F24000 ; Z hop
G0 X136.11 Y123.0068 F24000 ; Move to start next pattern wall
G1 Z0.6 F24000 ; Z hop return
G1 E0.5 F2100 ; Un-retract
G1 X157.3232 Y144.22 E1.00531 F6000 ; Print pattern wall
G1 X136.11 Y165.4332 E1.00531 F6000 ; Print pattern wall
G1 E-0.5 F2100 ; Retract
G1 Z0.7 F24000 ; Z hop
G0 X136.6857 Y123.0068 F24000 ; Move to start next pattern wall
G1 Z0.6 F24000 ; Z hop return
G1 E0.5 F2100 ; Un-retract
G1 X157.8989 Y144.22 E1.00531 F6000 ; Print pattern wall
G1 X136.6857 Y165.4332 E1.00531 F6000 ; Print pattern wall
G1 E-0.5 F2100 ; Retract
G1 Z0.7 F24000 ; Z hop
G0 X139.1357 Y123.0068 F24000 ; Move to next pattern
G1 Z0.6 F24000 ; Z hop return
G1 E0.5 F2100 ; Un-retract
SET_PRESSURE_ADVANCE ADVANCE=0.04 ; Set pressure advance
M117 PA 0.04
G1 X160.3489 Y144.22 E1.00531 F6000 ; Print pattern wall
G1 X139.1357 Y165.4332 E1.00531 F6000 ; Print pattern wall
G1 E-0.5 F2100 ; Retract
G1 Z0.7 F24000 ; Z hop
G0 X139.7114 Y123.0068 F24000 ; Move to start next pattern wall
G1 Z0.6 F24000 ; Z hop return
G1 E0.5 F2100 ; Un-retract
G1 X160.9246 Y144.22 E1.00531 F6000 ; Print pattern wall
G1 X139.7114 Y165.4332 E1.00531 F6000 ; Print pattern wall
G1 E-0.5 F2100 ; Retract
G1 Z0.7 F24000 ; Z hop
G0 X140.2871 Y123.0068 F24000 ; Move to start next pattern wall
G1 Z0.6 F24000 ; Z hop return
G1 E0.5 F2100 ; Un-retract
G1 X161.5003 Y144.22 E1.00531 F6000 ; Print pattern wall
G1 X140.2871 Y165.4332 E1.00531 F6000 ; Print pattern wall
G1 E-0.5 F2100 ; Retract
G1 Z0.7 F24000 ; Z hop
G0 X142.7371 Y123.0068 F24000 ; Move to next pattern
G1 Z0.6 F24000 ; Z hop return
G1 E0.5 F2100 ; Un-retract
SET_PRESSURE_ADVANCE ADVANCE=0.045 ; Set pressure advance
M117 PA 0.045
G1 X163.9503 Y144.22 E1.00531 F6000 ; Print pattern wall
G1 X142.7371 Y165.4332 E1.00531 F6000 ; Print pattern wall
G1 E-0.5 F2100 ; Retract
G1 Z0.7 F24000 ; Z hop
G0 X143.3128 Y123.0068 F24000 ; Move to start next pattern wall
G1 Z0.6 F24000 ; Z hop return
G1 E0.5 F2100 ; Un-retract
G1 X164.526 Y144.22 E1.00531 F6000 ; Print pattern wall
G1 X143.3128 Y165.4332 E1.00531 F6000 ; Print pattern wall
G1 E-0.5 F2100 ; Retract
G1 Z0.7 F24000 ; Z hop
G0 X143.8885 Y123.0068 F24000 ; Move to start next pattern wall
G1 Z0.6 F24000 ; Z hop return
G1 E0.5 F2100 ; Un-retract
G1 X165.1017 Y144.22 E1.00531 F6000 ; Print pattern wall
G1 X143.8885 Y165.4332 E1.00531 F6000 ; Print pattern wall
G1 E-0.5 F2100 ; Retract
G1 Z0.7 F24000 ; Z hop
G0 X146.3385 Y123.0068 F24000 ; Move to next pattern
G1 Z0.6 F24000 ; Z hop return
G1 E0.5 F2100 ; Un-retract
SET_PRESSURE_ADVANCE ADVANCE=0.05 ; Set pressure advance
M117 PA 0.05
G1 X167.5517 Y144.22 E1.00531 F6000 ; Print pattern wall
G1 X146.3385 Y165.4332 E1.00531 F6000 ; Print pattern wall
G1 E-0.5 F2100 ; Retract
G1 Z0.7 F24000 ; Z hop
G0 X146.9142 Y123.0068 F24000 ; Move to start next pattern wall
G1 Z0.6 F24000 ; Z hop return
G1 E0.5 F2100 ; Un-retract
G1 X168.1274 Y144.22 E1.00531 F6000 ; Print pattern wall
G1 X146.9142 Y165.4332 E1.00531 F6000 ; Print pattern wall
G1 E-0.5 F2100 ; Retract
G1 Z0.7 F24000 ; Z hop
G0 X147.4899 Y123.0068 F24000 ; Move to start next pattern wall
G1 Z0.6 F24000 ; Z hop return
G1 E0.5 F2100 ; Un-retract
G1 X168.7031 Y144.22 E1.00531 F6000 ; Print pattern wall
G1 X147.4899 Y165.4332 E1.00531 F6000 ; Print pattern wall
G1 E-0.5 F2100 ; Retract
G1 Z0.7 F24000 ; Z hop
G0 X149.9399 Y123.0068 F24000 ; Move to next pattern
G1 Z0.6 F24000 ; Z hop return
G1 E0.5 F2100 ; Un-retract
SET_PRESSURE_ADVANCE ADVANCE=0.055 ; Set pressure advance
M117 PA 0.055
G1 X171.1531 Y144.22 E1.00531 F6000 ; Print pattern wall
G1 X149.9399 Y165.4332 E1.00531 F6000 ; Print pattern wall
G1 E-0.5 F2100 ; Retract
G1 Z0.7 F24000 ; Z hop
G0 X150.5156 Y123.0068 F24000 ; Move to start next pattern wall
G1 Z0.6 F24000 ; Z hop return
G1 E0.5 F2100 ; Un-retract
G1 X171.7288 Y144.22 E1.00531 F6000 ; Print pattern wall
G1 X150.5156 Y165.4332 E1.00531 F6000 ; Print pattern wall
G1 E-0.5 F2100 ; Retract
G1 Z0.7 F24000 ; Z hop
G0 X151.0913 Y123.0068 F24000 ; Move to start next pattern wall
G1 Z0.6 F24000 ; Z hop return
G1 E0.5 F2100 ; Un-retract
G1 X172.3045 Y144.22 E1.00531 F6000 ; Print pattern wall
G1 X151.0913 Y165.4332 E1.00531 F6000 ; Print pattern wall
G1 E-0.5 F2100 ; Retract
G1 Z0.7 F24000 ; Z hop
G0 X153.5413 Y123.0068 F24000 ; Move to next pattern
G1 Z0.6 F24000 ; Z hop return
G1 E0.5 F2100 ; Un-retract
SET_PRESSURE_ADVANCE ADVANCE=0.06 ; Set pressure advance
M117 PA 0.06
G1 X174.7545 Y144.22 E1.00531 F6000 ; Print pattern wall
G1 X153.5413 Y165.4332 E1.00531 F6000 ; Print pattern wall
G1 E-0.5 F2100 ; Retract
G1 Z0.7 F24000 ; Z hop
G0 X154.117 Y123.0068 F24000 ; Move to start next pattern wall
G1 Z0.6 F24000 ; Z hop return
G1 E0.5 F2100 ; Un-retract
G1 X175.3302 Y144.22 E1.00531 F6000 ; Print pattern wall
G1 X154.117 Y165.4332 E1.00531 F6000 ; Print pattern wall
G1 E-0.5 F2100 ; Retract
G1 Z0.7 F24000 ; Z hop
G0 X154.6927 Y123.0068 F24000 ; Move to start next pattern wall
G1 Z0.6 F24000 ; Z hop return
G1 E0.5 F2100 ; Un-retract
G1 X175.9059 Y144.22 E1.00531 F6000 ; Print pattern wall
G1 X154.6927 Y165.4332 E1.00531 F6000 ; Print pattern wall
G1 E-0.5 F2100 ; Retract
G1 Z0.7 F24000 ; Z hop
G0 X157.1427 Y123.0068 F24000 ; Move to next pattern
G1 Z0.6 F24000 ; Z hop return
G1 E0.5 F2100 ; Un-retract
SET_PRESSURE_ADVANCE ADVANCE=0.065 ; Set pressure advance
M117 PA 0.065
G1 X178.3559 Y144.22 E1.00531 F6000 ; Print pattern wall
G1 X157.1427 Y165.4332 E1.00531 F6000 ; Print pattern wall
G1 E-0.5 F2100 ; Retract
G1 Z0.7 F24000 ; Z hop
G0 X157.7184 Y123.0068 F24000 ; Move to start next pattern wall
G1 Z0.6 F24000 ; Z hop return
G1 E0.5 F2100 ; Un-retract
G1 X178.9316 Y144.22 E1.00531 F6000 ; Print pattern wall
G1 X157.7184 Y165.4332 E1.00531 F6000 ; Print pattern wall
G1 E-0.5 F2100 ; Retract
G1 Z0.7 F24000 ; Z hop
G0 X158.2941 Y123.0068 F24000 ; Move to start next pattern wall
G1 Z0.6 F24000 ; Z hop return
G1 E0.5 F2100 ; Un-retract
G1 X179.5073 Y144.22 E1.00531 F6000 ; Print pattern wall
G1 X158.2941 Y165.4332 E1.00531 F6000 ; Print pattern wall
G1 E-0.5 F2100 ; Retract
G1 Z0.7 F24000 ; Z hop
G0 X160.7441 Y123.0068 F24000 ; Move to next pattern
G1 Z0.6 F24000 ; Z hop return
G1 E0.5 F2100 ; Un-retract
SET_PRESSURE_ADVANCE ADVANCE=0.07 ; Set pressure advance
M117 PA 0.07
G1 X181.9573 Y144.22 E1.00531 F6000 ; Print pattern wall
G1 X160.7441 Y165.4332 E1.00531 F6000 ; Print pattern wall
G1 E-0.5 F2100 ; Retract
G1 Z0.7 F24000 ; Z hop
G0 X161.3198 Y123.0068 F24000 ; Move to start next pattern wall
G1 Z0.6 F24000 ; Z hop return
G1 E0.5 F2100 ; Un-retract
G1 X182.533 Y144.22 E1.00531 F6000 ; Print pattern wall
G1 X161.3198 Y165.4332 E1.00531 F6000 ; Print pattern wall
G1 E-0.5 F2100 ; Retract
G1 Z0.7 F24000 ; Z hop
G0 X161.8955 Y123.0068 F24000 ; Move to start next pattern wall
G1 Z0.6 F24000 ; Z hop return
G1 E0.5 F2100 ; Un-retract
G1 X183.1087 Y144.22 E1.00531 F6000 ; Print pattern wall
G1 X161.8955 Y165.4332 E1.00531 F6000 ; Print pattern wall
G1 E-0.5 F2100 ; Retract
G1 Z0.7 F24000 ; Z hop
G0 X164.3455 Y123.0068 F24000 ; Move to next pattern
G1 Z0.6 F24000 ; Z hop return
G1 E0.5 F2100 ; Un-retract
SET_PRESSURE_ADVANCE ADVANCE=0.075 ; Set pressure advance
M117 PA 0.075
G1 X185.5587 Y144.22 E1.00531 F6000 ; Print pattern wall
G1 X164.3455 Y165.4332 E1.00531 F6000 ; Print pattern wall
G1 E-0.5 F2100 ; Retract
G1 Z0.7 F24000 ; Z hop
G0 X164.9212 Y123.0068 F24000 ; Move to start next pattern wall
G1 Z0.6 F24000 ; Z hop return
G1 E0.5 F2100 ; Un-retract
G1 X186.1344 Y144.22 E1.00531 F6000 ; Print pattern wall
G1 X164.9212 Y165.4332 E1.00531 F6000 ; Print pattern wall
G1 E-0.5 F2100 ; Retract
G1 Z0.7 F24000 ; Z hop
G0 X165.4969 Y123.0068 F24000 ; Move to start next pattern wall
G1 Z0.6 F24000 ; Z hop return
G1 E0.5 F2100 ; Un-retract
G1 X186.7101 Y144.22 E1.00531 F6000 ; Print pattern wall
G1 X165.4969 Y165.4332 E1.00531 F6000 ; Print pattern wall
G1 E-0.5 F2100 ; Retract
G1 Z0.7 F24000 ; Z hop
G0 X167.9469 Y123.0068 F24000 ; Move to next pattern
G1 Z0.6 F24000 ; Z hop return
G1 E0.5 F2100 ; Un-retract
SET_PRESSURE_ADVANCE ADVANCE=0.08 ; Set pressure advance
M117 PA 0.08
G1 X189.1601 Y144.22 E1.00531 F6000 ; Print pattern wall
G1 X167.9469 Y165.4332 E1.00531 F6000 ; Print pattern wall
G1 E-0.5 F2100 ; Retract
G1 Z0.7 F24000 ; Z hop
G0 X168.5226 Y123.0068 F24000 ; Move to start next pattern wall
G1 Z0.6 F24000 ; Z hop return
G1 E0.5 F2100 ; Un-retract
G1 X189.7358 Y144.22 E1.00531 F6000 ; Print pattern wall
G1 X168.5226 Y165.4332 E1.00531 F6000 ; Print pattern wall
G1 E-0.5 F2100 ; Retract
G1 Z0.7 F24000 ; Z hop
G0 X169.0983 Y123.0068 F24000 ; Move to start next pattern wall
G1 Z0.6 F24000 ; Z hop return
G1 E0.5 F2100 ; Un-retract
G1 X190.3115 Y144.22 E1.00531 F6000 ; Print pattern wall
G1 X169.0983 Y165.4332 E1.00531 F6000 ; Print pattern wall
G1 E-0.5 F2100 ; Retract
G1 Z0.7 F24000 ; Z hop
G0 X110.3245 Y123.0068 F24000 ; Move back to start position
G1 Z0.6 F24000 ; Z hop return
G1 E0.5 F2100 ; Un-retract
G0 Z0.8 F24000 ; Move to layer height
SET_PRESSURE_ADVANCE ADVANCE=0 ; Set pressure advance
M117 PA 0
G1 X131.5377 Y144.22 E1.00531 F6000 ; Print pattern wall
G1 X110.3245 Y165.4332 E1.00531 F6000 ; Print pattern wall
G1 E-0.5 F2100 ; Retract
G1 Z0.9 F24000 ; Z hop
G0 X110.9002 Y123.0068 F24000 ; Move to start next pattern wall
G1 Z0.8 F24000 ; Z hop return
G1 E0.5 F2100 ; Un-retract
G1 X132.1134 Y144.22 E1.00531 F6000 ; Print pattern wall
G1 X110.9002 Y165.4332 E1.00531 F6000 ; Print pattern wall
G1 E-0.5 F2100 ; Retract
G1 Z0.9 F24000 ; Z hop
G0 X111.4759 Y123.0068 F24000 ; Move to start next pattern wall
G1 Z0.8 F24000 ; Z hop return
G1 E0.5 F2100 ; Un-retract
G1 X132.6891 Y144.22 E1.00531 F6000 ; Print pattern wall
G1 X111.4759 Y165.4332 E1.00531 F6000 ; Print pattern wall
G1 E-0.5 F2100 ; Retract
G1 Z0.9 F24000 ; Z hop
G0 X113.9259 Y123.0068 F24000 ; Move to next pattern
G1 Z0.8 F24000 ; Z hop return
G1 E0.5 F2100 ; Un-retract
SET_PRESSURE_ADVANCE ADVANCE=0.005 ; Set pressure advance
M117 PA 0.005
G1 X135.1391 Y144.22 E1.00531 F6000 ; Print pattern wall
G1 X113.9259 Y165.4332 E1.00531 F6000 ; Print pattern wall
G1 E-0.5 F2100 ; Retract
G1 Z0.9 F24000 ; Z hop
G0 X114.5016 Y123.0068 F24000 ; Move to start next pattern wall
G1 Z0.8 F24000 ; Z hop return
G1 E0.5 F2100 ; Un-retract
G1 X135.7148 Y144.22 E1.00531 F6000 ; Print pattern wall
G1 X114.5016 Y165.4332 E1.00531 F6000 ; Print pattern wall
G1 E-0.5 F2100 ; Retract
G1 Z0.9 F24000 ; Z hop
G0 X115.0773 Y123.0068 F24000 ; Move to start next pattern wall
G1 Z0.8 F24000 ; Z hop return
G1 E0.5 F2100 ; Un-retract
G1 X136.2905 Y144.22 E1.00531 F6000 ; Print pattern wall
G1 X115.0773 Y165.4332 E1.00531 F6000 ; Print pattern wall
G1 E-0.5 F2100 ; Retract
G1 Z0.9 F24000 ; Z hop
G0 X117.5273 Y123.0068 F24000 ; Move to next pattern
G1 Z0.8 F24000 ; Z hop return
G1 E0.5 F2100 ; Un-retract
SET_PRESSURE_ADVANCE ADVANCE=0.01 ; Set pressure advance
M117 PA 0.01
G1 X138.7405 Y144.22 E1.00531 F6000 ; Print pattern wall
G1 X117.5273 Y165.4332 E1.00531 F6000 ; Print pattern wall
G1 E-0.5 F2100 ; Retract
G1 Z0.9 F24000 ; Z hop
G0 X118.103 Y123.0068 F24000 ; Move to start next pattern wall
G1 Z0.8 F24000 ; Z hop return
G1 E0.5 F2100 ; Un-retract
G1 X139.3162 Y144.22 E1.00531 F6000 ; Print pattern wall
G1 X118.103 Y165.4332 E1.00531 F6000 ; Print pattern wall
G1 E-0.5 F2100 ; Retract
G1 Z0.9 F24000 ; Z hop
G0 X118.6787 Y123.0068 F24000 ; Move to start next pattern wall
G1 Z0.8 F24000 ; Z hop return
G1 E0.5 F2100 ; Un-retract
G1 X139.8919 Y144.22 E1.00531 F6000 ; Print pattern wall
G1 X118.6787 Y165.4332 E1.00531 F6000 ; Print pattern wall
G1 E-0.5 F2100 ; Retract
G1 Z0.9 F24000 ; Z hop
G0 X121.1287 Y123.0068 F24000 ; Move to next pattern
G1 Z0.8 F24000 ; Z hop return
G1 E0.5 F2100 ; Un-retract
SET_PRESSURE_ADVANCE ADVANCE=0.015 ; Set pressure advance
M117 PA 0.015
G1 X142.3419 Y144.22 E1.00531 F6000 ; Print pattern wall
G1 X121.1287 Y165.4332 E1.00531 F6000 ; Print pattern wall
G1 E-0.5 F2100 ; Retract
G1 Z0.9 F24000 ; Z hop
G0 X121.7044 Y123.0068 F24000 ; Move to start next pattern wall
G1 Z0.8 F24000 ; Z hop return
G1 E0.5 F2100 ; Un-retract
G1 X142.9176 Y144.22 E1.00531 F6000 ; Print pattern wall
G1 X121.7044 Y165.4332 E1.00531 F6000 ; Print pattern wall
G1 E-0.5 F2100 ; Retract
G1 Z0.9 F24000 ; Z hop
G0 X122.2801 Y123.0068 F24000 ; Move to start next pattern wall
G1 Z0.8 F24000 ; Z hop return
G1 E0.5 F2100 ; Un-retract
G1 X143.4933 Y144.22 E1.00531 F6000 ; Print pattern wall
G1 X122.2801 Y165.4332 E1.00531 F6000 ; Print pattern wall
G1 E-0.5 F2100 ; Retract
G1 Z0.9 F24000 ; Z hop
G0 X124.7301 Y123.0068 F24000 ; Move to next pattern
G1 Z0.8 F24000 ; Z hop return
G1 E0.5 F2100 ; Un-retract
SET_PRESSURE_ADVANCE ADVANCE=0.02 ; Set pressure advance
M117 PA 0.02
G1 X145.9433 Y144.22 E1.00531 F6000 ; Print pattern wall
G1 X124.7301 Y165.4332 E1.00531 F6000 ; Print pattern wall
G1 E-0.5 F2100 ; Retract
G1 Z0.9 F24000 ; Z hop
G0 X125.3058 Y123.0068 F24000 ; Move to start next pattern wall
G1 Z0.8 F24000 ; Z hop return
G1 E0.5 F2100 ; Un-retract
G1 X146.519 Y144.22 E1.00531 F6000 ; Print pattern wall
G1 X125.3058 Y165.4332 E1.00531 F6000 ; Print pattern wall
G1 E-0.5 F2100 ; Retract
G1 Z0.9 F24000 ; Z hop
G0 X125.8815 Y123.0068 F24000 ; Move to start next pattern wall
G1 Z0.8 F24000 ; Z hop return
G1 E0.5 F2100 ; Un-retract
G1 X147.0947 Y144.22 E1.00531 F6000 ; Print pattern wall
G1 X125.8815 Y165.4332 E1.00531 F6000 ; Print pattern wall
G1 E-0.5 F2100 ; Retract
G1 Z0.9 F24000 ; Z hop
G0 X128.3315 Y123.0068 F24000 ; Move to next pattern
G1 Z0.8 F24000 ; Z hop return
G1 E0.5 F2100 ; Un-retract
SET_PRESSURE_ADVANCE ADVANCE=0.025 ; Set pressure advance
M117 PA 0.025
G1 X149.5447 Y144.22 E1.00531 F6000 ; Print pattern wall
G1 X128.3315 Y165.4332 E1.00531 F6000 ; Print pattern wall
G1 E-0.5 F2100 ; Retract
G1 Z0.9 F24000 ; Z hop
G0 X128.9072 Y123.0068 F24000 ; Move to start next pattern wall
G1 Z0.8 F24000 ; Z hop return
G1 E0.5 F2100 ; Un-retract
G1 X150.1204 Y144.22 E1.00531 F6000 ; Print pattern wall
G1 X128.9072 Y165.4332 E1.00531 F6000 ; Print pattern wall
G1 E-0.5 F2100 ; Retract
G1 Z0.9 F24000 ; Z hop
G0 X129.4829 Y123.0068 F24000 ; Move to start next pattern wall
G1 Z0.8 F24000 ; Z hop return
G1 E0.5 F2100 ; Un-retract
G1 X150.6961 Y144.22 E1.00531 F6000 ; Print pattern wall
G1 X129.4829 Y165.4332 E1.00531 F6000 ; Print pattern wall
G1 E-0.5 F2100 ; Retract
G1 Z0.9 F24000 ; Z hop
G0 X131.9329 Y123.0068 F24000 ; Move to next pattern
G1 Z0.8 F24000 ; Z hop return
G1 E0.5 F2100 ; Un-retract
SET_PRESSURE_ADVANCE ADVANCE=0.03 ; Set pressure advance
M117 PA 0.03
G1 X153.1461 Y144.22 E1.00531 F6000 ; Print pattern wall
G1 X131.9329 Y165.4332 E1.00531 F6000 ; Print pattern wall
G1 E-0.5 F2100 ; Retract
G1 Z0.9 F24000 ; Z hop
G0 X132.5086 Y123.0068 F24000 ; Move to start next pattern wall
G1 Z0.8 F24000 ; Z hop return
G1 E0.5 F2100 ; Un-retract
G1 X153.7218 Y144.22 E1.00531 F6000 ; Print pattern wall
G1 X132.5086 Y165.4332 E1.00531 F6000 ; Print pattern wall
G1 E-0.5 F2100 ; Retract
G1 Z0.9 F24000 ; Z hop
G0 X133.0843 Y123.0068 F24000 ; Move to start next pattern wall
G1 Z0.8 F24000 ; Z hop return
G1 E0.5 F2100 ; Un-retract
G1 X154.2975 Y144.22 E1.00531 F6000 ; Print pattern wall
G1 X133.0843 Y165.4332 E1.00531 F6000 ; Print pattern wall
G1 E-0.5 F2100 ; Retract
G1 Z0.9 F24000 ; Z hop
G0 X135.5343 Y123.0068 F24000 ; Move to next pattern
G1 Z0.8 F24000 ; Z hop return
G1 E0.5 F2100 ; Un-retract
SET_PRESSURE_ADVANCE ADVANCE=0.035 ; Set pressure advance
M117 PA 0.035
G1 X156.7475 Y144.22 E1.00531 F6000 ; Print pattern wall
G1 X135.5343 Y165.4332 E1.00531 F6000 ; Print pattern wall
G1 E-0.5 F2100 ; Retract
G1 Z0.9 F24000 ; Z hop
G0 X136.11 Y123.0068 F24000 ; Move to start next pattern wall
G1 Z0.8 F24000 ; Z hop return
G1 E0.5 F2100 ; Un-retract
G1 X157.3232 Y144.22 E1.00531 F6000 ; Print pattern wall
G1 X136.11 Y165.4332 E1.00531 F6000 ; Print pattern wall
G1 E-0.5 F2100 ; Retract
G1 Z0.9 F24000 ; Z hop
G0 X136.6857 Y123.0068 F24000 ; Move to start next pattern wall
G1 Z0.8 F24000 ; Z hop return
G1 E0.5 F2100 ; Un-retract
G1 X157.8989 Y144.22 E1.00531 F6000 ; Print pattern wall
G1 X136.6857 Y165.4332 E1.00531 F6000 ; Print pattern wall
G1 E-0.5 F2100 ; Retract
G1 Z0.9 F24000 ; Z hop
G0 X139.1357 Y123.0068 F24000 ; Move to next pattern
G1 Z0.8 F24000 ; Z hop return
G1 E0.5 F2100 ; Un-retract
SET_PRESSURE_ADVANCE ADVANCE=0.04 ; Set pressure advance
M117 PA 0.04
G1 X160.3489 Y144.22 E1.00531 F6000 ; Print pattern wall
G1 X139.1357 Y165.4332 E1.00531 F6000 ; Print pattern wall
G1 E-0.5 F2100 ; Retract
G1 Z0.9 F24000 ; Z hop
G0 X139.7114 Y123.0068 F24000 ; Move to start next pattern wall
G1 Z0.8 F24000 ; Z hop return
G1 E0.5 F2100 ; Un-retract
G1 X160.9246 Y144.22 E1.00531 F6000 ; Print pattern wall
G1 X139.7114 Y165.4332 E1.00531 F6000 ; Print pattern wall
G1 E-0.5 F2100 ; Retract
G1 Z0.9 F24000 ; Z hop
G0 X140.2871 Y123.0068 F24000 ; Move to start next pattern wall
G1 Z0.8 F24000 ; Z hop return
G1 E0.5 F2100 ; Un-retract
G1 X161.5003 Y144.22 E1.00531 F6000 ; Print pattern wall
G1 X140.2871 Y165.4332 E1.00531 F6000 ; Print pattern wall
G1 E-0.5 F2100 ; Retract
G1 Z0.9 F24000 ; Z hop
G0 X142.7371 Y123.0068 F24000 ; Move to next pattern
G1 Z0.8 F24000 ; Z hop return
G1 E0.5 F2100 ; Un-retract
SET_PRESSURE_ADVANCE ADVANCE=0.045 ; Set pressure advance
M117 PA 0.045
G1 X163.9503 Y144.22 E1.00531 F6000 ; Print pattern wall
G1 X142.7371 Y165.4332 E1.00531 F6000 ; Print pattern wall
G1 E-0.5 F2100 ; Retract
G1 Z0.9 F24000 ; Z hop
G0 X143.3128 Y123.0068 F24000 ; Move to start next pattern wall
G1 Z0.8 F24000 ; Z hop return
G1 E0.5 F2100 ; Un-retract
G1 X164.526 Y144.22 E1.00531 F6000 ; Print pattern wall
G1 X143.3128 Y165.4332 E1.00531 F6000 ; Print pattern wall
G1 E-0.5 F2100 ; Retract
G1 Z0.9 F24000 ; Z hop
G0 X143.8885 Y123.0068 F24000 ; Move to start next pattern wall
G1 Z0.8 F24000 ; Z hop return
G1 E0.5 F2100 ; Un-retract
G1 X165.1017 Y144.22 E1.00531 F6000 ; Print pattern wall
G1 X143.8885 Y165.4332 E1.00531 F6000 ; Print pattern wall
G1 E-0.5 F2100 ; Retract
G1 Z0.9 F24000 ; Z hop
G0 X146.3385 Y123.0068 F24000 ; Move to next pattern
G1 Z0.8 F24000 ; Z hop return
G1 E0.5 F2100 ; Un-retract
SET_PRESSURE_ADVANCE ADVANCE=0.05 ; Set pressure advance
M117 PA 0.05
G1 X167.5517 Y144.22 E1.00531 F6000 ; Print pattern wall
G1 X146.3385 Y165.4332 E1.00531 F6000 ; Print pattern wall
G1 E-0.5 F2100 ; Retract
G1 Z0.9 F24000 ; Z hop
G0 X146.9142 Y123.0068 F24000 ; Move to start next pattern wall
G1 Z0.8 F24000 ; Z hop return
G1 E0.5 F2100 ; Un-retract
G1 X168.1274 Y144.22 E1.00531 F6000 ; Print pattern wall
G1 X146.9142 Y165.4332 E1.00531 F6000 ; Print pattern wall
G1 E-0.5 F2100 ; Retract
G1 Z0.9 F24000 ; Z hop
G0 X147.4899 Y123.0068 F24000 ; Move to start next pattern wall
G1 Z0.8 F24000 ; Z hop return
G1 E0.5 F2100 ; Un-retract
G1 X168.7031 Y144.22 E1.00531 F6000 ; Print pattern wall
G1 X147.4899 Y165.4332 E1.00531 F6000 ; Print pattern wall
G1 E-0.5 F2100 ; Retract
G1 Z0.9 F24000 ; Z hop
G0 X149.9399 Y123.0068 F24000 ; Move to next pattern
G1 Z0.8 F24000 ; Z hop return
G1 E0.5 F2100 ; Un-retract
SET_PRESSURE_ADVANCE ADVANCE=0.055 ; Set pressure advance
M117 PA 0.055
G1 X171.1531 Y144.22 E1.00531 F6000 ; Print pattern wall
G1 X149.9399 Y165.4332 E1.00531 F6000 ; Print pattern wall
G1 E-0.5 F2100 ; Retract
G1 Z0.9 F24000 ; Z hop
G0 X150.5156 Y123.0068 F24000 ; Move to start next pattern wall
G1 Z0.8 F24000 ; Z hop return
G1 E0.5 F2100 ; Un-retract
G1 X171.7288 Y144.22 E1.00531 F6000 ; Print pattern wall
G1 X150.5156 Y165.4332 E1.00531 F6000 ; Print pattern wall
G1 E-0.5 F2100 ; Retract
G1 Z0.9 F24000 ; Z hop
G0 X151.0913 Y123.0068 F24000 ; Move to start next pattern wall
G1 Z0.8 F24000 ; Z hop return
G1 E0.5 F2100 ; Un-retract
G1 X172.3045 Y144.22 E1.00531 F6000 ; Print pattern wall
G1 X151.0913 Y165.4332 E1.00531 F6000 ; Print pattern wall
G1 E-0.5 F2100 ; Retract
G1 Z0.9 F24000 ; Z hop
G0 X153.5413 Y123.0068 F24000 ; Move to next pattern
G1 Z0.8 F24000 ; Z hop return
G1 E0.5 F2100 ; Un-retract
SET_PRESSURE_ADVANCE ADVANCE=0.06 ; Set pressure advance
M117 PA 0.06
G1 X174.7545 Y144.22 E1.00531 F6000 ; Print pattern wall
G1 X153.5413 Y165.4332 E1.00531 F6000 ; Print pattern wall
G1 E-0.5 F2100 ; Retract
G1 Z0.9 F24000 ; Z hop
G0 X154.117 Y123.0068 F24000 ; Move to start next pattern wall
G1 Z0.8 F24000 ; Z hop return
G1 E0.5 F2100 ; Un-retract
G1 X175.3302 Y144.22 E1.00531 F6000 ; Print pattern wall
G1 X154.117 Y165.4332 E1.00531 F6000 ; Print pattern wall
G1 E-0.5 F2100 ; Retract
G1 Z0.9 F24000 ; Z hop
G0 X154.6927 Y123.0068 F24000 ; Move to start next pattern wall
G1 Z0.8 F24000 ; Z hop return
G1 E0.5 F2100 ; Un-retract
G1 X175.9059 Y144.22 E1.00531 F6000 ; Print pattern wall
G1 X154.6927 Y165.4332 E1.00531 F6000 ; Print pattern wall
G1 E-0.5 F2100 ; Retract
G1 Z0.9 F24000 ; Z hop
G0 X157.1427 Y123.0068 F24000 ; Move to next pattern
G1 Z0.8 F24000 ; Z hop return
G1 E0.5 F2100 ; Un-retract
SET_PRESSURE_ADVANCE ADVANCE=0.065 ; Set pressure advance
M117 PA 0.065
G1 X178.3559 Y144.22 E1.00531 F6000 ; Print pattern wall
G1 X157.1427 Y165.4332 E1.00531 F6000 ; Print pattern wall
G1 E-0.5 F2100 ; Retract
G1 Z0.9 F24000 ; Z hop
G0 X157.7184 Y123.0068 F24000 ; Move to start next pattern wall
G1 Z0.8 F24000 ; Z hop return
G1 E0.5 F2100 ; Un-retract
G1 X178.9316 Y144.22 E1.00531 F6000 ; Print pattern wall
G1 X157.7184 Y165.4332 E1.00531 F6000 ; Print pattern wall
G1 E-0.5 F2100 ; Retract
G1 Z0.9 F24000 ; Z hop
G0 X158.2941 Y123.0068 F24000 ; Move to start next pattern wall
G1 Z0.8 F24000 ; Z hop return
G1 E0.5 F2100 ; Un-retract
G1 X179.5073 Y144.22 E1.00531 F6000 ; Print pattern wall
G1 X158.2941 Y165.4332 E1.00531 F6000 ; Print pattern wall
G1 E-0.5 F2100 ; Retract
G1 Z0.9 F24000 ; Z hop
G0 X160.7441 Y123.0068 F24000 ; Move to next pattern
G1 Z0.8 F24000 ; Z hop return
G1 E0.5 F2100 ; Un-retract
SET_PRESSURE_ADVANCE ADVANCE=0.07 ; Set pressure advance
M117 PA 0.07
G1 X181.9573 Y144.22 E1.00531 F6000 ; Print pattern wall
G1 X160.7441 Y165.4332 E1.00531 F6000 ; Print pattern wall
G1 E-0.5 F2100 ; Retract
G1 Z0.9 F24000 ; Z hop
G0 X161.3198 Y123.0068 F24000 ; Move to start next pattern wall
G1 Z0.8 F24000 ; Z hop return
G1 E0.5 F2100 ; Un-retract
G1 X182.533 Y144.22 E1.00531 F6000 ; Print pattern wall
G1 X161.3198 Y165.4332 E1.00531 F6000 ; Print pattern wall
G1 E-0.5 F2100 ; Retract
G1 Z0.9 F24000 ; Z hop
G0 X161.8955 Y123.0068 F24000 ; Move to start next pattern wall
G1 Z0.8 F24000 ; Z hop return
G1 E0.5 F2100 ; Un-retract
G1 X183.1087 Y144.22 E1.00531 F6000 ; Print pattern wall
G1 X161.8955 Y165.4332 E1.00531 F6000 ; Print pattern wall
G1 E-0.5 F2100 ; Retract
G1 Z0.9 F24000 ; Z hop
G0 X164.3455 Y123.0068 F24000 ; Move to next pattern
G1 Z0.8 F24000 ; Z hop return
G1 E0.5 F2100 ; Un-retract
SET_PRESSURE_ADVANCE ADVANCE=0.075 ; Set pressure advance
M117 PA 0.075
G1 X185.5587 Y144.22 E1.00531 F6000 ; Print pattern wall
G1 X164.3455 Y165.4332 E1.00531 F6000 ; Print pattern wall
G1 E-0.5 F2100 ; Retract
G1 Z0.9 F24000 ; Z hop
G0 X164.9212 Y123.0068 F24000 ; Move to start next pattern wall
G1 Z0.8 F24000 ; Z hop return
G1 E0.5 F2100 ; Un-retract
G1 X186.1344 Y144.22 E1.00531 F6000 ; Print pattern wall
G1 X164.9212 Y165.4332 E1.00531 F6000 ; Print pattern wall
G1 E-0.5 F2100 ; Retract
G1 Z0.9 F24000 ; Z hop
G0 X165.4969 Y123.0068 F24000 ; Move to start next pattern wall
G1 Z0.8 F24000 ; Z hop return
G1 E0.5 F2100 ; Un-retract
G1 X186.7101 Y144.22 E1.00531 F6000 ; Print pattern wall
G1 X165.4969 Y165.4332 E1.00531 F6000 ; Print pattern wall
G1 E-0.5 F2100 ; Retract
G1 Z0.9 F24000 ; Z hop
G0 X167.9469 Y123.0068 F24000 ; Move to next pattern
G1 Z0.8 F24000 ; Z hop return
G1 E0.5 F2100 ; Un-retract
SET_PRESSURE_ADVANCE ADVANCE=0.08 ; Set pressure advance
M117 PA 0.08
G1 X189.1601 Y144.22 E1.00531 F6000 ; Print pattern wall
G1 X167.9469 Y165.4332 E1.00531 F6000 ; Print pattern wall
G1 E-0.5 F2100 ; Retract
G1 Z0.9 F24000 ; Z hop
G0 X168.5226 Y123.0068 F24000 ; Move to start next pattern wall
G1 Z0.8 F24000 ; Z hop return
G1 E0.5 F2100 ; Un-retract
G1 X189.7358 Y144.22 E1.00531 F6000 ; Print pattern wall
G1 X168.5226 Y165.4332 E1.00531 F6000 ; Print pattern wall
G1 E-0.5 F2100 ; Retract
G1 Z0.9 F24000 ; Z hop
G0 X169.0983 Y123.0068 F24000 ; Move to start next pattern wall
G1 Z0.8 F24000 ; Z hop return
G1 E0.5 F2100 ; Un-retract
G1 X190.3115 Y144.22 E1.00531 F6000 ; Print pattern wall
G1 X169.0983 Y165.4332 E1.00531 F6000 ; Print pattern wall
SET_PRESSURE_ADVANCE ADVANCE=0 ; Set pressure advance back to start value
M117 PA 0
G1 E-0.5 F2100 ; Retract
G1 Z0.9 F24000 ; Z hop
G0 Z5.8 F24000 ; Z raise
M104 S0 ; Turn off hotend
M140 S0 ; Turn off bed
M107    ; Turn off fan
;
; End G-code
;
PRINT_END ; End macro. Change name to match yours
;
; FINISH
;
