; HEADER_BLOCK_START
; generated by OrcaSlicer 1.6.3 on 2023-07-11 at 19:30:26
; total layer number: 150
; HEADER_BLOCK_END

; THUMBNAIL_BLOCK_START
; THUMBNAIL_BLOCK_END

; external perimeters extrusion width = 0.40mm
; perimeters extrusion width = 0.45mm
; infill extrusion width = 0.45mm
; solid infill extrusion width = 0.40mm
; top infill extrusion width = 0.40mm
; first layer extrusion width = 0.50mm

; EXECUTABLE_BLOCK_START
EXCLUDE_OBJECT_DEFINE NAME=Voron_Design_Cube_v7.stl_id_0_copy_0 CENTER=150,150 POLYGON=[[135,135],[165,135],[165,165],[135,165],[135,135]]
M73 P0 R43
;TYPE:Custom
M104 S0 ; Stops OrcaSlicer from sending temp waits separately
M140 S0
print_start EXTRUDER=215 BED=60 


;CHAMBER=0
G90
G21
M83 ; use relative distances for extrusion
; filament start gcode
M106 S0
;LAYER_CHANGE
;Z:0.2
;HEIGHT:0.2
;BEFORE_LAYER_CHANGE
;0.2
G92 E0

G1 E-.8 F1800
G1 Z.4 F27000
;AFTER_LAYER_CHANGE
;0.2
M204 S2000
; printing object Voron_Design_Cube_v7.stl id:0 copy 0
EXCLUDE_OBJECT_START NAME=Voron_Design_Cube_v7.stl_id_0_copy_0
G1 X163.736 Y158.608
G1 Z.2
G1 E.8 F1800
;TYPE:Inner wall
;WIDTH:0.499999
G1 X158.608 Y163.736 E.2701
G1 X141.392 Y163.736 E.64124
G1 X136.264 Y158.608 E.2701
G1 X136.264 Y141.392 E.64124
G1 X141.392 Y136.264 E.2701
G1 X158.608 Y136.264 E.64124
G1 X163.736 Y141.392 E.2701
G1 X163.736 Y142.857 E.05457
G1 X163.736 Y158.548 E.58443
G1 X164.193 Y158.797 F27000
G1 F1800
G1 X158.797 Y164.193 E.2842
G1 X141.203 Y164.193 E.65534
G1 X135.807 Y158.797 E.2842
G1 X135.807 Y141.203 E.65534
G1 X141.203 Y135.807 E.2842
G1 X158.797 Y135.807 E.65534
G1 X164.193 Y141.203 E.2842
G1 X164.193 Y142.857 E.06163
G1 X164.193 Y158.737 E.59148
G1 X164.65 Y158.967 F27000
;TYPE:Outer wall
G1 F1800
G1 X164.65 Y158.987 E.00073
G1 X158.987 Y164.65 E.2983
G1 X141.013 Y164.65 E.66945
G1 X135.35 Y158.987 E.2983
G1 X135.35 Y141.013 E.66945
G1 X141.013 Y135.35 E.2983
G1 X158.987 Y135.35 E.66945
G1 X164.65 Y141.013 E.2983
G1 X164.65 Y142.857 E.06868
G1 X164.65 Y158.907 E.5978
G1 X164.647 Y158.969
G1 E-.56
;WIPE_START
G1 X164.65 Y158.987 E-.00908
G1 X163.292 Y160.345 E-.21892
;WIPE_END
G1 E-.012
G1 Z.6 F27000
G1 X154.686 Y142.427 Z.2
G1 E.8 F1800
;TYPE:Inner wall
G1 X155.704 Y143.154 E.04659
G1 X156.502 Y143.907 E.04089
G1 X157.265 Y144.84 E.04487
G1 X157.774 Y145.642 E.0354
G1 X158.183 Y146.468 E.03432
G1 X158.503 Y147.332 E.03432
G1 X158.733 Y148.224 E.03432
G1 X158.87 Y149.135 E.03432
G1 X158.912 Y150.055 E.03431
G1 X158.88 Y150.762 E.02637
G1 X158.756 Y151.66 E.03377
G1 X158.538 Y152.555 E.03432
G1 X158.229 Y153.423 E.03432
G1 X157.831 Y154.255 E.03432
G1 X157.35 Y155.04 E.03432
G1 X156.714 Y155.862 E.03871
G1 X156.158 Y156.443 E.02992
G1 X155.46 Y157.044 E.03432
G1 X154.704 Y157.57 E.03432
G1 X153.897 Y158.015 E.03432
G1 X152.909 Y158.423 E.03981
G1 X151.747 Y158.738 E.04487
G1 X150.806 Y158.876 E.0354
G1 X149.886 Y158.912 E.03432
G1 X148.966 Y158.853 E.03432
G1 X148.058 Y158.699 E.03432
G1 X147.17 Y158.452 E.03432
G1 X146.313 Y158.114 E.03432
G1 X145.495 Y157.69 E.03432
G1 X144.823 Y157.25 E.02992
G1 X144.011 Y156.601 E.0387
G1 X143.362 Y155.948 E.03432
G1 X142.783 Y155.231 E.03432
G1 X142.211 Y154.328 E.03981
G1 X141.698 Y153.238 E.04487
G1 X141.399 Y152.336 E.0354
G1 X141.204 Y151.435 E.03432
G1 X141.102 Y150.52 E.03432
G1 X141.096 Y149.598 E.03432
G1 X141.185 Y148.681 E.03432
G1 X141.369 Y147.778 E.03432
G1 X141.644 Y146.899 E.03432
G1 X142.077 Y145.922 E.03981
G1 X142.699 Y144.89 E.04487
G1 X143.284 Y144.141 E.0354
G1 X143.924 Y143.479 E.03432
G1 X144.63 Y142.886 E.03432
G1 X145.521 Y142.296 E.03981
G1 X146.601 Y141.763 E.04487
G1 X147.497 Y141.446 E.0354
G1 X148.394 Y141.233 E.03432
G1 X149.307 Y141.114 E.03432
G1 X150.228 Y141.09 E.03432
G1 X151.147 Y141.161 E.03432
G1 X152.053 Y141.327 E.03432
G1 X152.938 Y141.586 E.03432
G1 X153.791 Y141.934 E.03432
G1 X154.603 Y142.368 E.03432
G1 X154.637 Y142.392 E.00153
G1 X154.425 Y142.798 F27000
G1 F1800
G1 X155.436 Y143.524 E.04635
G1 X156.148 Y144.196 E.0365
G1 X156.911 Y145.129 E.04487
G1 X157.386 Y145.883 E.0332
G1 X157.772 Y146.668 E.03256
G1 X158.074 Y147.488 E.03256
G1 X158.29 Y148.335 E.03256
G1 X158.418 Y149.2 E.03256
G1 X158.455 Y150.073 E.03255
G1 X158.424 Y150.739 E.02483
G1 X158.304 Y151.596 E.03223
G1 X158.095 Y152.444 E.03256
G1 X157.799 Y153.267 E.03256
G1 X157.42 Y154.055 E.03256
G1 X156.962 Y154.799 E.03256
G1 X156.383 Y155.546 E.03519
G1 X155.828 Y156.127 E.02992
G1 X155.164 Y156.696 E.03256
G1 X154.446 Y157.193 E.03256
G1 X153.679 Y157.614 E.03256
G1 X152.79 Y157.981 E.03585
G1 X151.627 Y158.297 E.04487
G1 X150.745 Y158.423 E.0332
G1 X149.871 Y158.455 E.03256
G1 X148.999 Y158.397 E.03256
G1 X148.137 Y158.248 E.03256
G1 X147.296 Y158.012 E.03256
G1 X146.483 Y157.69 E.03256
G1 X145.708 Y157.286 E.03256
G1 X145.077 Y156.869 E.02816
G1 X144.303 Y156.249 E.03694
G1 X143.688 Y155.628 E.03256
G1 X143.141 Y154.946 E.03256
G1 X142.624 Y154.134 E.03585
G1 X142.112 Y153.044 E.04487
G1 X141.834 Y152.196 E.0332
G1 X141.651 Y151.342 E.03256
G1 X141.557 Y150.472 E.03256
G1 X141.553 Y149.598 E.03256
G1 X141.64 Y148.728 E.03256
G1 X141.816 Y147.872 E.03256
G1 X142.079 Y147.039 E.03256
G1 X142.468 Y146.158 E.03585
G1 X143.091 Y145.127 E.04487
G1 X143.641 Y144.426 E.03321
G1 X144.251 Y143.799 E.03256
G1 X144.922 Y143.238 E.03256
G1 X145.724 Y142.706 E.03585
G1 X146.804 Y142.172 E.04487
G1 X147.645 Y141.878 E.03321
G1 X148.496 Y141.679 E.03256
G1 X149.363 Y141.568 E.03256
G1 X150.237 Y141.547 E.03256
G1 X151.109 Y141.617 E.03256
G1 X151.968 Y141.776 E.03256
G1 X152.807 Y142.023 E.03256
G1 X153.615 Y142.356 E.03256
G1 X154.375 Y142.765 E.03214
G1 X154.44 Y143.368 F27000
;TYPE:Outer wall
G1 F1800
G1 X155.167 Y143.894 E.03344
G1 X155.794 Y144.486 E.03211
G1 X156.557 Y145.418 E.04487
G1 X156.998 Y146.124 E.03101
G1 X157.36 Y146.868 E.0308
G1 X157.644 Y147.644 E.0308
G1 X157.847 Y148.446 E.0308
G1 X157.965 Y149.264 E.0308
G1 X157.999 Y150.091 E.03079
G1 X157.967 Y150.715 E.02329
G1 X157.851 Y151.531 E.03069
G1 X157.651 Y152.333 E.0308
G1 X157.37 Y153.111 E.0308
G1 X157.009 Y153.855 E.0308
G1 X156.574 Y154.558 E.0308
G1 X156.053 Y155.23 E.03168
G1 X155.498 Y155.811 E.02992
G1 X154.868 Y156.347 E.0308
G1 X154.187 Y156.816 E.0308
G1 X153.461 Y157.212 E.0308
G1 X152.67 Y157.54 E.0319
G1 X151.507 Y157.856 E.04487
G1 X150.683 Y157.97 E.03101
G1 X149.856 Y157.998 E.0308
G1 X149.031 Y157.941 E.0308
G1 X148.217 Y157.798 E.0308
G1 X147.421 Y157.573 E.0308
G1 X146.653 Y157.266 E.0308
G1 X145.921 Y156.882 E.0308
G1 X145.33 Y156.489 E.0264
G1 X144.594 Y155.897 E.03518
G1 X144.015 Y155.308 E.0308
G1 X143.499 Y154.661 E.0308
G1 X143.038 Y153.939 E.0319
G1 X142.525 Y152.849 E.04487
G1 X142.269 Y152.057 E.03101
G1 X142.098 Y151.248 E.0308
G1 X142.012 Y150.425 E.0308
G1 X142.01 Y149.598 E.0308
G1 X142.095 Y148.776 E.0308
G1 X142.263 Y147.966 E.0308
G1 X142.515 Y147.178 E.0308
G1 X142.859 Y146.394 E.0319
G1 X143.482 Y145.363 E.04487
G1 X143.999 Y144.71 E.03101
G1 X144.577 Y144.119 E.0308
G1 X145.213 Y143.59 E.0308
G1 X145.926 Y143.116 E.0319
G1 X147.006 Y142.582 E.04487
G1 X147.793 Y142.311 E.03101
G1 X148.599 Y142.124 E.0308
G1 X149.419 Y142.022 E.0308
G1 X150.246 Y142.004 E.0308
G1 X151.07 Y142.072 E.0308
G1 X151.883 Y142.225 E.0308
G1 X152.676 Y142.461 E.0308
G1 X153.44 Y142.778 E.0308
G1 X154.167 Y143.172 E.0308
G1 X154.391 Y143.333 E.01029
G1 X154.511 Y143.333
G1 E-.56
;WIPE_START
G1 X155.167 Y143.894 E-.10919
G1 X155.794 Y144.486 E-.09827
G1 X155.908 Y144.625 E-.02054
;WIPE_END
G1 E-.012
G1 Z.6 F27000
G1 X158.257 Y136.401 Z.2
G1 E.8 F1800
;TYPE:Bottom surface
;WIDTH:0.504253
G1 F3600
G1 X163.393 Y141.537 E.27303
G1 X163.393 Y142.189 E.02453
G1 X157.811 Y136.607 E.29678
G1 X157.158 Y136.607 E.02453
G1 X163.393 Y142.842 E.33147
G1 X163.393 Y143.494 E.02453
G1 X156.506 Y136.607 E.36615
G1 X155.853 Y136.607 E.02453
G1 X163.393 Y144.147 E.40084
G1 X163.393 Y144.799 E.02453
G1 X155.201 Y136.607 E.43553
G1 X154.549 Y136.607 E.02453
G1 X163.393 Y145.451 E.47021
G1 X163.393 Y146.104 E.02453
G1 X153.896 Y136.607 E.5049
G1 X153.244 Y136.607 E.02453
G1 X163.393 Y146.756 E.53958
G1 X163.393 Y147.409 E.02453
G1 X152.591 Y136.607 E.57427
G1 X151.939 Y136.607 E.02453
G1 X163.393 Y148.061 E.60895
G1 X163.393 Y148.714 E.02453
G1 X151.286 Y136.607 E.64364
G1 X150.634 Y136.607 E.02453
G1 X163.393 Y149.366 E.67832
G1 X163.393 Y150.018 E.02453
G1 X149.982 Y136.607 E.71301
G1 X149.329 Y136.607 E.02453
G1 X154.844 Y142.121 E.29317
G1 X155.91 Y142.88 E.04922
G1 X156.671 Y143.582 E.0389
G1 X157.638 Y144.773 E.05768
G1 X157.862 Y145.14 E.01614
G1 X163.393 Y150.671 E.29406
G1 X163.393 Y151.323 E.02453
G1 X158.563 Y146.493 E.2568
G1 X158.9 Y147.483 E.03931
G1 X163.393 Y151.976 E.23886
G1 X163.393 Y152.628 E.02453
G1 X159.102 Y148.337 E.22814
G1 X159.204 Y149.091 E.02862
G1 X163.393 Y153.281 E.22271
G1 X163.393 Y153.933 E.02453
G1 X159.244 Y149.784 E.22059
G1 X159.256 Y150.1 E.01191
G1 X159.237 Y150.43 E.01239
G1 X163.393 Y154.585 E.22094
G1 X163.393 Y155.238 E.02453
G1 X159.191 Y151.036 E.2234
G1 X159.105 Y151.603 E.02155
G1 X163.393 Y155.89 E.22795
G1 X163.393 Y156.543 E.02453
G1 X158.993 Y152.142 E.23394
G1 X158.859 Y152.661 E.02012
G1 X163.393 Y157.195 E.24107
G1 X163.393 Y157.848 E.02453
G1 X158.691 Y153.146 E.24996
G1 X158.514 Y153.621 E.01907
G1 X163.376 Y158.483 E.25849
G1 X163.05 Y158.809 E.01734
G1 X158.303 Y154.062 E.25239
G1 X158.086 Y154.498 E.0183
G1 X162.724 Y159.135 E.24655
G1 X162.398 Y159.462 E.01734
G1 X157.838 Y154.902 E.24239
G1 X157.586 Y155.303 E.01779
G1 X162.071 Y159.788 E.23843
G1 X161.745 Y160.114 E.01734
G1 X157.302 Y155.671 E.23621
G1 X157.013 Y156.035 E.01746
G1 X161.419 Y160.44 E.23423
G1 X161.093 Y160.767 E.01734
G1 X156.697 Y156.37 E.23372
G1 X156.38 Y156.706 E.01735
G1 X160.766 Y161.093 E.2332
G1 X160.44 Y161.419 E.01734
G1 X156.029 Y157.008 E.23452
G1 X155.678 Y157.309 E.01739
G1 X160.114 Y161.745 E.23585
G1 X159.788 Y162.071 E.01734
G1 X155.293 Y157.577 E.23894
G1 X154.909 Y157.845 E.01762
G1 X159.462 Y162.398 E.24203
G1 X159.135 Y162.724 E.01734
G1 X154.49 Y158.079 E.24695
G1 X154.07 Y158.311 E.01805
G1 X158.809 Y163.05 E.25193
G1 X158.483 Y163.376 E.01734
G1 X153.614 Y158.507 E.25886
G1 X153.154 Y158.7 E.01874
G1 X157.847 Y163.393 E.24952
G1 X157.195 Y163.393 E.02453
G1 X152.642 Y158.841 E.24203
G1 X152.131 Y158.981 E.01995
G1 X156.543 Y163.393 E.23454
G1 X155.89 Y163.393 E.02453
G1 X151.609 Y159.112 E.22762
G1 X151.035 Y159.191 E.02176
G1 X155.238 Y163.393 E.22342
G1 X154.585 Y163.393 E.02453
G1 X150.425 Y159.233 E.22117
G1 X149.792 Y159.252 E.02383
M73 P1 R43
G1 X153.933 Y163.393 E.22017
G1 X153.28 Y163.393 E.02453
G1 X149.092 Y159.205 E.22267
G1 X148.937 Y159.194 E.00585
G1 X148.326 Y159.091 E.02327
G1 X152.628 Y163.393 E.22869
G1 X151.976 Y163.393 E.02453
G1 X147.474 Y158.891 E.23932
G1 X147.071 Y158.78 E.01571
G1 X146.477 Y158.547 E.024
G1 X151.529 Y163.599 E.26858
G1 E-.56 F1800
;WIPE_START
G1 F3600
G1 X150.115 Y162.185 E-.228
;WIPE_END
G1 E-.012 F1800
G1 Z.6 F27000
G1 X148.471 Y136.401 Z.2
G1 E.8 F1800
G1 F3600
G1 X153.525 Y141.456 E.26871
G1 X153.041 Y141.259 E.01966
G1 X152.526 Y141.109 E.02016
G1 X148.024 Y136.607 E.23933
G1 X147.372 Y136.607 E.02453
G1 X151.675 Y140.91 E.22877
G1 X151.181 Y140.82 E.01888
G1 X150.912 Y140.8 E.01013
G1 X146.719 Y136.607 E.22291
G1 X146.067 Y136.607 E.02453
G1 X150.208 Y140.748 E.22015
G1 X149.573 Y140.765 E.02389
G1 X145.415 Y136.607 E.22107
G1 X144.762 Y136.607 E.02453
G1 X148.967 Y140.812 E.22353
G1 X148.388 Y140.885 E.02195
G1 X144.11 Y136.607 E.22743
G1 X143.457 Y136.607 E.02453
G1 X147.856 Y141.006 E.23387
G1 X147.529 Y141.081 E.01263
G1 X147.341 Y141.143 E.00744
G1 X142.805 Y136.607 E.24116
G1 X142.152 Y136.607 E.02453
G1 X146.852 Y141.306 E.24984
G1 X146.62 Y141.384 E.0092
G1 X146.39 Y141.497 E.00963
G1 X141.517 Y136.624 E.25909
G1 X141.191 Y136.95 E.01734
G1 X145.954 Y141.713 E.25321
G1 X145.517 Y141.929 E.01831
G1 X140.865 Y137.276 E.24734
G1 X140.538 Y137.602 E.01734
G1 X145.094 Y142.159 E.24222
G1 X144.706 Y142.422 E.01766
G1 X140.212 Y137.929 E.2389
G1 X139.886 Y138.255 E.01734
G1 X144.326 Y142.695 E.23603
G1 X143.971 Y142.992 E.01741
G1 X139.56 Y138.581 E.23451
G1 X139.233 Y138.907 E.01734
G1 X143.623 Y143.297 E.23339
G1 X143.303 Y143.629 E.01735
G1 X138.907 Y139.234 E.23369
G1 X138.581 Y139.56 E.01734
G1 X142.986 Y143.965 E.23418
G1 X142.698 Y144.329 E.01746
G1 X138.255 Y139.886 E.2362
G1 X137.929 Y140.212 E.01734
G1 X142.417 Y144.701 E.23865
G1 X142.174 Y145.11 E.01789
G1 X137.602 Y140.538 E.24304
G1 X137.276 Y140.865 E.01734
G1 X141.93 Y145.519 E.24743
G1 X141.689 Y145.93 E.01792
G1 X136.95 Y141.191 E.25193
G1 X136.624 Y141.517 E.01734
G1 X141.493 Y146.386 E.25885
G1 X141.301 Y146.847 E.01877
G1 X136.607 Y142.153 E.24956
G1 X136.607 Y142.805 E.02453
G1 X141.146 Y147.344 E.24131
G1 X141.004 Y147.854 E.0199
G1 X136.607 Y143.457 E.23374
G1 X136.607 Y144.11 E.02453
G1 X140.894 Y148.397 E.22792
G1 X140.845 Y148.641 E.00935
G1 X140.813 Y148.969 E.01238
G1 X136.607 Y144.762 E.22363
G1 X136.607 Y145.415 E.02453
G1 X140.756 Y149.564 E.22059
G1 X140.758 Y150.218 E.0246
G1 X136.607 Y146.067 E.2207
G1 X136.607 Y146.72 E.02453
G1 X140.8 Y150.912 E.22291
G1 X140.858 Y151.456 E.02054
G1 X140.903 Y151.668 E.00814
G1 X136.607 Y147.372 E.22837
G1 X136.607 Y148.024 E.02453
G1 X141.104 Y152.522 E.23908
G1 X141.32 Y153.212 E.02719
G1 X141.477 Y153.547 E.01391
G1 X136.607 Y148.677 E.25891
G1 X136.607 Y149.329 E.02453
G1 X142.123 Y154.846 E.29327
G1 X142.449 Y155.354 E.02271
G1 X143.113 Y156.184 E.03996
G1 X143.789 Y156.862 E.03597
G1 X144.504 Y157.448 E.03476
G1 X145.151 Y157.873 E.02912
G1 X150.671 Y163.393 E.29344
G1 X150.018 Y163.393 E.02453
G1 X136.607 Y149.982 E.713
G1 X136.607 Y150.634 E.02453
G1 X149.366 Y163.393 E.67832
G1 X148.713 Y163.393 E.02453
G1 X136.607 Y151.287 E.64363
G1 X136.607 Y151.939 E.02453
G1 X148.061 Y163.393 E.60895
G1 X147.409 Y163.393 E.02453
G1 X136.607 Y152.591 E.57426
G1 X136.607 Y153.244 E.02453
G1 X146.756 Y163.393 E.53958
G1 X146.104 Y163.393 E.02453
G1 X136.607 Y153.896 E.50489
G1 X136.607 Y154.549 E.02453
G1 X145.451 Y163.393 E.47021
G1 X144.799 Y163.393 E.02453
G1 X136.607 Y155.201 E.43552
G1 X136.607 Y155.854 E.02453
G1 X144.146 Y163.393 E.40083
G1 X143.494 Y163.393 E.02453
G1 X136.607 Y156.506 E.36615
G1 X136.607 Y157.158 E.02453
G1 X142.842 Y163.393 E.33146
G1 X142.189 Y163.393 E.02453
G1 X136.607 Y157.811 E.29678
G1 X136.607 Y158.463 E.02453
G1 X141.742 Y163.599 E.27303
; stop printing object Voron_Design_Cube_v7.stl id:0 copy 0
EXCLUDE_OBJECT_END NAME=Voron_Design_Cube_v7.stl_id_0_copy_0
M106 S255
;LAYER_CHANGE
;Z:0.4
;HEIGHT:0.2
;BEFORE_LAYER_CHANGE
;0.4
G92 E0

G1 E-.56 F1800
;WIPE_START
G1 F3600
G1 X140.328 Y162.185 E-.228
;WIPE_END
G1 E-.012 F1800
G1 Z.6 F27000
;AFTER_LAYER_CHANGE
;0.4
M204 S3000
M104 S220 ; set nozzle temperature
; printing object Voron_Design_Cube_v7.stl id:0 copy 0
EXCLUDE_OBJECT_START NAME=Voron_Design_Cube_v7.stl_id_0_copy_0
M204 S7000
G1 X164.011 Y158.89
G1 Z.4
G1 E.8 F1800
M204 S3000
;TYPE:Inner wall
;WIDTH:0.449999
G1 F7369.576
G1 X158.89 Y164.011 E.24024
G1 X141.11 Y164.011 E.58979
G1 X135.989 Y158.89 E.24024
G1 X135.989 Y141.11 E.58979
G1 X141.11 Y135.989 E.24024
G1 X158.89 Y135.989 E.58979
G1 X164.011 Y141.11 E.24024
G1 X164.011 Y142.71 E.05307
G1 X164.011 Y158.83 E.53473
M204 S7000
G1 X164.418 Y159.059 F27000
M204 S3000
G1 F7369.576
G1 X159.059 Y164.418 E.2514
G1 X140.941 Y164.418 E.60101
G1 X135.582 Y159.059 E.2514
G1 X135.582 Y140.941 E.60101
G1 X140.941 Y135.582 E.2514
G1 X159.059 Y135.582 E.60101
G1 X164.418 Y140.941 E.2514
G1 X164.418 Y142.71 E.05868
G1 X164.418 Y158.999 E.54034
M204 S7000
G1 X164.8 Y159.087 F27000
M204 S1000
;TYPE:Outer wall
;WIDTH:0.399999
G1 F3000
G1 X164.8 Y159.19 E.003
G1 F2772.619
G1 X164.8 Y159.19
G1 X164.8 Y159.217 E.00079
G1 X164.362 Y159.655 E.01802
G1 X159.655 Y164.362 E.19369
G1 X159.217 Y164.8 E.01802
G1 F3000
G1 X159.19 Y164.8 E.00079
G1 F3479.996
G1 X159.077 Y164.8 E.00329
G1 F3599.989
G1 X158.557 Y164.8 E.01513
G1 F3479.996
G1 X141.443 Y164.8 E.49797
G1 X140.923 Y164.8 E.01513
G1 F3000
G1 X140.81 Y164.8 E.00329
