; HEADER_BLOCK_START
; generated by OrcaSlicer 1.6.3 on 2023-07-10 at 20:12:08
; total layer number: 150
; HEADER_BLOCK_END

; THUMBNAIL_BLOCK_START
; THUMBNAIL_BLOCK_END

; external perimeters extrusion width = 0.40mm
; perimeters extrusion width = 0.45mm
; infill extrusion width = 0.45mm
; solid infill extrusion width = 0.40mm
; top infill extrusion width = 0.40mm
; first layer extrusion width = 0.50mm

; EXECUTABLE_BLOCK_START
EXCLUDE_OBJECT_DEFINE NAME=Voron_Design_Cube_v7.stl_id_0_copy_0 CENTER=150,150 POLYGON=[[135,135],[165,135],[165,165],[135,165],[135,135]]
M73 P0 R36
;TYPE:Custom
M104 S0 ; Stops OrcaSlicer from sending temp waits separately
M140 S0
print_start EXTRUDER=220 BED=60 


;CHAMBER=0
G90
G21
M82 ; use absolute distances for extrusion
G92 E0
; filament start gcode
M106 S0
;LAYER_CHANGE
;Z:0.2
;HEIGHT:0.2
;BEFORE_LAYER_CHANGE
;0.2
G92 E0

G1 E-.8 F1800
G92 E0
G1 Z.4 F21000
;AFTER_LAYER_CHANGE
;0.2
M204 S500
; printing object Voron_Design_Cube_v7.stl id:0 copy 0
EXCLUDE_OBJECT_START NAME=Voron_Design_Cube_v7.stl_id_0_copy_0
G92 E0
G1 X158.608 Y136.264
G1 Z.2
G1 E.8 F1800
;TYPE:Inner wall
;WIDTH:0.499999
G1 F3000
G1 X163.736 Y141.392 E1.0701
G1 X163.736 Y158.608 E1.71134
G1 X158.608 Y163.736 E1.98143
G1 X141.392 Y163.736 E2.62267
G1 X136.264 Y158.608 E2.89277
G1 X136.264 Y141.392 E3.53401
G1 X141.392 Y136.264 E3.80411
G1 X147.026 Y136.264 E4.01395
G1 X158.518 Y136.264 E4.442
G1 X158.797 Y135.807 F21000
G1 F3000
G1 X164.193 Y141.203 E4.7262
G1 X164.193 Y158.797 E5.38154
G1 X158.797 Y164.193 E5.66574
G1 X141.203 Y164.193 E6.32108
G1 X135.807 Y158.797 E6.60528
G1 X135.807 Y141.203 E7.26063
G1 X141.203 Y135.807 E7.54483
G1 X147.026 Y135.807 E7.76172
G1 X158.707 Y135.807 E8.19682
G1 X158.967 Y135.35 F21000
;TYPE:Outer wall
G1 F3000
G1 X158.987 Y135.35 E8.19755
G1 X164.65 Y141.013 E8.49586
G1 X164.65 Y158.987 E9.1653
G1 X158.987 Y164.65 E9.46361
G1 X141.013 Y164.65 E10.13305
G1 X135.35 Y158.987 E10.43136
G1 X135.35 Y141.013 E11.10081
G1 X141.013 Y135.35 E11.39911
G1 X147.026 Y135.35 E11.62306
G1 X158.877 Y135.35 E12.06447
G1 X158.969 Y135.353
G1 E11.50447 F1800
;WIPE_START
G1 F3000
G1 X158.987 Y135.35 E11.49197
G1 X160.323 Y136.687 E11.27647
;WIPE_END
G1 E11.26447 F1800
G92 E0
G1 Z.6 F21000
G1 X143.955 Y156.544 Z.2
G1 E.8 F1800
;TYPE:Inner wall
G1 F3000
G1 X143.362 Y155.948 E.83131
G1 X142.783 Y155.231 E.86563
G1 X142.282 Y154.458 E.89995
G1 X141.698 Y153.238 E.95031
G1 X141.399 Y152.336 E.98571
G1 X141.204 Y151.435 E1.02003
G1 X141.102 Y150.52 E1.05435
G1 X141.096 Y149.598 E1.08866
G1 X141.185 Y148.681 E1.12298
G1 X141.369 Y147.778 E1.1573
G1 X141.644 Y146.899 E1.19162
G1 X142.077 Y145.922 E1.23143
G1 X142.699 Y144.89 E1.2763
G1 X143.284 Y144.141 E1.3117
G1 X143.924 Y143.479 E1.34601
G1 X144.63 Y142.886 E1.38033
G1 X145.521 Y142.296 E1.42014
G1 X146.601 Y141.763 E1.46501
G1 X147.497 Y141.446 E1.50041
G1 X148.394 Y141.233 E1.53472
G1 X149.307 Y141.114 E1.56904
G1 X150.228 Y141.09 E1.60336
G1 X151.147 Y141.161 E1.63768
G1 X152.053 Y141.327 E1.672
G1 X152.938 Y141.586 E1.70631
G1 X153.791 Y141.934 E1.74063
G1 X154.603 Y142.368 E1.77495
G1 X155.704 Y143.154 E1.8253
G1 X156.402 Y143.799 E1.8607
G1 X157.265 Y144.84 E1.91106
G1 X157.774 Y145.642 E1.94646
G1 X158.183 Y146.468 E1.98078
G1 X158.503 Y147.332 E2.01509
G1 X158.733 Y148.224 E2.04941
G1 X158.87 Y149.135 E2.08372
G1 X158.912 Y150.055 E2.11803
G1 X158.88 Y150.762 E2.1444
G1 X158.756 Y151.66 E2.17817
G1 X158.538 Y152.555 E2.21249
G1 X158.229 Y153.423 E2.2468
G1 X157.831 Y154.255 E2.28112
G1 X157.35 Y155.04 E2.31544
G1 X156.791 Y155.772 E2.34975
G1 X156.158 Y156.443 E2.38407
G1 X155.46 Y157.044 E2.41839
G1 X154.704 Y157.57 E2.4527
G1 X153.897 Y158.015 E2.48702
G1 X153.049 Y158.375 E2.52134
G1 X151.747 Y158.738 E2.57169
G1 X150.806 Y158.876 E2.60709
G1 X149.886 Y158.912 E2.64141
G1 X148.966 Y158.853 E2.67573
G1 X148.058 Y158.699 E2.71005
G1 X147.17 Y158.452 E2.74436
G1 X146.313 Y158.114 E2.77868
G1 X145.495 Y157.69 E2.813
G1 X144.823 Y157.25 E2.84292
G1 X144.019 Y156.607 E2.88127
G1 X144.275 Y156.221 F21000
G1 F3000
G1 X143.688 Y155.628 E2.91237
G1 X143.141 Y154.946 E2.94493
G1 X142.667 Y154.211 E2.97749
G1 X142.112 Y153.044 E3.02565
G1 X141.834 Y152.196 E3.05885
G1 X141.651 Y151.342 E3.09141
G1 X141.557 Y150.472 E3.12397
G1 X141.553 Y149.598 E3.15653
G1 X141.64 Y148.728 E3.18909
G1 X141.816 Y147.872 E3.22165
G1 X142.079 Y147.039 E3.25421
G1 X142.468 Y146.158 E3.29007
G1 X143.091 Y145.127 E3.33494
G1 X143.641 Y144.426 E3.36814
G1 X144.251 Y143.799 E3.4007
G1 X144.922 Y143.238 E3.43326
G1 X145.724 Y142.706 E3.46911
G1 X146.804 Y142.172 E3.51398
G1 X147.645 Y141.878 E3.54719
G1 X148.496 Y141.679 E3.57975
G1 X149.363 Y141.568 E3.61231
G1 X150.237 Y141.547 E3.64487
G1 X151.109 Y141.617 E3.67743
G1 X151.968 Y141.776 E3.70999
G1 X152.807 Y142.023 E3.74255
G1 X153.615 Y142.356 E3.7751
G1 X154.385 Y142.77 E3.80766
G1 X155.436 Y143.524 E3.85583
G1 X156.088 Y144.132 E3.88903
G1 X156.911 Y145.129 E3.93719
G1 X157.386 Y145.883 E3.97039
G1 X157.772 Y146.668 E4.00295
G1 X158.074 Y147.488 E4.03551
G1 X158.29 Y148.335 E4.06807
G1 X158.418 Y149.2 E4.10063
G1 X158.455 Y150.073 E4.13318
G1 X158.424 Y150.739 E4.15801
G1 X158.304 Y151.596 E4.19023
G1 X158.095 Y152.444 E4.22279
G1 X157.799 Y153.267 E4.25535
G1 X157.42 Y154.055 E4.28791
G1 X156.962 Y154.799 E4.32047
G1 X156.429 Y155.492 E4.35303
G1 X155.828 Y156.127 E4.38558
G1 X155.164 Y156.696 E4.41814
G1 X154.446 Y157.193 E4.4507
G1 X153.679 Y157.614 E4.48326
G1 X152.874 Y157.953 E4.51582
G1 X151.627 Y158.297 E4.56398
G1 X150.745 Y158.423 E4.59719
G1 X149.871 Y158.455 E4.62975
G1 X148.999 Y158.397 E4.66231
G1 X148.137 Y158.248 E4.69487
G1 X147.296 Y158.012 E4.72742
G1 X146.483 Y157.69 E4.75998
G1 X145.708 Y157.286 E4.79254
G1 X145.077 Y156.869 E4.8207
G1 X144.343 Y156.281 E4.85576
G1 X145.156 Y156.349 F21000
;TYPE:Outer wall
G1 F3000
G1 X144.594 Y155.897 E4.88261
G1 X144.015 Y155.308 E4.91341
G1 X143.499 Y154.661 E4.94422
G1 X143.052 Y153.965 E4.97502
G1 X142.525 Y152.849 E5.02099
G1 X142.269 Y152.057 E5.052
G1 X142.098 Y151.248 E5.0828
G1 X142.012 Y150.425 E5.1136
G1 X142.01 Y149.598 E5.1444
G1 X142.095 Y148.776 E5.17521
G1 X142.263 Y147.966 E5.20601
G1 X142.515 Y147.178 E5.23681
G1 X142.859 Y146.394 E5.26871
G1 X143.482 Y145.363 E5.31358
G1 X143.999 Y144.71 E5.34459
G1 X144.577 Y144.119 E5.37539
G1 X145.213 Y143.59 E5.40619
G1 X145.926 Y143.116 E5.43809
G1 X147.006 Y142.582 E5.48296
G1 X147.793 Y142.311 E5.51397
G1 X148.599 Y142.124 E5.54478
G1 X149.419 Y142.022 E5.57558
G1 X150.246 Y142.004 E5.60638
G1 X151.07 Y142.072 E5.63718
G1 X151.883 Y142.225 E5.66798
G1 X152.676 Y142.461 E5.69878
G1 X153.44 Y142.778 E5.72958
G1 X154.167 Y143.172 E5.76039
G1 X155.167 Y143.894 E5.80635
G1 X155.774 Y144.464 E5.83736
G1 X156.557 Y145.418 E5.88333
G1 X156.998 Y146.124 E5.91433
G1 X157.36 Y146.868 E5.94513
G1 X157.644 Y147.644 E5.97594
G1 X157.847 Y148.446 E6.00673
G1 X157.965 Y149.264 E6.03753
G1 X157.999 Y150.091 E6.06833
G1 X157.967 Y150.715 E6.09162
G1 X157.851 Y151.531 E6.12231
G1 X157.651 Y152.333 E6.15311
G1 X157.37 Y153.111 E6.18391
G1 X157.009 Y153.855 E6.21471
G1 X156.574 Y154.558 E6.24551
G1 X156.068 Y155.212 E6.27631
G1 X155.498 Y155.811 E6.30711
G1 X154.868 Y156.347 E6.33791
G1 X154.187 Y156.816 E6.36871
G1 X153.461 Y157.212 E6.39951
G1 X152.698 Y157.531 E6.43031
G1 X151.507 Y157.856 E6.47628
G1 X150.683 Y157.97 E6.50729
G1 X149.856 Y157.998 E6.53809
G1 X149.031 Y157.941 E6.56889
G1 X148.217 Y157.798 E6.59969
G1 X147.421 Y157.573 E6.63049
G1 X146.653 Y157.266 E6.6613
G1 X145.921 Y156.882 E6.6921
G1 X145.33 Y156.489 E6.7185
G1 X145.226 Y156.405 E6.72347
G1 X145.045 Y156.395
G1 E6.16347 F1800
;WIPE_START
G1 F3000
G1 X144.594 Y155.897 E6.07101
G1 X144.015 Y155.308 E5.97674
G1 X143.789 Y155.025 E5.93547
;WIPE_END
G1 E5.92347 F1800
G92 E0
G1 Z.6 F21000
G1 X158.257 Y136.401 Z.2
G1 E.8 F1800
;TYPE:Bottom surface
;WIDTH:0.504253
G1 F6300
G1 X163.393 Y141.537 E1.07303
G1 X163.393 Y142.189 E1.09756
G1 X157.811 Y136.607 E1.39434
G1 X157.158 Y136.607 E1.41887
G1 X163.393 Y142.842 E1.75034
G1 X163.393 Y143.494 E1.77486
G1 X156.506 Y136.607 E2.14102
G1 X155.853 Y136.607 E2.16554
G1 X163.393 Y144.147 E2.56639
G1 X163.393 Y144.799 E2.59091
G1 X155.201 Y136.607 E3.02644
G1 X154.549 Y136.607 E3.05096
G1 X163.393 Y145.451 E3.52117
G1 X163.393 Y146.104 E3.5457
G1 X153.896 Y136.607 E4.0506
G1 X153.244 Y136.607 E4.07512
G1 X163.393 Y146.756 E4.61471
G1 X163.393 Y147.409 E4.63923
G1 X152.591 Y136.607 E5.2135
G1 X151.939 Y136.607 E5.23803
G1 X163.393 Y148.061 E5.84698
G1 X163.393 Y148.714 E5.87151
G1 X151.286 Y136.607 E6.51515
G1 X150.634 Y136.607 E6.53967
G1 X163.393 Y149.366 E7.218
G1 X163.393 Y150.018 E7.24252
G1 X149.982 Y136.607 E7.95553
G1 X149.329 Y136.607 E7.98006
G1 X154.844 Y142.121 E8.27323
G1 X155.91 Y142.88 E8.32245
G1 X156.671 Y143.582 E8.36135
G1 X157.638 Y144.773 E8.41903
G1 X157.862 Y145.14 E8.43517
G1 X163.393 Y150.671 E8.72923
G1 X163.393 Y151.323 E8.75376
G1 X158.563 Y146.493 E9.01056
G1 X158.9 Y147.483 E9.04987
G1 X163.393 Y151.976 E9.28874
G1 X163.393 Y152.628 E9.31326
G1 X159.102 Y148.337 E9.5414
G1 X159.204 Y149.091 E9.57003
G1 X163.393 Y153.281 E9.79274
G1 X163.393 Y153.933 E9.81727
G1 X159.244 Y149.784 E10.03785
G1 X159.256 Y150.1 E10.04977
G1 X159.237 Y150.43 E10.06216
G1 X163.393 Y154.585 E10.2831
G1 X163.393 Y155.238 E10.30763
G1 X159.191 Y151.036 E10.53102
G1 X159.105 Y151.603 E10.55257
G1 X163.393 Y155.89 E10.78052
G1 X163.393 Y156.543 E10.80505
G1 X158.993 Y152.142 E11.03898
G1 X158.859 Y152.661 E11.05911
G1 X163.393 Y157.195 E11.30018
G1 X163.393 Y157.848 E11.32471
G1 X158.691 Y153.146 E11.57467
G1 X158.514 Y153.621 E11.59374
G1 X163.376 Y158.483 E11.85222
G1 X163.05 Y158.809 E11.86956
G1 X158.303 Y154.062 E12.12196
M73 P1 R36
G1 X158.086 Y154.498 E12.14026
G1 X162.724 Y159.135 E12.38681
G1 X162.398 Y159.462 E12.40415
G1 X157.838 Y154.902 E12.64654
G1 X157.586 Y155.303 E12.66433
G1 X162.071 Y159.788 E12.90277
G1 X161.745 Y160.114 E12.92011
G1 X157.302 Y155.671 E13.15632
G1 X157.013 Y156.035 E13.17377
G1 X161.419 Y160.44 E13.408
G1 X161.093 Y160.767 E13.42535
G1 X156.697 Y156.37 E13.65906
G1 X156.38 Y156.706 E13.67641
G1 X160.766 Y161.093 E13.90962
G1 X160.44 Y161.419 E13.92696
G1 X156.029 Y157.008 E14.16148
G1 X155.678 Y157.309 E14.17888
G1 X160.114 Y161.745 E14.41472
G1 X159.788 Y162.071 E14.43207
G1 X155.293 Y157.577 E14.67101
G1 X154.909 Y157.845 E14.68862
G1 X159.462 Y162.398 E14.93066
G1 X159.135 Y162.724 E14.948
G1 X154.49 Y158.079 E15.19495
G1 X154.07 Y158.311 E15.21299
G1 X158.809 Y163.05 E15.46492
G1 X158.483 Y163.376 E15.48227
G1 X153.614 Y158.507 E15.74113
G1 X153.154 Y158.7 E15.75987
G1 X157.847 Y163.393 E16.00939
G1 X157.195 Y163.393 E16.03392
G1 X152.642 Y158.841 E16.27595
G1 X152.131 Y158.981 E16.29589
G1 X156.543 Y163.393 E16.53043
G1 X155.89 Y163.393 E16.55496
G1 X151.609 Y159.112 E16.78258
G1 X151.035 Y159.191 E16.80434
G1 X155.238 Y163.393 E17.02776
G1 X154.585 Y163.393 E17.05228
G1 X150.425 Y159.233 E17.27345
G1 X149.792 Y159.252 E17.29728
G1 X153.933 Y163.393 E17.51745
G1 X153.28 Y163.393 E17.54198
G1 X149.092 Y159.205 E17.76465
G1 X148.937 Y159.194 E17.7705
G1 X148.326 Y159.091 E17.79377
G1 X152.628 Y163.393 E18.02246
G1 X151.976 Y163.393 E18.04699
G1 X147.474 Y158.891 E18.28631
G1 X147.071 Y158.78 E18.30202
G1 X146.477 Y158.547 E18.32602
G1 X151.529 Y163.599 E18.5946
G1 E18.0346 F1800
;WIPE_START
G1 F6300
G1 X150.115 Y162.185 E17.8066
;WIPE_END
G1 E17.7946 F1800
G92 E0
G1 Z.6 F21000
G1 X148.471 Y136.401 Z.2
G1 E.8 F1800
G1 F6300
G1 X153.525 Y141.456 E1.06871
G1 X153.041 Y141.259 E1.08838
G1 X152.526 Y141.109 E1.10854
G1 X148.024 Y136.607 E1.34787
G1 X147.372 Y136.607 E1.3724
G1 X151.675 Y140.91 E1.60116
G1 X151.181 Y140.82 E1.62004
G1 X150.912 Y140.8 E1.63017
G1 X146.719 Y136.607 E1.85307
G1 X146.067 Y136.607 E1.8776
G1 X150.208 Y140.748 E2.09775
G1 X149.573 Y140.765 E2.12163
G1 X145.415 Y136.607 E2.3427
G1 X144.762 Y136.607 E2.36723
G1 X148.967 Y140.812 E2.59076
G1 X148.388 Y140.885 E2.6127
G1 X144.11 Y136.607 E2.84013
G1 X143.457 Y136.607 E2.86466
G1 X147.856 Y141.006 E3.09853
G1 X147.529 Y141.081 E3.11115
G1 X147.341 Y141.143 E3.11859
G1 X142.805 Y136.607 E3.35975
G1 X142.152 Y136.607 E3.38428
G1 X146.852 Y141.306 E3.63412
G1 X146.62 Y141.384 E3.64332
G1 X146.39 Y141.497 E3.65294
G1 X141.517 Y136.624 E3.91203
G1 X141.191 Y136.95 E3.92937
G1 X145.954 Y141.713 E4.18259
G1 X145.517 Y141.929 E4.20089
G1 X140.865 Y137.276 E4.44824
G1 X140.538 Y137.602 E4.46558
G1 X145.094 Y142.159 E4.7078
G1 X144.706 Y142.422 E4.72546
G1 X140.212 Y137.929 E4.96436
G1 X139.886 Y138.255 E4.9817
G1 X144.326 Y142.695 E5.21773
G1 X143.971 Y142.992 E5.23514
G1 X139.56 Y138.581 E5.46965
G1 X139.233 Y138.907 E5.487
G1 X143.623 Y143.297 E5.72039
G1 X143.303 Y143.629 E5.73773
G1 X138.907 Y139.234 E5.97142
G1 X138.581 Y139.56 E5.98876
G1 X142.986 Y143.965 E6.22295
G1 X142.698 Y144.329 E6.24041
G1 X138.255 Y139.886 E6.47661
G1 X137.929 Y140.212 E6.49395
G1 X142.417 Y144.701 E6.7326
G1 X142.174 Y145.11 E6.75049
G1 X137.602 Y140.538 E6.99353
G1 X137.276 Y140.865 E7.01087
G1 X141.93 Y145.519 E7.2583
G1 X141.689 Y145.93 E7.27621
G1 X136.95 Y141.191 E7.52814
G1 X136.624 Y141.517 E7.54549
G1 X141.493 Y146.386 E7.80433
G1 X141.301 Y146.847 E7.8231
G1 X136.607 Y142.153 E8.07266
G1 X136.607 Y142.805 E8.09719
G1 X141.146 Y147.344 E8.3385
G1 X141.004 Y147.854 E8.35841
G1 X136.607 Y143.457 E8.59215
G1 X136.607 Y144.11 E8.61668
G1 X140.894 Y148.397 E8.84459
G1 X140.845 Y148.641 E8.85395
G1 X140.813 Y148.969 E8.86633
G1 X136.607 Y144.762 E9.08995
M73 P1 R35
G1 X136.607 Y145.415 E9.11448
G1 X140.756 Y149.564 E9.33507
G1 X140.758 Y150.218 E9.35967
G1 X136.607 Y146.067 E9.58037
G1 X136.607 Y146.72 E9.6049
G1 X140.8 Y150.912 E9.82781
G1 X140.858 Y151.456 E9.84834
G1 X140.903 Y151.668 E9.85649
G1 X136.607 Y147.372 E10.08486
G1 X136.607 Y148.024 E10.10938
G1 X141.104 Y152.522 E10.34847
G1 X141.32 Y153.212 E10.37566
G1 X141.477 Y153.547 E10.38957
G1 X136.607 Y148.677 E10.64848
G1 X136.607 Y149.329 E10.67301
G1 X142.123 Y154.846 E10.96628
G1 X142.449 Y155.354 E10.98899
G1 X143.113 Y156.184 E11.02895
G1 X143.789 Y156.862 E11.06492
G1 X144.504 Y157.448 E11.09968
G1 X145.151 Y157.873 E11.1288
G1 X150.671 Y163.393 E11.42224
G1 X150.018 Y163.393 E11.44677
G1 X136.607 Y149.982 E12.15977
G1 X136.607 Y150.634 E12.1843
G1 X149.366 Y163.393 E12.86262
G1 X148.713 Y163.393 E12.88715
G1 X136.607 Y151.287 E13.53078
G1 X136.607 Y151.939 E13.55531
G1 X148.061 Y163.393 E14.16425
G1 X147.409 Y163.393 E14.18878
G1 X136.607 Y152.591 E14.76304
G1 X136.607 Y153.244 E14.78757
G1 X146.756 Y163.393 E15.32714
G1 X146.104 Y163.393 E15.35167
G1 X136.607 Y153.896 E15.85656
G1 X136.607 Y154.549 E15.88109
G1 X145.451 Y163.393 E16.35129
G1 X144.799 Y163.393 E16.37582
G1 X136.607 Y155.201 E16.81134
G1 X136.607 Y155.854 E16.83586
G1 X144.146 Y163.393 E17.2367
G1 X143.494 Y163.393 E17.26123
G1 X136.607 Y156.506 E17.62737
G1 X136.607 Y157.158 E17.6519
G1 X142.842 Y163.393 E17.98336
G1 X142.189 Y163.393 E18.00789
G1 X136.607 Y157.811 E18.30467
G1 X136.607 Y158.463 E18.32919
G1 X141.742 Y163.599 E18.60222
; stop printing object Voron_Design_Cube_v7.stl id:0 copy 0
EXCLUDE_OBJECT_END NAME=Voron_Design_Cube_v7.stl_id_0_copy_0
G92 E0
M106 S255
;LAYER_CHANGE
;Z:0.4
;HEIGHT:0.2
;BEFORE_LAYER_CHANGE
;0.4
G92 E0

G1 E-.56 F1800
;WIPE_START
G1 F6300
G1 X140.328 Y162.185 E-.788
;WIPE_END
G1 E-.8 F1800
G92 E0
G1 Z.6 F21000
;AFTER_LAYER_CHANGE
;0.4
M204 S5000
M140 S60 ; set bed temperature
; printing object Voron_Design_Cube_v7.stl id:0 copy 0
EXCLUDE_OBJECT_START NAME=Voron_Design_Cube_v7.stl_id_0_copy_0
G92 E0
M204 S7000
G1 X158.89 Y135.989
G1 Z.4
G1 E.8 F1800
M204 S5000
;TYPE:Inner wall
;WIDTH:0.449999
G1 F8843.492
G1 X164.011 Y141.11 E1.04024
G1 X164.011 Y142.71 E1.09331
G1 X164.011 Y158.89 E1.63003
G1 X158.89 Y164.011 E1.87027
G1 X141.11 Y164.011 E2.46006
M73 P2 R35
G1 X135.989 Y158.89 E2.7003
G1 X135.989 Y141.11 E3.29009
G1 X141.11 Y135.989 E3.53033
G1 X158.8 Y135.989 E4.11714
M204 S7000
G1 X159.059 Y135.582 F21000
M204 S5000
G1 F8843.492
