; generated by PrusaSlicer 2.6.0+win64 on 2023-07-09 at 13:59:10 UTC


;
;

;
;
; TODO: check the size of the extruder and the y-bar clearance. Optimize & test supports.

; external perimeters extrusion width = 0.63mm
; perimeters extrusion width = 0.66mm
; infill extrusion width = 0.66mm
; solid infill extrusion width = 0.66mm
; top infill extrusion width = 0.66mm
; first layer extrusion width = 0.84mm

M73 P0 R54
;TYPE:Custom
M190 S0
M109 S0 ; uncomment to remove set&wait temp gcode added automatically after this start gcode
print_start EXTRUDER=215 BED=55
G21 ; set units to millimeters
G90 ; use absolute coordinates
M83 ; use relative distances for extrusion
M107
;LAYER_CHANGE
;Z:0.3
;HEIGHT:0.3
;BEFORE_LAYER_CHANGE
;0.3
G92 E0

G1 Z.3 F18000
;AFTER_LAYER_CHANGE
;0.3
G1 E-.75 F3000
G1 Z.7 F18000
M204 S5000
G1 X134.17 Y134.17
G1 Z.3
G1 E.75 F1800
M204 S1000
;TYPE:Skirt/Brim
;WIDTH:0.84
G1 X137.056 Y131.283 E.3949
G1 X138.762 Y130.138 E.19876
G1 X140.823 Y129.723 E.20338
G1 X159.177 Y129.723 E1.77556
M73 P0 R53
G1 X161.193 Y130.119 E.19875
G1 X162.944 Y131.283 E.2034
G1 X168.717 Y137.056 E.78981
G1 X169.862 Y138.762 E.19876
G1 X170.277 Y140.823 E.20338
G1 X170.277 Y159.177 E1.77556
G1 X169.881 Y161.193 E.19875
G1 X168.717 Y162.944 E.2034
G1 X162.944 Y168.717 E.78981
G1 X161.238 Y169.862 E.19876
G1 X159.177 Y170.277 E.20338
G1 X140.823 Y170.277 E1.77556
G1 X138.807 Y169.881 E.19875
G1 X137.056 Y168.717 E.2034
G1 X131.283 Y162.944 E.78981
G1 X130.138 Y161.238 E.19876
G1 X129.723 Y159.177 E.20338
G1 X129.723 Y140.823 E1.77556
G1 X130.119 Y138.807 E.19875
G1 X131.283 Y137.056 E.2034
G1 X134.106 Y134.234 E.38615
M204 S4000
M204 S5000
G1 X134.655 Y134.782 F18000
M204 S1000
G1 F1800
G1 X137.605 Y131.832 E.40359
G1 X139.197 Y130.799 E.18359
G1 X140.823 Y130.499 E.15995
G1 X159.177 Y130.499 E1.77556
G1 X161.033 Y130.894 E.18357
G1 X162.395 Y131.832 E.15998
G1 X168.168 Y137.605 E.78981
G1 X169.201 Y139.197 E.18359
G1 X169.501 Y140.823 E.15995
G1 X169.501 Y159.177 E1.77556
G1 X169.106 Y161.033 E.18357
G1 X168.168 Y162.395 E.15998
G1 X162.395 Y168.168 E.78981
G1 X160.803 Y169.201 E.18359
G1 X159.177 Y169.501 E.15995
G1 X140.823 Y169.501 E1.77556
G1 X138.967 Y169.106 E.18357
G1 X137.605 Y168.168 E.15998
G1 X131.832 Y162.395 E.78981
G1 X130.799 Y160.803 E.18359
G1 X130.499 Y159.177 E.15995
G1 X130.499 Y140.823 E1.77556
G1 X130.894 Y138.967 E.18357
G1 X131.832 Y137.605 E.15998
G1 X134.591 Y134.846 E.37746
M204 S4000
M204 S5000
G1 X135.139 Y135.394 F18000
M204 S1000
G1 F1800
G1 X138.153 Y132.38 E.41235
G1 X139.621 Y131.471 E.16703
G1 X140.823 Y131.274 E.11783
G1 X159.177 Y131.274 E1.77556
G1 X160.858 Y131.669 E.16705
G1 X161.847 Y132.38 E.11783
G1 X167.62 Y138.153 E.78981
G1 X168.529 Y139.621 E.16703
G1 X168.726 Y140.823 E.11783
G1 X168.726 Y159.177 E1.77556
G1 X168.331 Y160.858 E.16705
G1 X167.62 Y161.847 E.11783
G1 X161.847 Y167.62 E.78981
G1 X160.379 Y168.529 E.16703
G1 X159.177 Y168.726 E.11783
G1 X140.823 Y168.726 E1.77556
G1 X139.142 Y168.331 E.16705
G1 X138.153 Y167.62 E.11783
G1 X132.38 Y161.847 E.78981
G1 X131.471 Y160.379 E.16703
G1 X131.274 Y159.177 E.11783
G1 X131.274 Y140.823 E1.77556
G1 X131.669 Y139.142 E.16705
G1 X132.38 Y138.153 E.11783
G1 X135.076 Y135.458 E.36877
M204 S4000
G1 E-.75 F3000
M204 S5000
G1 X136.346 Y141.36 F18000
G1 E.75 F1800
M204 S1000
;TYPE:Perimeter
;WIDTH:0.839999
G1 X141.36 Y136.346 E.68597
G1 X158.64 Y136.346 E1.67166
G1 X163.654 Y141.36 E.68597
G1 X163.654 Y158.64 E1.67166
G1 X158.64 Y163.654 E.68597
G1 X141.36 Y163.654 E1.67166
G1 X136.346 Y158.64 E.68597
G1 X136.346 Y141.45 E1.66295
M204 S4000
M204 S5000
G1 X135.57 Y141.038 F18000
M204 S1000
;TYPE:External perimeter
G1 F1800
G1 X141.038 Y135.57 E.74808
G1 X158.962 Y135.57 E1.73396
G1 X164.43 Y141.038 E.74808
G1 X164.43 Y158.962 E1.73396
G1 X158.962 Y164.43 E.74808
G1 X141.038 Y164.43 E1.73396
G1 X135.57 Y158.962 E.74808
G1 X135.57 Y141.128 E1.72525
M204 S4000
G1 X136.168 Y140.993 F18000
G1 E-.75 F3000
M204 S5000
G1 X144.286 Y143.058 F18000
G1 E.75 F1800
M204 S1000
;TYPE:Perimeter
G1 X144.872 Y142.617 E.07095
G1 X145.772 Y142.061 E.10234
G1 X146.321 Y141.793 E.0591
G1 X147.058 Y141.5 E.07672
G1 X147.947 Y141.243 E.08952
G1 X148.864 Y141.078 E.09013
G1 X149.793 Y141.008 E.09013
G1 X150.725 Y141.035 E.0902
G1 X151.648 Y141.158 E.09008
G1 X152.554 Y141.376 E.09015
G1 X153.133 Y141.569 E.05904
G1 X153.864 Y141.878 E.07677
G1 X154.678 Y142.318 E.08951
G1 X155.219 Y142.685 E.06324
G1 X156.159 Y143.446 E.117
G1 X156.804 Y144.118 E.09011
G1 X157.376 Y144.853 E.0901
G1 X157.869 Y145.644 E.09017
G1 X158.146 Y146.186 E.05888
G1 X158.451 Y146.922 E.07707
G1 X158.722 Y147.805 E.08935
G1 X158.902 Y148.719 E.09012
G1 X158.987 Y149.647 E.09015
G1 X158.991 Y150.255 E.05882
G1 X158.919 Y151.161 E.08792
G1 X158.751 Y152.078 E.09019
G1 X158.489 Y152.972 E.09012
G1 X158.136 Y153.834 E.09011
G1 X157.696 Y154.655 E.09011
G1 X157.309 Y155.228 E.06689
G1 X156.573 Y156.139 E.1133
G1 X155.903 Y156.786 E.0901
G1 X155.169 Y157.36 E.09014
G1 X154.38 Y157.856 E.09016
G1 X153.645 Y158.222 E.07943
G1 X153.091 Y158.447 E.05785
G1 X152.221 Y158.716 E.08809
G1 X151.307 Y158.899 E.09017
G1 X150.38 Y158.986 E.09007
G1 X149.448 Y158.977 E.09017
G1 X148.522 Y158.872 E.09015
G1 X147.613 Y158.672 E.09004
G1 X146.831 Y158.417 E.07957
G1 X146.28 Y158.19 E.05765
G1 X145.471 Y157.771 E.08814
G1 X144.723 Y157.282 E.08645
G1 X143.968 Y156.672 E.0939
G1 X143.311 Y156.012 E.09009
G1 X142.724 Y155.288 E.09017
G1 X142.216 Y154.507 E.09013
G1 X141.792 Y153.678 E.09008
G1 X141.456 Y152.809 E.09013
G1 X141.211 Y151.91 E.09014
G1 X141.06 Y150.99 E.09019
G1 X141.009 Y150.169 E.07958
G1 X141.021 Y149.474 E.06724
G1 X141.105 Y148.667 E.07849
G1 X141.291 Y147.754 E.09014
G1 X141.57 Y146.865 E.09014
G1 X141.939 Y146.01 E.09009
G1 X142.395 Y145.197 E.09018
G1 X142.933 Y144.436 E.09016
G1 X143.546 Y143.735 E.09009
G1 X144.216 Y143.114 E.08837
M204 S4000
M204 S5000
G1 X146.167 Y142.729 F18000
M204 S1000
;TYPE:External perimeter
G1 F1800
G1 X146.657 Y142.492 E.05266
G1 X147.341 Y142.222 E.07114
G1 X148.158 Y141.99 E.08216
G1 X148.997 Y141.842 E.08242
G1 X149.846 Y141.782 E.08234
G1 X150.697 Y141.81 E.08237
G1 X151.541 Y141.926 E.08242
G1 X152.367 Y142.129 E.08228
G1 X152.882 Y142.303 E.05259
G1 X153.56 Y142.591 E.07126
G1 X154.305 Y142.998 E.08212
G1 X154.777 Y143.323 E.05544
G1 X155.654 Y144.034 E.10922
G1 X156.241 Y144.651 E.08239
G1 X156.76 Y145.325 E.08229
G1 X157.208 Y146.049 E.08236
G1 X157.453 Y146.534 E.05257
G1 X157.733 Y147.216 E.07132
G1 X157.979 Y148.028 E.08208
G1 X158.14 Y148.864 E.08236
G1 X158.214 Y149.712 E.08235
G1 X158.215 Y150.255 E.05253
G1 X158.146 Y151.096 E.08163
G1 X157.989 Y151.933 E.08238
G1 X157.746 Y152.749 E.08237
G1 X157.42 Y153.535 E.08232
G1 X157.014 Y154.284 E.08242
G1 X156.67 Y154.788 E.05903
G1 X155.983 Y155.636 E.10558
G1 X155.368 Y156.225 E.08238
G1 X154.695 Y156.746 E.08233
G1 X153.972 Y157.196 E.08238
G1 X153.304 Y157.526 E.07208
G1 X152.803 Y157.727 E.05222
G1 X151.996 Y157.973 E.08162
G1 X151.16 Y158.137 E.08242
G1 X150.312 Y158.214 E.08237
G1 X149.461 Y158.202 E.08233
G1 X148.615 Y158.102 E.08241
G1 X147.785 Y157.915 E.08231
G1 X147.077 Y157.681 E.07214
G1 X146.579 Y157.474 E.05217
G1 X145.831 Y157.084 E.08161
G1 X145.152 Y156.636 E.0787
G1 X144.462 Y156.074 E.08609
G1 X143.863 Y155.468 E.08243
G1 X143.331 Y154.804 E.08231
G1 X142.869 Y154.089 E.08235
G1 X142.485 Y153.329 E.08237
G1 X142.181 Y152.534 E.08234
G1 X141.961 Y151.711 E.08241
G1 X141.827 Y150.87 E.08238
G1 X141.783 Y150.126 E.0721
G1 X141.793 Y149.554 E.05534
G1 X141.876 Y148.747 E.07848
G1 X142.05 Y147.914 E.08232
G1 X142.308 Y147.102 E.08242
G1 X142.649 Y146.322 E.08235
G1 X143.069 Y145.581 E.0824
G1 X143.563 Y144.888 E.08233
G1 X144.127 Y144.25 E.08238
G1 X144.753 Y143.673 E.08236
G1 X145.334 Y143.24 E.0701
G1 X146.09 Y142.776 E.08581
M204 S4000
G1 X146.182 Y142.185 F18000
G1 E-.75 F3000
M204 S5000
G1 X158.033 Y136.617 F18000
G1 E.75 F1800
M204 S1000
;TYPE:Solid infill
;WIDTH:0.840982
G1 X163.034 Y141.617 E.68499
G1 X163.034 Y142.716 E.10645
G1 X157.284 Y136.966 E.78766
G1 X156.186 Y136.966 E.10635
G1 X163.034 Y143.814 E.93806
G1 X163.034 Y144.912 E.10635
G1 X155.088 Y136.966 E1.08847
G1 X153.989 Y136.966 E.10645
G1 X163.034 Y146.011 E1.23902
G1 X163.034 Y147.109 E.10635
G1 X152.891 Y136.966 E1.38942
G1 X151.793 Y136.966 E.10635
G1 X163.034 Y148.207 E1.53983
G1 X163.034 Y149.305 E.10635
G1 X150.695 Y136.966 E1.69024
G1 X149.596 Y136.966 E.10645
G1 X153.817 Y141.187 E.57821
G1 X154.257 Y141.379 E.0465
G1 X155.126 Y141.866 E.09649
G1 X155.939 Y142.439 E.09634
G1 X156.659 Y143.063 E.09229
G1 X157.262 Y143.699 E.08489
G1 X157.89 Y144.504 E.09889
G1 X158.402 Y145.327 E.09388
G1 X158.754 Y146.024 E.07563
G1 X158.82 Y146.19 E.0173
G1 X163.034 Y150.404 E.57725
G1 X163.034 Y151.502 E.10635
G1 X159.365 Y147.833 E.50259
G1 X159.536 Y148.776 E.09283
G1 X159.564 Y149.13 E.0344
G1 X163.034 Y152.6 E.47533
G1 X163.034 Y153.699 E.10645
G1 X159.607 Y150.272 E.46944
G1 X159.525 Y151.288 E.09873
G1 X163.034 Y154.797 E.48068
G1 X163.034 Y155.895 E.10635
G1 X159.35 Y152.211 E.50465
G1 X159.319 Y152.363 E.01503
G1 X159.103 Y153.062 E.07087
G1 X163.034 Y156.993 E.53848
G1 X163.034 Y158.092 E.10645
G1 X158.795 Y153.853 E.58067
G1 X158.633 Y154.231 E.03983
G1 X158.434 Y154.59 E.03976
G1 X162.631 Y158.787 E.57492
G1 X162.081 Y159.336 E.07527
G1 X158.025 Y155.279 E.55567
G1 X157.572 Y155.924 E.07635
G1 X161.532 Y159.885 E.54252
G1 X160.983 Y160.434 E.0752
G1 X157.063 Y156.514 E.53698
G1 X156.953 Y156.642 E.01635
G1 X156.509 Y157.058 E.05893
M73 P1 R53
G1 X160.434 Y160.983 E.53766
G1 X159.885 Y161.532 E.0752
G1 X155.918 Y157.566 E.54335
G1 X155.508 Y157.882 E.05014
G1 X155.279 Y158.025 E.02615
G1 X159.336 Y162.081 E.55567
G1 X158.787 Y162.631 E.07527
G1 X154.596 Y158.44 E.5741
G1 X153.861 Y158.803 E.0794
G1 X158.092 Y163.034 E.57958
G1 X156.993 Y163.034 E.10645
G1 X153.066 Y159.107 E.53793
G1 X152.216 Y159.355 E.08577
G1 X155.895 Y163.034 E.50396
G1 X154.797 Y163.034 E.10635
G1 X151.287 Y159.524 E.48081
G1 X150.276 Y159.611 E.09829
G1 X153.698 Y163.034 E.46883
G1 X152.6 Y163.034 E.10635
G1 X149.131 Y159.564 E.47526
G1 X148.438 Y159.487 E.06754
G1 X147.82 Y159.352 E.06127
G1 X151.851 Y163.383 E.55218
M204 S4000
G1 E-.75 F3000
M204 S5000
G1 X152.658 Y141.126 F18000
G1 E.75 F1800
M204 S1000
G1 X148.498 Y136.966 E.56985
G1 X147.4 Y136.966 E.10635
G1 X150.863 Y140.429 E.47437
G1 X149.726 Y140.391 E.11019
G1 X146.301 Y136.966 E.46917
G1 X145.203 Y136.966 E.10635
G1 X148.712 Y140.475 E.48068
G1 X147.945 Y140.607 E.07539
G1 X147.789 Y140.65 E.01567
G1 X144.105 Y136.966 E.50465
G1 X143.007 Y136.966 E.10635
G1 X146.931 Y140.891 E.53759
G1 X146.139 Y141.197 E.08224
G1 X141.908 Y136.966 E.57958
G1 X141.617 Y136.966 E.02819
G1 X141.213 Y137.369 E.05527
G1 X145.403 Y141.559 E.57396
G1 X144.718 Y141.973 E.07753
G1 X140.664 Y137.919 E.55533
G1 X140.115 Y138.468 E.0752
G1 X144.083 Y142.436 E.54355
G1 X143.818 Y142.636 E.03216
G1 X143.488 Y142.939 E.04339
G1 X139.566 Y139.017 E.53725
G1 X139.017 Y139.566 E.0752
G1 X142.939 Y143.488 E.53725
G1 X142.537 Y143.938 E.05845
G1 X142.433 Y144.081 E.01713
G1 X138.468 Y140.115 E.54321
G1 X137.919 Y140.664 E.0752
G1 X141.97 Y144.715 E.55492
G1 X141.563 Y145.407 E.07776
G1 X137.369 Y141.213 E.57451
G1 X136.966 Y141.617 E.05527
G1 X136.966 Y141.908 E.02819
G1 X141.205 Y146.147 E.58067
G1 X141.04 Y146.512 E.0388
G1 X140.899 Y146.939 E.04356
G1 X136.966 Y143.007 E.53869
G1 X136.966 Y144.105 E.10635
G1 X140.654 Y147.793 E.5052
G1 X140.514 Y148.43 E.06317
G1 X140.482 Y148.719 E.02816
G1 X136.966 Y145.203 E.48163
G1 X136.966 Y146.302 E.10645
G1 X140.395 Y149.731 E.46972
G1 X140.386 Y150.109 E.03662
G1 X140.433 Y150.867 E.07356
G1 X136.966 Y147.4 E.47492
G1 X136.966 Y148.498 E.10635
G1 X141.138 Y152.67 E.5715
M204 S4000
G1 E-.75 F3000
M204 S5000
G1 X136.617 Y149.247 F18000
G1 E.75 F1800
M204 S1000
G1 X141.179 Y153.81 E.62499
G1 X141.233 Y153.948 E.01435
G1 X141.688 Y154.833 E.09639
G1 X142.169 Y155.58 E.08606
G1 X142.752 Y156.318 E.0911
G1 X143.454 Y157.043 E.09775
G1 X144.305 Y157.748 E.10704
G1 X145.033 Y158.232 E.08468
G1 X145.908 Y158.7 E.09612
G1 X146.192 Y158.822 E.02994
G1 X150.404 Y163.034 E.57697
G1 X149.305 Y163.034 E.10645
G1 X136.966 Y150.695 E1.69024
G1 X136.966 Y151.793 E.10635
G1 X148.207 Y163.034 E1.53983
G1 X147.109 Y163.034 E.10635
G1 X136.966 Y152.891 E1.38942
G1 X136.966 Y153.989 E.10635
G1 X146.011 Y163.034 E1.23902
G1 X144.912 Y163.034 E.10645
G1 X136.966 Y155.088 E1.08847
G1 X136.966 Y156.186 E.10635
G1 X143.814 Y163.034 E.93806
G1 X142.716 Y163.034 E.10635
G1 X136.966 Y157.284 E.78766
G1 X136.966 Y158.383 E.10645
G1 X141.966 Y163.383 E.68492
M204 S4000
M106 S255
;LAYER_CHANGE
;Z:0.5
;HEIGHT:0.2
;BEFORE_LAYER_CHANGE
;0.5
G92 E0

G1 Z.5 F18000
;AFTER_LAYER_CHANGE
;0.5
M104 S205 ; set temperature
M140 S55 ; set bed temperature
G1 E-.75 F3000
G1 Z.9 F18000
M204 S5000
G1 X164.083 Y142.622
G1 Z.5
G1 E.75 F1800
M204 S3000
;TYPE:Perimeter
;WIDTH:0.659999
G1 F3394
G1 X164.083 Y159.02 E.84139
G1 X159.02 Y164.083 E.36739
G1 X140.98 Y164.083 E.92564
G1 X135.917 Y159.02 E.36739
G1 X135.917 Y140.98 E.92564
G1 X140.98 Y135.917 E.36739
G1 X159.02 Y135.917 E.92564
G1 X164.083 Y140.98 E.36739
G1 X164.083 Y142.532 E.07963
M204 S4000
M204 S5000
G1 X164.685 Y142.622 F18000
M204 S3000
;TYPE:External perimeter
;WIDTH:0.629999
G1 F3394
G1 X164.685 Y159.27 E.81269
G1 X159.27 Y164.685 E.37383
G1 X140.73 Y164.685 E.90505
G1 X135.315 Y159.27 E.37383
G1 X135.315 Y140.73 E.90505
G1 X140.73 Y135.315 E.37383
G1 X159.27 Y135.315 E.90505
G1 X164.685 Y140.73 E.37383
G1 X164.685 Y142.532 E.08797
M204 S4000
G1 X164.24 Y143.025 F18000
M204 S5000
G1 X158.489 Y148.892
M204 S3000
;TYPE:Perimeter
;WIDTH:0.659999
G1 F3394
G1 X158.562 Y149.731 E.04321
G1 X158.544 Y150.62 E.04562
G1 X158.433 Y151.503 E.04566
G1 X158.232 Y152.369 E.04562
G1 X157.942 Y153.209 E.0456
G1 X157.567 Y154.015 E.04561
G1 X157.022 Y154.899 E.05329
G1 X156.297 Y155.806 E.05958
G1 X155.645 Y156.443 E.04677
G1 X154.946 Y156.994 E.04567
G1 X154.195 Y157.469 E.04559
G1 X153.29 Y157.907 E.05159
G1 X152.158 Y158.288 E.06128
G1 X151.265 Y158.472 E.04678
G1 X150.38 Y158.558 E.04562
G1 X149.491 Y158.551 E.04562
G1 X148.607 Y158.452 E.04564
G1 X147.738 Y158.262 E.04564
G1 X146.894 Y157.983 E.04561
G1 X146.083 Y157.618 E.04563
G1 X145.315 Y157.171 E.0456
G1 X144.277 Y156.372 E.06721
G1 X143.631 Y155.728 E.0468
G1 X143.071 Y155.037 E.04564
G1 X142.586 Y154.291 E.04566
G1 X142.181 Y153.5 E.0456
G1 X141.861 Y152.67 E.04564
G1 X141.605 Y151.698 E.05157
G1 X141.451 Y150.514 E.06126
G1 X141.443 Y149.602 E.0468
G1 X141.605 Y148.302 E.06722
G1 X141.832 Y147.418 E.04683
G1 X142.144 Y146.586 E.04559
G1 X142.54 Y145.79 E.04562
G1 X143.017 Y145.039 E.04565
G1 X143.569 Y144.342 E.04562
G1 X144.19 Y143.705 E.04565
G1 X144.874 Y143.137 E.04562
G1 X145.613 Y142.643 E.04561
G1 X146.399 Y142.227 E.04563
G1 X147.224 Y141.896 E.04561
G1 X148.08 Y141.652 E.04567
G1 X148.955 Y141.498 E.04559
G1 X150.264 Y141.439 E.06723
G1 X151.173 Y141.515 E.0468
G1 X152.046 Y141.682 E.04561
G1 X152.898 Y141.939 E.04566
G1 X153.718 Y142.283 E.04563
G1 X154.498 Y142.71 E.04563
G1 X155.107 Y143.13 E.03796
G1 X155.904 Y143.794 E.05323
G1 X156.516 Y144.44 E.04566
G1 X156.961 Y145.018 E.03743
G1 X157.523 Y145.903 E.05379
G1 X157.907 Y146.705 E.04562
G1 X158.206 Y147.542 E.0456
G1 X158.479 Y148.803 E.0662
M204 S4000
M204 S5000
G1 X157.894 Y148.947 F18000
M204 S3000
;TYPE:External perimeter
;WIDTH:0.629999
G1 F3394
G1 X157.962 Y149.778 E.0407
G1 X157.942 Y150.605 E.04038
G1 X157.836 Y151.425 E.04036
G1 X157.646 Y152.229 E.04033
G1 X157.374 Y153.01 E.04037
G1 X157.022 Y153.758 E.04036
G1 X156.552 Y154.523 E.04383
G1 X155.827 Y155.429 E.05664
G1 X155.227 Y156.009 E.04074
G1 X154.576 Y156.519 E.04037
G1 X153.876 Y156.958 E.04034
G1 X153.098 Y157.337 E.04225
G1 X151.966 Y157.718 E.05831
G1 X151.149 Y157.881 E.04067
G1 X150.325 Y157.958 E.0404
G1 X149.499 Y157.949 E.04032
G1 X148.677 Y157.854 E.04039
G1 X147.87 Y157.675 E.04035
G1 X147.086 Y157.412 E.04037
G1 X146.333 Y157.07 E.04037
