; HEADER_BLOCK_START
; generated by OrcaSlicer 1.6.3 on 2023-07-10 at 20:11:49
; total layer number: 150
; HEADER_BLOCK_END

; THUMBNAIL_BLOCK_START
; THUMBNAIL_BLOCK_END

; external perimeters extrusion width = 0.40mm
; perimeters extrusion width = 0.45mm
; infill extrusion width = 0.45mm
; solid infill extrusion width = 0.40mm
; top infill extrusion width = 0.40mm
; first layer extrusion width = 0.50mm

; EXECUTABLE_BLOCK_START
EXCLUDE_OBJECT_DEFINE NAME=Voron_Design_Cube_v7.stl_id_0_copy_0 CENTER=150,150 POLYGON=[[135,135],[165,135],[165,165],[135,165],[135,135]]
M73 P0 R35
;TYPE:Custom
M104 S0 ; Stops OrcaSlicer from sending temp waits separately
M140 S0
print_start EXTRUDER=260 BED=105 


;CHAMBER=0
G90
G21
M82 ; use absolute distances for extrusion
G92 E0
; Filament gcode
M106 S0
;LAYER_CHANGE
;Z:0.2
;HEIGHT:0.2
;BEFORE_LAYER_CHANGE
;0.2
G92 E0

G1 E-.8 F1800
G92 E0
G1 Z.4 F21000
;AFTER_LAYER_CHANGE
;0.2
M204 S500
; printing object Voron_Design_Cube_v7.stl id:0 copy 0
EXCLUDE_OBJECT_START NAME=Voron_Design_Cube_v7.stl_id_0_copy_0
G92 E0
G1 X158.608 Y136.264
G1 Z.2
G1 E.8 F1800
;TYPE:Inner wall
;WIDTH:0.499999
G1 F3000
G1 X163.736 Y141.392 E1.05521
G1 X163.736 Y158.608 E1.66112
G1 X158.608 Y163.736 E1.91633
G1 X141.392 Y163.736 E2.52224
G1 X136.264 Y158.608 E2.77745
G1 X136.264 Y141.392 E3.38336
G1 X141.392 Y136.264 E3.63857
G1 X147.026 Y136.264 E3.83685
G1 X158.518 Y136.264 E4.24131
G1 X158.797 Y135.807 F21000
G1 F3000
G1 X164.193 Y141.203 E4.50985
G1 X164.193 Y158.797 E5.12909
G1 X158.797 Y164.193 E5.39763
G1 X141.203 Y164.193 E6.01686
G1 X135.807 Y158.797 E6.2854
G1 X135.807 Y141.203 E6.90463
G1 X141.203 Y135.807 E7.17317
G1 X147.026 Y135.807 E7.37812
G1 X158.707 Y135.807 E7.78924
G1 X158.967 Y135.35 F21000
;TYPE:Outer wall
G1 F3000
G1 X158.987 Y135.35 E7.78993
G1 X164.65 Y141.013 E8.0718
G1 X164.65 Y158.987 E8.70436
G1 X158.987 Y164.65 E8.98622
G1 X141.013 Y164.65 E9.61878
G1 X135.35 Y158.987 E9.90065
G1 X135.35 Y141.013 E10.53321
G1 X141.013 Y135.35 E10.81508
G1 X147.026 Y135.35 E11.02668
G1 X158.877 Y135.35 E11.44378
G1 X158.969 Y135.353
G1 E10.88378 F1800
;WIPE_START
G1 F3000
G1 X158.987 Y135.35 E10.87127
G1 X160.323 Y136.687 E10.65578
;WIPE_END
G1 E10.64378 F1800
G92 E0
G1 Z.6 F21000
G1 X143.955 Y156.544 Z.2
G1 E.8 F1800
;TYPE:Inner wall
G1 F3000
G1 X143.362 Y155.948 E.82959
G1 X142.783 Y155.231 E.86202
G1 X142.282 Y154.458 E.89444
G1 X141.698 Y153.238 E.94203
G1 X141.399 Y152.336 E.97548
G1 X141.204 Y151.435 E1.0079
G1 X141.102 Y150.52 E1.04033
G1 X141.096 Y149.598 E1.07276
G1 X141.185 Y148.681 E1.10519
G1 X141.369 Y147.778 E1.13761
G1 X141.644 Y146.899 E1.17004
G1 X142.077 Y145.922 E1.20765
G1 X142.699 Y144.89 E1.25005
G1 X143.284 Y144.141 E1.2835
G1 X143.924 Y143.479 E1.31593
G1 X144.63 Y142.886 E1.34835
G1 X145.521 Y142.296 E1.38597
G1 X146.601 Y141.763 E1.42836
G1 X147.497 Y141.446 E1.46181
G1 X148.394 Y141.233 E1.49424
G1 X149.307 Y141.114 E1.52667
G1 X150.228 Y141.09 E1.55909
G1 X151.147 Y141.161 E1.59152
G1 X152.053 Y141.327 E1.62395
G1 X152.938 Y141.586 E1.65637
G1 X153.791 Y141.934 E1.6888
G1 X154.603 Y142.368 E1.72122
G1 X155.704 Y143.154 E1.76881
G1 X156.402 Y143.799 E1.80226
G1 X157.265 Y144.84 E1.84984
G1 X157.774 Y145.642 E1.88329
G1 X158.183 Y146.468 E1.91571
G1 X158.503 Y147.332 E1.94814
G1 X158.733 Y148.224 E1.98056
G1 X158.87 Y149.135 E2.01299
G1 X158.912 Y150.055 E2.04541
G1 X158.88 Y150.762 E2.07032
G1 X158.756 Y151.66 E2.10223
G1 X158.538 Y152.555 E2.13465
G1 X158.229 Y153.423 E2.16708
G1 X157.831 Y154.255 E2.19951
G1 X157.35 Y155.04 E2.23193
G1 X156.791 Y155.772 E2.26436
G1 X156.158 Y156.443 E2.29678
G1 X155.46 Y157.044 E2.32921
G1 X154.704 Y157.57 E2.36163
G1 X153.897 Y158.015 E2.39406
G1 X153.049 Y158.375 E2.42649
G1 X151.747 Y158.738 E2.47407
G1 X150.806 Y158.876 E2.50752
G1 X149.886 Y158.912 E2.53995
G1 X148.966 Y158.853 E2.57237
G1 X148.058 Y158.699 E2.6048
G1 X147.17 Y158.452 E2.63723
G1 X146.313 Y158.114 E2.66965
G1 X145.495 Y157.69 E2.70208
G1 X144.823 Y157.25 E2.73035
G1 X144.019 Y156.607 E2.76659
G1 X144.275 Y156.221 F21000
G1 F3000
G1 X143.688 Y155.628 E2.79597
G1 X143.141 Y154.946 E2.82674
G1 X142.667 Y154.211 E2.8575
G1 X142.112 Y153.044 E2.90301
G1 X141.834 Y152.196 E2.93439
G1 X141.651 Y151.342 E2.96515
G1 X141.557 Y150.472 E2.99592
G1 X141.553 Y149.598 E3.02668
G1 X141.64 Y148.728 E3.05745
G1 X141.816 Y147.872 E3.08822
G1 X142.079 Y147.039 E3.11898
G1 X142.468 Y146.158 E3.15286
G1 X143.091 Y145.127 E3.19526
G1 X143.641 Y144.426 E3.22663
G1 X144.251 Y143.799 E3.2574
G1 X144.922 Y143.238 E3.28816
G1 X145.724 Y142.706 E3.32204
G1 X146.804 Y142.172 E3.36444
G1 X147.645 Y141.878 E3.39581
G1 X148.496 Y141.679 E3.42658
G1 X149.363 Y141.568 E3.45734
G1 X150.237 Y141.547 E3.48811
G1 X151.109 Y141.617 E3.51888
G1 X151.968 Y141.776 E3.54964
G1 X152.807 Y142.023 E3.58041
G1 X153.615 Y142.356 E3.61117
G1 X154.385 Y142.77 E3.64194
G1 X155.436 Y143.524 E3.68744
G1 X156.088 Y144.132 E3.71882
G1 X156.911 Y145.129 E3.76433
G1 X157.386 Y145.883 E3.7957
G1 X157.772 Y146.668 E3.82646
G1 X158.074 Y147.488 E3.85723
G1 X158.29 Y148.335 E3.88799
G1 X158.418 Y149.2 E3.91875
G1 X158.455 Y150.073 E3.94951
G1 X158.424 Y150.739 E3.97297
G1 X158.304 Y151.596 E4.00343
G1 X158.095 Y152.444 E4.03419
G1 X157.799 Y153.267 E4.06495
G1 X157.42 Y154.055 E4.09572
G1 X156.962 Y154.799 E4.12648
G1 X156.429 Y155.492 E4.15725
G1 X155.828 Y156.127 E4.18801
G1 X155.164 Y156.696 E4.21878
G1 X154.446 Y157.193 E4.24954
G1 X153.679 Y157.614 E4.28031
G1 X152.874 Y157.953 E4.31107
G1 X151.627 Y158.297 E4.35658
G1 X150.745 Y158.423 E4.38795
G1 X149.871 Y158.455 E4.41872
G1 X148.999 Y158.397 E4.44948
G1 X148.137 Y158.248 E4.48025
G1 X147.296 Y158.012 E4.51102
G1 X146.483 Y157.69 E4.54178
G1 X145.708 Y157.286 E4.57255
G1 X145.077 Y156.869 E4.59915
G1 X144.343 Y156.281 E4.63228
G1 X145.156 Y156.349 F21000
;TYPE:Outer wall
G1 F3000
G1 X144.594 Y155.897 E4.65765
G1 X144.015 Y155.308 E4.68676
G1 X143.499 Y154.661 E4.71586
G1 X143.052 Y153.965 E4.74497
G1 X142.525 Y152.849 E4.7884
G1 X142.269 Y152.057 E4.8177
G1 X142.098 Y151.248 E4.84681
G1 X142.012 Y150.425 E4.87591
G1 X142.01 Y149.598 E4.90502
G1 X142.095 Y148.776 E4.93412
G1 X142.263 Y147.966 E4.96323
G1 X142.515 Y147.178 E4.99233
G1 X142.859 Y146.394 E5.02248
G1 X143.482 Y145.363 E5.06487
G1 X143.999 Y144.71 E5.09417
G1 X144.577 Y144.119 E5.12328
G1 X145.213 Y143.59 E5.15238
G1 X145.926 Y143.116 E5.18253
G1 X147.006 Y142.582 E5.22492
G1 X147.793 Y142.311 E5.25422
G1 X148.599 Y142.124 E5.28333
G1 X149.419 Y142.022 E5.31243
G1 X150.246 Y142.004 E5.34154
G1 X151.07 Y142.072 E5.37064
G1 X151.883 Y142.225 E5.39975
G1 X152.676 Y142.461 E5.42885
G1 X153.44 Y142.778 E5.45795
G1 X154.167 Y143.172 E5.48706
G1 X155.167 Y143.894 E5.53049
G1 X155.774 Y144.464 E5.55979
G1 X156.557 Y145.418 E5.60322
G1 X156.998 Y146.124 E5.63252
G1 X157.36 Y146.868 E5.66163
G1 X157.644 Y147.644 E5.69073
G1 X157.847 Y148.446 E5.71983
G1 X157.965 Y149.264 E5.74894
G1 X157.999 Y150.091 E5.77803
G1 X157.967 Y150.715 E5.80004
G1 X157.851 Y151.531 E5.82904
G1 X157.651 Y152.333 E5.85814
G1 X157.37 Y153.111 E5.88724
G1 X157.009 Y153.855 E5.91634
G1 X156.574 Y154.558 E5.94545
G1 X156.068 Y155.212 E5.97455
G1 X155.498 Y155.811 E6.00365
G1 X154.868 Y156.347 E6.03276
G1 X154.187 Y156.816 E6.06186
G1 X153.461 Y157.212 E6.09097
G1 X152.698 Y157.531 E6.12007
G1 X151.507 Y157.856 E6.1635
G1 X150.683 Y157.97 E6.1928
G1 X149.856 Y157.998 E6.22191
G1 X149.031 Y157.941 E6.25101
G1 X148.217 Y157.798 E6.28012
G1 X147.421 Y157.573 E6.30922
G1 X146.653 Y157.266 E6.33833
G1 X145.921 Y156.882 E6.36743
G1 X145.33 Y156.489 E6.39238
G1 X145.226 Y156.405 E6.39708
G1 X145.045 Y156.395
G1 E5.83708 F1800
;WIPE_START
G1 F3000
G1 X144.594 Y155.897 E5.74462
G1 X144.015 Y155.308 E5.65034
G1 X143.789 Y155.025 E5.60908
;WIPE_END
G1 E5.59708 F1800
G92 E0
G1 Z.6 F21000
G1 X158.257 Y136.401 Z.2
G1 E.8 F1800
;TYPE:Bottom surface
;WIDTH:0.504253
G1 F6300
G1 X163.393 Y141.537 E1.05799
G1 X163.393 Y142.189 E1.08116
G1 X157.811 Y136.607 E1.36159
G1 X157.158 Y136.607 E1.38477
G1 X163.393 Y142.842 E1.69797
G1 X163.393 Y143.494 E1.72115
G1 X156.506 Y136.607 E2.06713
G1 X155.853 Y136.607 E2.0903
G1 X163.393 Y144.147 E2.46905
G1 X163.393 Y144.799 E2.49223
G1 X155.201 Y136.607 E2.90376
G1 X154.549 Y136.607 E2.92693
G1 X163.393 Y145.451 E3.37123
G1 X163.393 Y146.104 E3.39441
G1 X153.896 Y136.607 E3.87148
G1 X153.244 Y136.607 E3.89466
G1 X163.393 Y146.756 E4.40451
G1 X163.393 Y147.409 E4.42768
G1 X152.591 Y136.607 E4.97031
G1 X151.939 Y136.607 E4.99348
G1 X163.393 Y148.061 E5.56888
G1 X163.393 Y148.714 E5.59206
G1 X151.286 Y136.607 E6.20023
G1 X150.634 Y136.607 E6.22341
G1 X163.393 Y149.366 E6.86435
G1 X163.393 Y150.018 E6.88753
G1 X149.982 Y136.607 E7.56125
G1 X149.329 Y136.607 E7.58443
G1 X154.844 Y142.121 E7.86144
G1 X155.91 Y142.88 E7.90794
G1 X156.671 Y143.582 E7.9447
G1 X157.638 Y144.773 E7.9992
G1 X157.862 Y145.14 E8.01445
G1 X163.393 Y150.671 E8.29232
G1 X163.393 Y151.323 E8.31549
G1 X158.563 Y146.493 E8.55814
G1 X158.9 Y147.483 E8.59529
G1 X163.393 Y151.976 E8.82099
G1 X163.393 Y152.628 E8.84417
G1 X159.102 Y148.337 E9.05974
G1 X159.204 Y149.091 E9.08678
G1 X163.393 Y153.281 E9.29722
G1 X163.393 Y153.933 E9.3204
G1 X159.244 Y149.784 E9.52883
G1 X159.256 Y150.1 E9.54009
G1 X159.237 Y150.43 E9.55179
G1 X163.393 Y154.585 E9.76056
G1 X163.393 Y155.238 E9.78374
G1 X159.191 Y151.036 E9.99482
G1 X159.105 Y151.603 E10.01518
G1 X163.393 Y155.89 E10.23057
G1 X163.393 Y156.543 E10.25375
G1 X158.993 Y152.142 E10.47479
G1 X158.859 Y152.661 E10.49381
G1 X163.393 Y157.195 E10.7216
G1 X163.393 Y157.848 E10.74477
M73 P1 R35
G1 X158.691 Y153.146 E10.98096
G1 X158.514 Y153.621 E10.99898
G1 X163.376 Y158.483 E11.24322
G1 X163.05 Y158.809 E11.25961
G1 X158.303 Y154.062 E11.49809
G1 X158.086 Y154.498 E11.51539
G1 X162.724 Y159.135 E11.74835
G1 X162.398 Y159.462 E11.76474
G1 X157.838 Y154.902 E11.99377
G1 X157.586 Y155.303 E12.01058
G1 X162.071 Y159.788 E12.23588
G1 X161.745 Y160.114 E12.25227
G1 X157.302 Y155.671 E12.47546
G1 X157.013 Y156.035 E12.49195
G1 X161.419 Y160.44 E12.71328
G1 X161.093 Y160.767 E12.72966
G1 X156.697 Y156.37 E12.9505
G1 X156.38 Y156.706 E12.9669
G1 X160.766 Y161.093 E13.18725
G1 X160.44 Y161.419 E13.20364
G1 X156.029 Y157.008 E13.42524
G1 X155.678 Y157.309 E13.44167
G1 X160.114 Y161.745 E13.66453
G1 X159.788 Y162.071 E13.68091
G1 X155.293 Y157.577 E13.90669
G1 X154.909 Y157.845 E13.92333
G1 X159.462 Y162.398 E14.15203
G1 X159.135 Y162.724 E14.16842
G1 X154.49 Y158.079 E14.40176
G1 X154.07 Y158.311 E14.41881
G1 X158.809 Y163.05 E14.65686
G1 X158.483 Y163.376 E14.67324
G1 X153.614 Y158.507 E14.91784
G1 X153.154 Y158.7 E14.93555
G1 X157.847 Y163.393 E15.17132
G1 X157.195 Y163.393 E15.1945
G1 X152.642 Y158.841 E15.42319
G1 X152.131 Y158.981 E15.44204
G1 X156.543 Y163.393 E15.66366
G1 X155.89 Y163.393 E15.68683
G1 X151.609 Y159.112 E15.90191
G1 X151.035 Y159.191 E15.92247
G1 X155.238 Y163.393 E16.13357
G1 X154.585 Y163.393 E16.15675
G1 X150.425 Y159.233 E16.36573
G1 X149.792 Y159.252 E16.38825
G1 X153.933 Y163.393 E16.59628
G1 X153.28 Y163.393 E16.61946
G1 X149.092 Y159.205 E16.82986
G1 X148.937 Y159.194 E16.83539
G1 X148.326 Y159.091 E16.85738
G1 X152.628 Y163.393 E17.07347
G1 X151.976 Y163.393 E17.09665
G1 X147.474 Y158.891 E17.32278
G1 X147.071 Y158.78 E17.33762
G1 X146.477 Y158.547 E17.3603
G1 X151.529 Y163.599 E17.61408
G1 E17.05408 F1800
;WIPE_START
G1 F6300
G1 X150.115 Y162.185 E16.82608
;WIPE_END
G1 E16.81408 F1800
G92 E0
G1 Z.6 F21000
G1 X148.471 Y136.401 Z.2
G1 E.8 F1800
G1 F6300
G1 X153.525 Y141.456 E1.05391
G1 X153.041 Y141.259 E1.07249
G1 X152.526 Y141.109 E1.09154
G1 X148.024 Y136.607 E1.31768
G1 X147.372 Y136.607 E1.34086
G1 X151.675 Y140.91 E1.55702
G1 X151.181 Y140.82 E1.57485
G1 X150.912 Y140.8 E1.58442
G1 X146.719 Y136.607 E1.79505
G1 X146.067 Y136.607 E1.81822
G1 X150.208 Y140.748 E2.02624
G1 X149.573 Y140.765 E2.04881
G1 X145.415 Y136.607 E2.2577
G1 X144.762 Y136.607 E2.28087
G1 X148.967 Y140.812 E2.49209
G1 X148.388 Y140.885 E2.51282
G1 X144.11 Y136.607 E2.72772
M73 P1 R34
G1 X143.457 Y136.607 E2.75089
G1 X147.856 Y141.006 E2.97187
G1 X147.529 Y141.081 E2.98381
G1 X147.341 Y141.143 E2.99083
G1 X142.805 Y136.607 E3.21871
G1 X142.152 Y136.607 E3.24188
G1 X146.852 Y141.306 E3.47795
G1 X146.62 Y141.384 E3.48664
G1 X146.39 Y141.497 E3.49574
G1 X141.517 Y136.624 E3.74055
G1 X141.191 Y136.95 E3.75694
G1 X145.954 Y141.713 E3.9962
G1 X145.517 Y141.929 E4.0135
G1 X140.865 Y137.276 E4.24721
G1 X140.538 Y137.602 E4.2636
G1 X145.094 Y142.159 E4.49247
G1 X144.706 Y142.422 E4.50916
G1 X140.212 Y137.929 E4.73489
G1 X139.886 Y138.255 E4.75128
G1 X144.326 Y142.695 E4.97431
G1 X143.971 Y142.992 E4.99076
G1 X139.56 Y138.581 E5.21235
G1 X139.233 Y138.907 E5.22873
G1 X143.623 Y143.297 E5.44926
G1 X143.303 Y143.629 E5.46565
G1 X138.907 Y139.234 E5.68646
G1 X138.581 Y139.56 E5.70285
G1 X142.986 Y143.965 E5.92413
G1 X142.698 Y144.329 E5.94063
G1 X138.255 Y139.886 E6.16382
G1 X137.929 Y140.212 E6.18021
G1 X142.417 Y144.701 E6.4057
G1 X142.174 Y145.11 E6.42261
G1 X137.602 Y140.538 E6.65225
G1 X137.276 Y140.865 E6.66864
G1 X141.93 Y145.519 E6.90243
G1 X141.689 Y145.93 E6.91936
G1 X136.95 Y141.191 E7.15741
G1 X136.624 Y141.517 E7.1738
G1 X141.493 Y146.386 E7.41838
G1 X141.301 Y146.847 E7.43611
G1 X136.607 Y142.153 E7.67193
G1 X136.607 Y142.805 E7.6951
G1 X141.146 Y147.344 E7.92312
G1 X141.004 Y147.854 E7.94193
G1 X136.607 Y143.457 E8.16279
G1 X136.607 Y144.11 E8.18596
G1 X140.894 Y148.397 E8.40132
G1 X140.845 Y148.641 E8.41016
G1 X140.813 Y148.969 E8.42186
G1 X136.607 Y144.762 E8.63316
G1 X136.607 Y145.415 E8.65634
G1 X140.756 Y149.564 E8.86477
G1 X140.758 Y150.218 E8.88802
G1 X136.607 Y146.067 E9.09656
G1 X136.607 Y146.72 E9.11973
G1 X140.8 Y150.912 E9.33036
G1 X140.858 Y151.456 E9.34976
G1 X140.903 Y151.668 E9.35745
G1 X136.607 Y147.372 E9.57324
G1 X136.607 Y148.024 E9.59642
G1 X141.104 Y152.522 E9.82233
G1 X141.32 Y153.212 E9.84802
G1 X141.477 Y153.547 E9.86117
G1 X136.607 Y148.677 E10.10581
G1 X136.607 Y149.329 E10.12899
G1 X142.123 Y154.846 E10.4061
G1 X142.449 Y155.354 E10.42756
G1 X143.113 Y156.184 E10.46531
G1 X143.789 Y156.862 E10.4993
G1 X144.504 Y157.448 E10.53215
G1 X145.151 Y157.873 E10.55966
G1 X150.671 Y163.393 E10.83694
G1 X150.018 Y163.393 E10.86011
G1 X136.607 Y149.982 E11.53383
G1 X136.607 Y150.634 E11.557
G1 X149.366 Y163.393 E12.19794
G1 X148.713 Y163.393 E12.22112
G1 X136.607 Y151.287 E12.82929
G1 X136.607 Y151.939 E12.85246
G1 X148.061 Y163.393 E13.42786
G1 X147.409 Y163.393 E13.45103
G1 X136.607 Y152.591 E13.99365
G1 X136.607 Y153.244 E14.01682
G1 X146.756 Y163.393 E14.52667
G1 X146.104 Y163.393 E14.54984
G1 X136.607 Y153.896 E15.02691
G1 X136.607 Y154.549 E15.05009
G1 X145.451 Y163.393 E15.49438
G1 X144.799 Y163.393 E15.51756
G1 X136.607 Y155.201 E15.92908
G1 X136.607 Y155.854 E15.95226
G1 X144.146 Y163.393 E16.331
G1 X143.494 Y163.393 E16.35418
G1 X136.607 Y156.506 E16.70015
G1 X136.607 Y157.158 E16.72333
G1 X142.842 Y163.393 E17.03652
M73 P2 R34
G1 X142.189 Y163.393 E17.0597
G1 X136.607 Y157.811 E17.34012
G1 X136.607 Y158.463 E17.3633
G1 X141.742 Y163.599 E17.62128
; stop printing object Voron_Design_Cube_v7.stl id:0 copy 0
EXCLUDE_OBJECT_END NAME=Voron_Design_Cube_v7.stl_id_0_copy_0
G92 E0
;LAYER_CHANGE
;Z:0.4
;HEIGHT:0.2
;BEFORE_LAYER_CHANGE
;0.4
G92 E0

G1 E-.56 F1800
;WIPE_START
G1 F6300
G1 X140.328 Y162.185 E-.788
;WIPE_END
G1 E-.8 F1800
G92 E0
G1 Z.6 F21000
;AFTER_LAYER_CHANGE
;0.4
M204 S5000
M140 S105 ; set bed temperature
; printing object Voron_Design_Cube_v7.stl id:0 copy 0
EXCLUDE_OBJECT_START NAME=Voron_Design_Cube_v7.stl_id_0_copy_0
G92 E0
M204 S7000
G1 X158.89 Y135.989
G1 Z.4
G1 E.8 F1800
M204 S5000
;TYPE:Inner wall
;WIDTH:0.449999
G1 F8843.492
G1 X164.011 Y141.11 E1.027
G1 X164.011 Y142.71 E1.07715
G1 X164.011 Y158.89 E1.58429
G1 X158.89 Y164.011 E1.81129
G1 X141.11 Y164.011 E2.36859
G1 X135.989 Y158.89 E2.59559
G1 X135.989 Y141.11 E3.15288
G1 X141.11 Y135.989 E3.37988
G1 X158.8 Y135.989 E3.93436
M204 S7000
G1 X159.059 Y135.582 F21000
M204 S5000
G1 F8843.492
G1 X164.418 Y140.941 E4.1719
