; generated by PrusaSlicer 2.6.0+win64 on 2023-07-18 at 08:56:24 UTC


;
;

;
;
; TODO: check the size of the extruder and the y-bar clearance. Optimize & test supports.

; external perimeters extrusion width = 0.40mm
; perimeters extrusion width = 0.46mm
; infill extrusion width = 0.64mm
; solid infill extrusion width = 0.56mm
; top infill extrusion width = 0.40mm
; first layer extrusion width = 0.50mm

M73 P0 R9


; Pre-Processed for Cancel-Object support by preprocess_cancellation v0.2.0
; 1 known objects
EXCLUDE_OBJECT_DEFINE NAME=Xol_Carriage_test_piece_6mm_stl_id_0_copy_0 CENTER=150.043,150.564 POLYGON=[[134.4,139.324],[134.4,160.676],[165.6,160.676],[165.6,139.324]]
;TYPE:Custom
M190 S0
M109 S0
print_start EXTRUDER=215 BED=60
G21 ; set units to millimeters
G90 ; use absolute coordinates
M83 ; use relative distances for extrusion
; Filament gcode
M107
;LAYER_CHANGE
;Z:0.2
;HEIGHT:0.2
;BEFORE_LAYER_CHANGE
;0.2
G92 E0

G1 Z.2 F30000
;AFTER_LAYER_CHANGE
;0.2
; printing object Xol_Carriage_test_piece_6mm.stl id:0 copy 0
EXCLUDE_OBJECT_START NAME=Xol_Carriage_test_piece_6mm_stl_id_0_copy_0
G1 E-.8 F1800
G1 Z.6 F30000
G1 X150.209 Y145.271
G1 Z.2
G1 E.8 F1800
M204 S500
;TYPE:Perimeter
;WIDTH:0.464389
G1 X149.788 Y145.271 E.01475
G1 X149.788 Y142.042 E.11316
;WIDTH:0.508002
G1 X149.772 Y141.797 E.00949
;WIDTH:0.551614
G1 X149.756 Y141.552 E.01039
G1 X149.536 Y141.222 E.01678
G1 X150.461 Y141.222 E.03913
G1 X150.241 Y141.552 E.01678
G1 X150.225 Y141.797 E.01039
;WIDTH:0.508002
G1 X150.209 Y142.042 E.00949
;WIDTH:0.464389
G1 X150.209 Y145.211 E.11106
M204 S10000
G1 E-.8
G1 Z.6 F30000
G1 X142.514 Y140.82
G1 Z.2
G1 E.8 F1800
M204 S500
;WIDTH:0.66312
G1 X142.457 Y140.843 E.00317
;WIDTH:0.61935
G1 X142.401 Y140.866 E.0029
;WIDTH:0.57558
G1 X142.345 Y140.889 E.00268
;WIDTH:0.53181
G1 X142.289 Y140.912 E.00246
;WIDTH:0.48804
G1 X142.233 Y140.935 E.00224
;WIDTH:0.44427
G1 X142.176 Y140.958 E.00205
;WIDTH:0.4005
G1 X142.12 Y140.981 E.0018
;WIDTH:0.367264
G1 X141.444 Y141.003 E.01824
G1 X141.445 Y140.672 E.00893
G1 X142.114 Y140.667 E.01804
;WIDTH:0.4005
G1 X142.171 Y140.689 E.00182
;WIDTH:0.44427
G1 X142.228 Y140.711 E.00204
;WIDTH:0.48804
G1 X142.285 Y140.733 E.00226
;WIDTH:0.53181
G1 X142.342 Y140.754 E.00247
;WIDTH:0.57558
G1 X142.399 Y140.776 E.00271
;WIDTH:0.61935
G1 X142.457 Y140.798 E.00297
;WIDTH:0.66312
G1 X142.458 Y140.799 E.00007
M204 S10000
G1 E-.8
G1 Z.6 F30000
G1 X150.758 Y145.71
G1 Z.2
G1 E.8 F1800
M204 S500
;WIDTH:0.499999
G1 X149.239 Y145.71 E.05773
G1 X149.349 Y145.381 E.01318
G1 X149.349 Y142.042 E.1269
G1 X149.296 Y141.698 E.01323
G1 X148.944 Y141.17 E.02412
;WIDTH:0.540142
G1 X148.76 Y141.082 E.00843
;WIDTH:0.580285
G1 X148.575 Y140.994 E.00915
;WIDTH:0.620428
G1 X148.39 Y140.907 E.00982
;WIDTH:0.66057
G1 X148.206 Y140.819 E.01047
G1 X148.43 Y140.799 E.01155
;WIDTH:0.620428
G1 X148.654 Y140.779 E.0108
;WIDTH:0.580285
G1 X148.878 Y140.759 E.01005
;WIDTH:0.540142
G1 X149.102 Y140.739 E.0093
;WIDTH:0.499999
G1 X150.895 Y140.739 E.06815
G1 X151.194 Y140.714 E.0114
;WIDTH:0.450567
G1 X151.493 Y140.689 E.01017
;WIDTH:0.401135
G1 X151.792 Y140.665 E.00893
;WIDTH:0.352896
G1 X157.684 Y140.665 E.15186
;WIDTH:0.353424
G1 X157.734 Y140.666 E.00129
;WIDTH:0.367087
G1 X158.553 Y140.672 E.02208
G1 X158.554 Y141.003 E.00892
G1 X157.683 Y140.975 E.02349
;WIDTH:0.352896
G1 X151.792 Y140.973 E.15184
;WIDTH:0.360967
G1 X151.606 Y140.985 E.00493
;WIDTH:0.407311
G1 X151.422 Y141.046 E.00587
;WIDTH:0.453655
G1 X151.237 Y141.108 E.00666
;WIDTH:0.499999
G1 X151.053 Y141.17 E.00738
G1 X150.702 Y141.698 E.0241
G1 X150.649 Y142.042 E.01323
G1 X150.649 Y145.381 E.1269
G1 X150.739 Y145.653 E.01089
M204 S10000
G1 X151.619 Y146.015 F30000
M204 S500
;WIDTH:0.600588
G1 F1800
G1 X151.791 Y146.117 E.00927
G1 X151.546 Y146.134 E.01139
;WIDTH:0.567059
G1 X151.301 Y146.15 E.0107
;WIDTH:0.533529
G1 X151.056 Y146.167 E.01002
;WIDTH:0.499999
G1 X148.942 Y146.167 E.08035
;WIDTH:0.537246
G1 X148.739 Y146.149 E.00838
;WIDTH:0.574493
G1 X148.537 Y146.13 E.00897
;WIDTH:0.61174
G1 X148.334 Y146.111 E.00964
G1 X148.474 Y146.005 E.00831
;WIDTH:0.574493
G1 X148.614 Y145.899 E.00776
;WIDTH:0.537246
G1 X148.754 Y145.793 E.00722
;WIDTH:0.499999
G1 X148.892 Y145.381 E.01651
G1 X148.892 Y142.042 E.1269
G1 X148.86 Y141.835 E.00796
G1 X148.649 Y141.519 E.01444
G1 X148.206 Y141.356 E.01794
G1 X142.287 Y141.359 E.22496
G1 X141.209 Y141.404 E.04101
G1 X141.038 Y141.577 E.00924
G1 X141.056 Y140.281 E.04926
G1 X158.943 Y140.282 E.67982
G1 X158.96 Y141.577 E.04922
G1 X158.789 Y141.404 E.00924
G1 X157.683 Y141.359 E.04207
G1 X151.792 Y141.356 E.22389
G1 X151.673 Y141.367 E.00454
G1 X151.348 Y141.519 E.01364
G1 X151.138 Y141.835 E.01442
G1 X151.106 Y142.042 E.00796
G1 X151.106 Y145.381 E.1269
G1 X151.243 Y145.793 E.0165
;WIDTH:0.533529
G1 X151.426 Y145.901 E.00867
;WIDTH:0.567059
G1 X151.567 Y145.984 E.00713
M204 S10000
G1 E-.8
G1 Z.6 F30000
G1 X140.995 Y146.624
G1 Z.2
G1 E.8 F1800
M204 S500
;TYPE:External perimeter
;WIDTH:0.499999
G1 X140.719 Y146.558 E.01079
G1 X140.617 Y146.42 E.00652
G1 X140.59 Y146.106 E.01198
G1 X140.552 Y144.89 E.04624
G1 X140.552 Y142.516 E.09023
G1 X140.596 Y141.079 E.05464
G1 X140.599 Y140.202 E.03333
G1 X140.66 Y139.961 E.00945
G1 X140.744 Y139.896 E.00404
G1 X140.922 Y139.824 E.0073
G1 X158.392 Y139.825 E.66397
M73 P1 R9
G1 X159.211 Y139.851 E.03114
G1 X159.342 Y139.965 E.0066
G1 X159.4 Y140.17 E.0081
G1 X159.407 Y141.231 E.04033
G1 X159.446 Y142.516 E.04886
;WIDTH:0.499991
G1 X159.442 Y145.334 E.1071
;WIDTH:0.501038
G1 X159.406 Y146.235 E.03435
;WIDTH:0.499999
G1 X159.328 Y146.503 E.01061
G1 X159.25 Y146.56 E.00367
G1 X159.077 Y146.624 E.00701
G1 X141.055 Y146.624 E.68495
M204 S10000
G1 X140.893 Y146.359 F30000
G1 E-.8 F1800
G1 Z.6 F30000
G1 X151.791 Y145.61
G1 Z.2
G1 E.8 F1800
M204 S500
G1 X151.609 Y145.518 E.00775
G1 X151.563 Y145.381 E.00549
G1 X151.563 Y142.042 E.1269
G1 X151.644 Y141.867 E.00733
G1 X151.791 Y141.813 E.00595
G1 X157.683 Y141.816 E.22393
G1 X158.77 Y141.861 E.04135
G1 X158.986 Y142.089 E.01194
G1 X158.988 Y145.334 E.12333
;WIDTH:0.501038
G1 X158.985 Y145.382 E.00183
G1 X158.77 Y145.562 E.01068
;WIDTH:0.499999
G1 X157.683 Y145.607 E.04135
G1 X151.851 Y145.61 E.22165
M204 S10000
G1 X151.64 Y145.747 F30000
G1 E-.8 F1800
G1 Z.6 F30000
G1 X158.876 Y146.089
G1 Z.2
G1 E.8 F1800
M204 S500
;TYPE:Perimeter
;WIDTH:0.65661
G1 X158.792 Y146.093 E.00429
;WIDTH:0.64858
G1 X157.714 Y146.115 E.0543
;WIDTH:0.60374
G1 X157.683 Y146.116 E.00145
;WIDTH:0.603104
G1 X151.792 Y146.117 E.2744
;WIDTH:0.600588
G1 X151.791 Y146.117 E.00005
M204 S10000
G1 E-.8
G1 Z.6 F30000
G1 X148.206 Y145.61
G1 Z.2
G1 E.8 F1800
M204 S500
;TYPE:External perimeter
;WIDTH:0.499999
G1 X142.315 Y145.607 E.22389
G1 X141.228 Y145.562 E.04135
G1 X141.016 Y145.38 E.01062
G1 X141.013 Y142.082 E.12534
G1 X141.228 Y141.861 E.01172
G1 X142.306 Y141.816 E.04101
G1 X148.206 Y141.813 E.22424
G1 X148.354 Y141.867 E.00599
G1 X148.434 Y142.042 E.00731
G1 X148.434 Y145.381 E.1269
G1 X148.389 Y145.518 E.00548
G1 X148.259 Y145.583 E.00552
M204 S10000
G1 X148.102 Y145.996 F30000
G1 E-.8 F1800
G1 Z.6 F30000
G1 X142.514 Y140.82
G1 Z.2
G1 E.8 F1800
M204 S500
;TYPE:Perimeter
;WIDTH:0.66312
G1 X148.205 Y140.819 E.29348
;WIDTH:0.66057
G1 X148.206 Y140.819 E.00005
M204 S10000
G1 E-.8
G1 Z.6 F30000
G1 X148.334 Y146.111
G1 Z.2
G1 E.8 F1800
M204 S500
;WIDTH:0.61174
G1 X148.206 Y146.117 E.00606
;WIDTH:0.603102
G1 X142.315 Y146.116 E.2744
;WIDTH:0.603742
G1 X142.285 Y146.115 E.0014
;WIDTH:0.648578
G1 X141.206 Y146.093 E.05435
;WIDTH:0.656308
G1 X141.125 Y146.089 E.00414
M204 S10000
G1 E-.8
G1 Z.6 F30000
G1 X136.204 Y158.449
G1 Z.2
G1 E.8 F1800
M204 S500
;WIDTH:0.362555
G1 X136.205 Y158.054 E.0105
G1 X136.38 Y158.13 E.00507
G1 X136.529 Y158.135 E.00396
;WIDTH:0.358553
G1 X139.999 Y158.135 E.09107
G1 X139.999 Y158.451 E.00829
G1 X136.529 Y158.451 E.09107
;WIDTH:0.362555
G1 X136.264 Y158.449 E.00704
M204 S10000
G1 X135.815 Y158.837 F30000
M204 S500
;WIDTH:0.499999
G1 F1800
G1 X135.817 Y157.484 E.05142
G1 X136.417 Y157.743 E.02484
G1 X140.386 Y157.749 E.15085
G1 X140.386 Y158.837 E.04135
G1 X135.875 Y158.837 E.17145
M204 S10000
M73 P2 R9
G1 E-.8
G1 Z.6 F30000
G1 X135.895 Y151.138
G1 Z.2
G1 E.8 F1800
M204 S500
;WIDTH:0.642288
G1 X135.896 Y150.338 E.03987
G1 X136.529 Y150.329 E.03155
;WIDTH:0.623664
G1 X140.079 Y150.33 E.17143
;WIDTH:0.622961
G1 X140.573 Y150.33 E.02383
G1 X140.36 Y150.69 E.02017
G1 X140.333 Y150.91 E.01069
;WIDTH:0.623664
G1 X136.529 Y150.909 E.18369
;WIDTH:0.634992
G1 X136.32 Y150.922 E.01031
;WIDTH:0.642288
G1 X135.949 Y151.11 E.02073
M204 S10000
G1 E-.8
G1 Z.6 F30000
G1 X159.428 Y150.335
G1 Z.2
G1 E.8 F1800
M204 S500
;WIDTH:0.619042
G1 X163.472 Y150.337 E.19373
;WIDTH:0.61834
G1 X163.472 Y150.337 E0
;WIDTH:0.638518
G1 X164.117 Y150.347 E.03195
G1 X164.117 Y150.645 E.01476
G1 X164.117 Y151.146 E.02481
G1 X163.75 Y150.934 E.02099
G1 X163.471 Y150.912 E.01386
;WIDTH:0.619042
G1 X159.665 Y150.912 E.18233
G1 X159.639 Y150.693 E.01056
G1 X159.458 Y150.387 E.01703
M204 S10000
G1 E-.8
G1 Z.6 F30000
G1 X160.001 Y158.451
G1 Z.2
G1 E.8 F1800
M204 S500
;WIDTH:0.358553
G1 X160.001 Y158.135 E.00829
G1 X163.471 Y158.135 E.09107
;WIDTH:0.362643
G1 X163.622 Y158.13 E.00402
G1 X163.797 Y158.053 E.00508
G1 X163.797 Y158.449 E.01053
G1 X163.471 Y158.451 E.00867
;WIDTH:0.358553
G1 X160.061 Y158.451 E.0895
M204 S10000
G1 X159.614 Y158.837 F30000
M204 S500
;WIDTH:0.499999
G1 F1800
G1 X159.614 Y157.749 E.04135
G1 X163.584 Y157.743 E.15089
G1 X164.186 Y157.482 E.02494
G1 X164.186 Y158.837 E.0515
G1 X159.674 Y158.837 E.17148
M204 S10000
G1 E-.8
G1 Z.6 F30000
G1 X135.358 Y159.294
G1 Z.2
G1 E.8 F1800
M204 S500
G1 X135.36 Y157.447 E.0702
;WIDTH:0.512506
G1 X135.371 Y152.114 E.20823
;WIDTH:0.509997
G1 X135.367 Y151.375 E.0287
;WIDTH:0.499999
G1 X135.368 Y149.809 E.05952
G1 X140.804 Y149.811 E.2066
;WIDTH:0.513025
G1 X158.472 Y149.823 E.69063
;WIDTH:0.509677
G1 X159.195 Y149.819 E.02806
;WIDTH:0.499999
G1 X164.643 Y149.821 E.20706
G1 X164.643 Y150.645 E.03132
G1 X164.643 Y151.379 E.0279
;WIDTH:0.514382
G1 X164.636 Y156.606 E.20491
;WIDTH:0.521417
G1 X164.643 Y157.447 E.03346
;WIDTH:0.499999
G1 X164.643 Y159.294 E.0702
G1 X159.157 Y159.294 E.2085
G1 X159.157 Y157.292 E.07609
G1 X163.471 Y157.292 E.16396
G1 X163.924 Y157.121 E.0184
;WIDTH:0.521417
G1 X164.157 Y156.726 E.01825
G1 X164.164 Y156.606 E.00478
;WIDTH:0.514382
G1 X164.164 Y152.114 E.1761
G1 X163.972 Y151.645 E.01987
;WIDTH:0.499999
G1 X163.629 Y151.447 E.01505
G1 X163.472 Y151.428 E.00601
G1 X159.157 Y151.428 E.164
G1 X159.137 Y150.816 E.02327
G1 X158.937 Y150.477 E.01496
;WIDTH:0.509677
G1 X158.471 Y150.29 E.01949
;WIDTH:0.513025
G1 X141.529 Y150.288 E.66225
;WIDTH:0.52005
M73 P3 R9
G1 X141.409 Y150.295 E.00477
G1 X141.064 Y150.477 E.01548
;WIDTH:0.499999
G1 X140.863 Y150.815 E.01495
G1 X140.843 Y151.428 E.02331
G1 X136.529 Y151.428 E.16396
G1 X136.41 Y151.439 E.00454
G1 X136.032 Y151.641 E.01629
;WIDTH:0.509997
G1 X135.838 Y152.114 E.01986
;WIDTH:0.512506
G1 X135.837 Y156.606 E.1754
;WIDTH:0.519527
G1 X135.843 Y156.725 E.00472
G1 X136.077 Y157.122 E.01826
;WIDTH:0.499999
G1 X136.529 Y157.292 E.01835
G1 X140.843 Y157.292 E.16396
G1 X140.843 Y159.294 E.07609
G1 X135.418 Y159.294 E.20618
M204 S10000
G1 X134.9 Y159.751 F30000
M204 S500
;TYPE:External perimeter
G1 F1800
G1 X134.912 Y149.352 E.39523
G1 X165.1 Y149.364 E1.14733
G1 X165.1 Y159.751 E.39477
G1 X158.7 Y159.751 E.24324
G1 X158.7 Y156.834 E.11086
G1 X163.471 Y156.834 E.18133
G1 X163.622 Y156.778 E.00612
G1 X163.7 Y156.606 E.00718
G1 X163.7 Y152.114 E.17072
G1 X163.638 Y151.958 E.00638
G1 X163.472 Y151.885 E.00689
G1 X158.7 Y151.885 E.18137
G1 X158.7 Y150.98 E.0344
G1 X158.627 Y150.813 E.00693
G1 X158.472 Y150.752 E.00633
G1 X141.529 Y150.752 E.64394
G1 X141.374 Y150.812 E.00632
G1 X141.3 Y150.98 E.00698
G1 X141.3 Y151.885 E.0344
G1 X136.529 Y151.885 E.18133
G1 X136.363 Y151.956 E.00686
G1 X136.3 Y152.114 E.00646
G1 X136.3 Y156.606 E.17072
G1 X136.378 Y156.778 E.00718
G1 X136.529 Y156.834 E.00612
G1 X141.3 Y156.834 E.18133
G1 X141.3 Y159.751 E.11086
G1 X134.96 Y159.751 E.24096
M204 S10000
G1 X135.049 Y159.38 F30000
G1 E-.8 F1800
G1 Z.6 F30000
G1 X144.622 Y159.105
G1 Z.2
M73 P4 R9
G1 E.8 F1800
M204 S500
;TYPE:Perimeter
G1 X144.622 Y153.398 E.2169
G1 X155.527 Y153.399 E.41446
G1 X155.527 Y159.105 E.21686
G1 X144.682 Y159.105 E.41218
M204 S10000
G1 X144.164 Y159.562 F30000
M204 S500
G1 F1800
G1 X144.164 Y152.941 E.25164
G1 X155.984 Y152.942 E.44923
G1 X155.984 Y159.562 E.2516
G1 X144.224 Y159.562 E.44695
M204 S10000
G1 X143.961 Y160.019 F30000
M204 S500
G1 F1800
G1 X143.757 Y159.977 E.00792
G1 X143.707 Y159.842 E.00547
G1 X143.707 Y152.73 E.2703
G1 X143.751 Y152.532 E.00771
G1 X143.894 Y152.484 E.00573
G1 X156.257 Y152.485 E.46987
G1 X156.422 Y152.578 E.0072
G1 X156.441 Y152.676 E.00379
G1 X156.441 Y159.792 E.27045
G1 X156.378 Y159.967 E.00707
G1 X156.256 Y160.019 E.00504
G1 X144.021 Y160.019 E.46501
M204 S10000
G1 X143.961 Y160.476 F30000
M204 S500
;TYPE:External perimeter
G1 F1800
G1 X143.565 Y160.4 E.01533
G1 X143.352 Y160.206 E.01095
G1 X143.25 Y159.877 E.01309
G1 X143.25 Y152.73 E.27163
G1 X143.331 Y152.333 E.0154
G1 X143.529 Y152.123 E.01097
G1 X143.863 Y152.027 E.01321
G1 X156.231 Y152.028 E.47006
G1 X156.542 Y152.084 E.01201
G1 X156.823 Y152.343 E.01452
G1 X156.898 Y152.676 E.01297
G1 X156.898 Y159.792 E.27045
G1 X156.81 Y160.18 E.01512
G1 X156.609 Y160.385 E.01091
G1 X156.287 Y160.476 E.01272
G1 X144.021 Y160.476 E.46618
M204 S10000
G1 X143.805 Y160.108 F30000
G1 E-.8 F1800
G1 Z.6 F30000
G1 X154.409 Y153.559
G1 Z.2
M73 P5 R9
G1 E.8 F1800
M204 S500
;TYPE:Solid infill
;WIDTH:0.516171
G1 X155.367 Y154.517 E.05331
M204 S10000
G1 X155.367 Y155.187 F30000
M204 S500
G1 F1800
G1 X153.739 Y153.559 E.0906
M204 S10000
G1 X153.07 Y153.559 F30000
M204 S500
G1 F1800
G1 X155.367 Y155.856 E.12783
M204 S10000
G1 X155.367 Y156.525 F30000
M204 S500
G1 F1800
G1 X152.401 Y153.559 E.16506
M204 S10000
G1 X151.731 Y153.559 F30000
M204 S500
G1 F1800
G1 X155.367 Y157.194 E.20232
M204 S10000
G1 X155.367 Y157.864 F30000
M204 S500
G1 F1800
G1 X151.062 Y153.559 E.23958
M204 S10000
G1 X150.393 Y153.559 F30000
M204 S500
G1 F1800
G1 X155.367 Y158.533 E.27681
M204 S10000
G1 X155.11 Y158.945 F30000
M204 S500
G1 F1800
G1 X149.723 Y153.559 E.29976
M204 S10000
G1 X149.054 Y153.559 F30000
M204 S500
G1 F1800
G1 X154.44 Y158.945 E.29973
M204 S10000
G1 X153.771 Y158.945 F30000
M204 S500
G1 F1800
G1 X148.385 Y153.558 E.29976
M204 S10000
G1 X147.715 Y153.558 F30000
M204 S500
G1 F1800
G1 X153.102 Y158.945 E.29979
M204 S10000
G1 X152.432 Y158.945 F30000
M204 S500
G1 F1800
G1 X147.046 Y153.558 E.29976
M204 S10000
G1 X146.377 Y153.558 F30000
M204 S500
G1 F1800
G1 X151.763 Y158.945 E.29976
M204 S10000
G1 X151.094 Y158.945 F30000
M204 S500
G1 F1800
G1 X145.707 Y153.558 E.29979
M204 S10000
G1 X145.038 Y153.558 F30000
M204 S500
G1 F1800
G1 X150.425 Y158.945 E.29979
M204 S10000
G1 X149.755 Y158.945 F30000
M204 S500
G1 F1800
G1 X144.781 Y153.971 E.27681
M204 S10000
G1 X144.781 Y154.64 F30000
M204 S500
G1 F1800
G1 X149.086 Y158.945 E.23958
M204 S10000
G1 X148.417 Y158.945 F30000
M204 S500
G1 F1800
G1 X144.781 Y155.31 E.20232
M204 S10000
G1 X144.781 Y155.979 F30000
M204 S500
G1 F1800
G1 X147.747 Y158.945 E.16506
M204 S10000
G1 X147.078 Y158.945 F30000
M204 S500
G1 F1800
G1 X144.781 Y156.648 E.12783
M204 S10000
G1 X144.781 Y157.317 F30000
M204 S500
G1 F1800
G1 X146.409 Y158.945 E.0906
M204 S10000
G1 X145.74 Y158.945 F30000
M204 S500
G1 F1800
G1 X144.781 Y157.987 E.05334
M204 S10000
; stop printing object Xol_Carriage_test_piece_6mm.stl id:0 copy 0
EXCLUDE_OBJECT_END NAME=Xol_Carriage_test_piece_6mm_stl_id_0_copy_0
M106 S127.5
;LAYER_CHANGE
;Z:0.4
;HEIGHT:0.2
;BEFORE_LAYER_CHANGE
;0.4
G92 E0

G1 Z.4 F30000
;AFTER_LAYER_CHANGE
;0.4
M104 S220 ; set temperature
; printing object Xol_Carriage_test_piece_6mm.stl id:0 copy 0
EXCLUDE_OBJECT_START NAME=Xol_Carriage_test_piece_6mm_stl_id_0_copy_0
G1 E-.8 F1800
G1 Z.8 F30000
G1 X150.784 Y145.803
G1 Z.4
G1 E.8 F1800
;TYPE:Perimeter
;WIDTH:0.459999
G1 F2400
G1 X149.214 Y145.803 E.05445
